%
(Header)
(Generated by gcodetools from Inkscape.)
(Using default header. To add your own header create file "header" in the output dir.)
M3
(Header end.)
G21 (All units in mm)

(Start cutting path id: path1-9)
(Change tool to Default tool)

G00 Z5.000000
G00 X8.261406 Y113.738594

G01 Z-0.125000 F100.0(Penetrate)
G01 X8.261406 Y7.261410 Z-0.125000 F400.000000
G01 X66.738594 Y7.261410 Z-0.125000
G01 X66.738594 Y113.738594 Z-0.125000
G01 X8.261406 Y113.738594 Z-0.125000
G00 Z5.000000

(End cutting path id: path1-9)


(Start cutting path id: path1)
(Change tool to Default tool)

G00 Z5.000000
G00 X10.249977 Y111.750023

G01 Z-0.125000 F100.0(Penetrate)
G01 X10.249977 Y79.249979 Z-0.125000 F400.000000
G01 X64.750021 Y79.249979 Z-0.125000
G01 X64.750021 Y111.750023 Z-0.125000
G01 X10.249977 Y111.750023 Z-0.125000
G00 Z5.000000

(End cutting path id: path1)


(Start cutting path id: text6)
(Change tool to Default tool)

G00 Z5.000000
G00 X18.460231 Y98.578286

G01 Z-0.125000 F100.0(Penetrate)
G01 X18.460231 Y106.835390 Z-0.125000 F400.000000
G01 X17.383209 Y106.835390 Z-0.125000
G01 X17.383209 Y98.578286 Z-0.125000
G01 X18.460231 Y98.578286 Z-0.125000
G00 Z5.000000

(Change tool to Default tool)

G00 Z5.000000
G00 X20.861868 Y108.578239

G01 Z-0.125000 F100.0(Penetrate)
G01 X14.981571 Y108.578239 Z-0.125000 F400.000000
G01 X14.981571 Y107.406816 Z-0.125000
G01 X20.861868 Y107.406816 Z-0.125000
G01 X20.861868 Y108.578239 Z-0.125000
G00 Z5.000000

(Change tool to Default tool)

G00 Z5.000000
G00 X22.892118 Y108.578239

G01 Z-0.125000 F100.0(Penetrate)
G01 X21.815096 Y108.578239 Z-0.125000 F400.000000
G01 X21.815096 Y98.578286 Z-0.125000
G01 X22.892118 Y98.578286 Z-0.125000
G01 X22.892118 Y108.578239 Z-0.125000
G00 Z5.000000

(Change tool to Default tool)

G00 Z5.000000
G00 X30.616984 Y108.578239

G01 Z-0.125000 F100.0(Penetrate)
G01 X29.589479 Y108.578239 Z-0.125000 F400.000000
G01 X29.589479 Y98.578286 Z-0.125000
G01 X30.616984 Y98.578286 Z-0.125000
G01 X30.616984 Y108.578239 Z-0.125000
G00 Z5.000000

(Change tool to Default tool)

G00 Z5.000000
G00 X24.390058 Y98.578286

G01 Z-0.125000 F100.0(Penetrate)
G01 X25.417564 Y98.578286 Z-0.125000 F400.000000
G01 X25.417564 Y108.578239 Z-0.125000
G01 X24.390058 Y108.578239 Z-0.125000
G01 X24.390058 Y98.578286 Z-0.125000
G00 Z5.000000

(Change tool to Default tool)

G00 Z5.000000
G00 X25.912747 Y108.106813

G01 Z-0.125000 F100.0(Penetrate)
G01 X25.912747 Y105.806824 Z-0.125000 F400.000000
G01 X27.224981 Y103.035408 Z-0.125000
G01 X27.782062 Y103.035408 Z-0.125000
G01 X29.094296 Y105.806824 Z-0.125000
G01 X29.094296 Y108.106813 Z-0.125000
G01 X27.546850 Y104.621115 Z-0.125000
G01 X25.912747 Y108.106813 Z-0.125000
G00 Z5.000000

(Change tool to Default tool)

G00 Z5.000000
G00 X32.003494 Y98.578286

G01 Z-0.125000 F100.0(Penetrate)
G01 X33.080516 Y98.578286 Z-0.125000 F400.000000
G01 X33.080516 Y108.578239 Z-0.125000
G01 X32.003494 Y108.578239 Z-0.125000
G01 X32.003494 Y98.578286 Z-0.125000
G00 Z5.000000

(Change tool to Default tool)

G00 Z5.000000
G00 X37.215294 Y98.578286

G01 Z-0.125000 F100.0(Penetrate)
G01 X37.215294 Y99.806852 Z-0.125000 F400.000000
G01 X33.575699 Y99.806852 Z-0.125000
G01 X33.575699 Y98.578286 Z-0.125000
G01 X37.215294 Y98.578286 Z-0.125000
G00 Z5.000000

(Change tool to Default tool)

G00 Z5.000000
G00 X37.190532 Y108.578239

G01 Z-0.125000 F100.0(Penetrate)
G01 X33.575697 Y108.578239 Z-0.125000 F400.000000
G01 X33.575697 Y107.349674 Z-0.125000
G01 X37.190532 Y107.349674 Z-0.125000
G01 X37.190532 Y108.578239 Z-0.125000
G00 Z5.000000

(Change tool to Default tool)

G00 Z5.000000
G00 X36.039232 Y103.292550

G01 Z-0.125000 F100.0(Penetrate)
G01 X36.039232 Y104.378259 Z-0.125000 F400.000000
G01 X33.575697 Y104.378259 Z-0.125000
G01 X33.575697 Y103.292550 Z-0.125000
G01 X36.039232 Y103.292550 Z-0.125000
G00 Z5.000000

(Change tool to Default tool)

G00 Z5.000000
G00 X40.211142 Y104.135402

G01 Z-0.125000 F100.0(Penetrate)
G01 X37.215287 Y104.135402 Z-0.125000 F400.000000
G01 X37.215287 Y103.278264 Z-0.125000
G01 X40.211144 Y103.278264 Z-0.125000
G01 X40.211142 Y104.135402 Z-0.125000
G00 Z5.000000

(Change tool to Default tool)

G00 Z5.000000
G00 X40.941532 Y107.035390

G01 Z-0.125000 F100.0(Penetrate)
G01 X40.941532 Y100.192564 Z-0.125000 F400.000000
G01 X42.340424 Y98.578286 Z-0.125000
G01 X43.590761 Y98.578286 Z-0.125000
G01 X43.590761 Y99.806852 Z-0.125000
G01 X42.761329 Y99.806852 Z-0.125000
G01 X42.006175 Y100.678276 Z-0.125000
G01 X42.006175 Y106.535391 Z-0.125000
G01 X42.711811 Y107.349674 Z-0.125000
G01 X43.590761 Y107.349674 Z-0.125000
G01 X43.590761 Y108.578239 Z-0.125000
G01 X42.278526 Y108.578239 Z-0.125000
G01 X40.941532 Y107.035390 Z-0.125000
G00 Z5.000000

(Change tool to Default tool)

G00 Z5.000000
G00 X44.828718 Y107.349674

G01 Z-0.125000 F100.0(Penetrate)
G01 X45.534354 Y106.535391 Z-0.125000 F400.000000
G01 X45.534354 Y100.678276 Z-0.125000
G01 X44.779200 Y99.806852 Z-0.125000
G01 X44.085944 Y99.806852 Z-0.125000
G01 X44.085944 Y98.578286 Z-0.125000
G01 X45.200105 Y98.578286 Z-0.125000
G01 X46.598997 Y100.192564 Z-0.125000
G01 X46.598997 Y107.035390 Z-0.125000
G01 X45.262006 Y108.578239 Z-0.125000
G01 X44.085947 Y108.578239 Z-0.125000
G01 X44.085947 Y107.349674 Z-0.125000
G01 X44.828718 Y107.349674 Z-0.125000
G00 Z5.000000

(Change tool to Default tool)

G00 Z5.000000
G00 X48.938742 Y100.678276

G01 Z-0.125000 F100.0(Penetrate)
G01 X48.938742 Y108.578239 Z-0.125000 F400.000000
G01 X47.874102 Y108.578239 Z-0.125000
G01 X47.874102 Y100.106850 Z-0.125000
G01 X49.198717 Y98.578286 Z-0.125000
G01 X50.350017 Y98.578286 Z-0.125000
G01 X50.350017 Y99.806852 Z-0.125000
G01 X49.693900 Y99.806852 Z-0.125000
G01 X48.938742 Y100.678276 Z-0.125000
G00 Z5.000000

(Change tool to Default tool)

G00 Z5.000000
G00 X53.283973 Y108.578239

G01 Z-0.125000 F100.0(Penetrate)
G01 X52.244089 Y108.578239 Z-0.125000 F400.000000
G01 X52.244089 Y100.678276 Z-0.125000
G01 X51.488934 Y99.806852 Z-0.125000
G01 X50.845199 Y99.806852 Z-0.125000
G01 X50.845199 Y98.578286 Z-0.125000
G01 X51.959361 Y98.578286 Z-0.125000
G01 X53.283976 Y100.106850 Z-0.125000
G01 X53.283973 Y108.578239 Z-0.125000
G00 Z5.000000

(Change tool to Default tool)

G00 Z5.000000
G00 X57.616820 Y98.578286

G01 Z-0.125000 F100.0(Penetrate)
G01 X57.616820 Y106.835390 Z-0.125000 F400.000000
G01 X56.539798 Y106.835390 Z-0.125000
G01 X56.539798 Y98.578286 Z-0.125000
G01 X57.616820 Y98.578286 Z-0.125000
G00 Z5.000000

(Change tool to Default tool)

G00 Z5.000000
G00 X60.018457 Y108.578239

G01 Z-0.125000 F100.0(Penetrate)
G01 X54.138160 Y108.578239 Z-0.125000 F400.000000
G01 X54.138160 Y107.406816 Z-0.125000
G01 X60.018457 Y107.406816 Z-0.125000
G01 X60.018457 Y108.578239 Z-0.125000
G00 Z5.000000

(End cutting path id: text6)


(Start cutting path id: rect10-6-4-4)
(Change tool to Default tool)

G00 Z5.000000
G00 X78.258965 Y122.241039

G01 Z-0.125000 F100.0(Penetrate)
G01 X136.741040 Y122.241039 Z-0.125000 F400.000000
G01 X136.741040 Y2.758960 Z-0.125000
G01 X78.258965 Y2.758960 Z-0.125000
G01 X78.258965 Y122.241039 Z-0.125000
G00 Z5.000000

(End cutting path id: rect10-6-4-4)


(Start cutting path id: rect10-6-4)
(Change tool to Default tool)

G00 Z5.000000
G00 X80.249908 Y120.250088

G01 Z-0.125000 F100.0(Penetrate)
G01 X134.750080 Y120.250088 Z-0.125000 F400.000000
G01 X134.750080 Y92.749912 Z-0.125000
G01 X80.249908 Y92.749912 Z-0.125000
G01 X80.249908 Y120.250088 Z-0.125000
G00 Z5.000000

(End cutting path id: rect10-6-4)


(Start cutting path id: text8-0-1-8-00)
(Change tool to Default tool)

G00 Z5.000000
G00 X84.802002 Y109.499914

G01 Z-0.125000 F100.0(Penetrate)
G01 X85.558015 Y109.499914 Z-0.125000 F400.000000
G01 X85.558015 Y117.499911 Z-0.125000
G01 X84.802002 Y117.499911 Z-0.125000
G01 X84.802002 Y109.499914 Z-0.125000
G00 Z5.000000

(Change tool to Default tool)

G00 Z5.000000
G00 X87.351347 Y116.505626

G01 Z-0.125000 F100.0(Penetrate)
G01 X87.790892 Y115.934196 Z-0.125000 F400.000000
G01 X87.790892 Y114.402768 Z-0.125000
G01 X87.351347 Y113.831340 Z-0.125000
G01 X85.909649 Y113.831340 Z-0.125000
G01 X85.909649 Y112.962769 Z-0.125000
G01 X87.711774 Y112.962769 Z-0.125000
G01 X88.546901 Y114.048483 Z-0.125000
G01 X88.546901 Y116.368482 Z-0.125000
G01 X87.685399 Y117.499911 Z-0.125000
G01 X85.909649 Y117.499911 Z-0.125000
G01 X85.909649 Y116.505626 Z-0.125000
G01 X87.351347 Y116.505626 Z-0.125000
G00 Z5.000000

(Change tool to Default tool)

G00 Z5.000000
G00 X87.641445 Y109.499914

G01 Z-0.125000 F100.0(Penetrate)
G01 X88.432623 Y109.499914 Z-0.125000 F400.000000
G01 X87.404092 Y112.505626 Z-0.125000
G01 X86.630497 Y112.505626 Z-0.125000
G01 X87.641445 Y109.499914 Z-0.125000
G00 Z5.000000

(Change tool to Default tool)

G00 Z5.000000
G00 X89.434783 Y109.499914

G01 Z-0.125000 F100.0(Penetrate)
G01 X90.199589 Y109.499914 Z-0.125000 F400.000000
G01 X90.199589 Y117.499911 Z-0.125000
G01 X89.434783 Y117.499911 Z-0.125000
G01 X89.434783 Y109.499914 Z-0.125000
G00 Z5.000000

(Change tool to Default tool)

G00 Z5.000000
G00 X93.135729 Y109.499914

G01 Z-0.125000 F100.0(Penetrate)
G01 X93.135729 Y110.482770 Z-0.125000 F400.000000
G01 X90.551221 Y110.482770 Z-0.125000
G01 X90.551221 Y109.499914 Z-0.125000
G01 X93.135729 Y109.499914 Z-0.125000
G00 Z5.000000

(Change tool to Default tool)

G00 Z5.000000
G00 X93.118188 Y117.499911

G01 Z-0.125000 F100.0(Penetrate)
G01 X90.551265 Y117.499911 Z-0.125000 F400.000000
G01 X90.551265 Y116.517054 Z-0.125000
G01 X93.118188 Y116.517054 Z-0.125000
G01 X93.118188 Y117.499911 Z-0.125000
G00 Z5.000000

(Change tool to Default tool)

G00 Z5.000000
G00 X92.300637 Y113.271341

G01 Z-0.125000 F100.0(Penetrate)
G01 X92.300637 Y114.139911 Z-0.125000 F400.000000
G01 X90.551265 Y114.139911 Z-0.125000
G01 X90.551265 Y113.271341 Z-0.125000
G01 X92.300637 Y113.271341 Z-0.125000
G00 Z5.000000

(Change tool to Default tool)

G00 Z5.000000
G00 X96.696059 Y113.179908

G01 Z-0.125000 F100.0(Penetrate)
G01 X97.012531 Y112.757052 Z-0.125000 F400.000000
G01 X97.012531 Y111.099910 Z-0.125000
G01 X96.546620 Y110.482766 Z-0.125000
G01 X96.019168 Y110.482766 Z-0.125000
G01 X96.019168 Y109.499911 Z-0.125000
G01 X96.863092 Y109.499911 Z-0.125000
G01 X97.777337 Y110.688481 Z-0.125000
G01 X97.777337 Y113.214194 Z-0.125000
G01 X97.074073 Y114.105622 Z-0.125000
G01 X96.019168 Y114.105622 Z-0.125000
G01 X96.019168 Y113.179908 Z-0.125000
G01 X96.696059 Y113.179908 Z-0.125000
G00 Z5.000000

(Change tool to Default tool)

G00 Z5.000000
G00 X93.874197 Y116.368479

G01 Z-0.125000 F100.0(Penetrate)
G01 X93.874197 Y114.094194 Z-0.125000 F400.000000
G01 X94.586258 Y113.179908 Z-0.125000
G01 X95.667536 Y113.179908 Z-0.125000
G01 X95.667536 Y114.105622 Z-0.125000
G01 X94.964263 Y114.105622 Z-0.125000
G01 X94.630216 Y114.517051 Z-0.125000
G01 X94.630216 Y115.934193 Z-0.125000
G01 X95.078550 Y116.517050 Z-0.125000
G01 X95.667536 Y116.517050 Z-0.125000
G01 X95.667536 Y117.499907 Z-0.125000
G01 X94.744494 Y117.499907 Z-0.125000
G01 X93.874197 Y116.368479 Z-0.125000
G00 Z5.000000

(Change tool to Default tool)

G00 Z5.000000
G00 X94.630216 Y111.099910

G01 Z-0.125000 F100.0(Penetrate)
G01 X94.630216 Y112.151337 Z-0.125000 F400.000000
G01 X93.874197 Y112.151337 Z-0.125000
G01 X93.874197 Y110.688481 Z-0.125000
G01 X94.788451 Y109.499911 Z-0.125000
G01 X95.667536 Y109.499911 Z-0.125000
G01 X95.667536 Y110.482766 Z-0.125000
G01 X95.104923 Y110.482766 Z-0.125000
G01 X94.630216 Y111.099910 Z-0.125000
G00 Z5.000000

(Change tool to Default tool)

G00 Z5.000000
G00 X96.854295 Y117.499907

G01 Z-0.125000 F100.0(Penetrate)
G01 X96.019168 Y117.499907 Z-0.125000 F400.000000
G01 X96.019168 Y116.517050 Z-0.125000
G01 X96.511451 Y116.517050 Z-0.125000
G01 X96.959786 Y115.934193 Z-0.125000
G01 X96.959786 Y115.237050 Z-0.125000
G01 X97.715804 Y115.237050 Z-0.125000
G01 X97.715804 Y116.368479 Z-0.125000
G01 X96.854295 Y117.499907 Z-0.125000
G00 Z5.000000

(Change tool to Default tool)

G00 Z5.000000
G00 X98.682794 Y109.499911

G01 Z-0.125000 F100.0(Penetrate)
G01 X99.447600 Y109.499911 Z-0.125000 F400.000000
G01 X99.447600 Y117.499907 Z-0.125000
G01 X98.682794 Y117.499907 Z-0.125000
G01 X98.682794 Y109.499911 Z-0.125000
G00 Z5.000000

(Change tool to Default tool)

G00 Z5.000000
G00 X102.383740 Y109.499911

G01 Z-0.125000 F100.0(Penetrate)
G01 X102.383740 Y110.482766 Z-0.125000 F400.000000
G01 X99.799232 Y110.482766 Z-0.125000
G01 X99.799232 Y109.499911 Z-0.125000
G01 X102.383740 Y109.499911 Z-0.125000
G00 Z5.000000

(Change tool to Default tool)

G00 Z5.000000
G00 X102.366200 Y117.499907

G01 Z-0.125000 F100.0(Penetrate)
G01 X99.799276 Y117.499907 Z-0.125000 F400.000000
G01 X99.799276 Y116.517050 Z-0.125000
G01 X102.366200 Y116.517050 Z-0.125000
G01 X102.366200 Y117.499907 Z-0.125000
G00 Z5.000000

(Change tool to Default tool)

G00 Z5.000000
G00 X101.548657 Y113.271338

G01 Z-0.125000 F100.0(Penetrate)
G01 X101.548657 Y114.139908 Z-0.125000 F400.000000
G01 X99.799276 Y114.139908 Z-0.125000
G01 X99.799276 Y113.271338 Z-0.125000
G01 X101.548657 Y113.271338 Z-0.125000
G00 Z5.000000

(Change tool to Default tool)

G00 Z5.000000
G00 X105.293552 Y109.499911

G01 Z-0.125000 F100.0(Penetrate)
G01 X105.293552 Y116.105622 Z-0.125000 F400.000000
G01 X104.528746 Y116.105622 Z-0.125000
G01 X104.528746 Y109.499911 Z-0.125000
G01 X105.293552 Y109.499911 Z-0.125000
G00 Z5.000000

(Change tool to Default tool)

G00 Z5.000000
G00 X106.998976 Y117.499907

G01 Z-0.125000 F100.0(Penetrate)
G01 X102.823322 Y117.499907 Z-0.125000 F400.000000
G01 X102.823322 Y116.562764 Z-0.125000
G01 X106.998976 Y116.562764 Z-0.125000
G01 X106.998976 Y117.499907 Z-0.125000
G00 Z5.000000

(Change tool to Default tool)

G00 Z5.000000
G00 X112.317440 Y109.499911

G01 Z-0.125000 F100.0(Penetrate)
G01 X112.317440 Y116.105622 Z-0.125000 F400.000000
G01 X111.552634 Y116.105622 Z-0.125000
G01 X111.552634 Y109.499911 Z-0.125000
G01 X112.317440 Y109.499911 Z-0.125000
G00 Z5.000000

(Change tool to Default tool)

G00 Z5.000000
G00 X114.022864 Y117.499907

G01 Z-0.125000 F100.0(Penetrate)
G01 X109.847210 Y117.499907 Z-0.125000 F400.000000
G01 X109.847210 Y116.562764 Z-0.125000
G01 X114.022864 Y116.562764 Z-0.125000
G01 X114.022864 Y117.499907 Z-0.125000
G00 Z5.000000

(Change tool to Default tool)

G00 Z5.000000
G00 X115.464561 Y117.499907

G01 Z-0.125000 F100.0(Penetrate)
G01 X114.699755 Y117.499907 Z-0.125000 F400.000000
G01 X114.699755 Y109.499911 Z-0.125000
G01 X115.464561 Y109.499911 Z-0.125000
G01 X115.464561 Y117.499907 Z-0.125000
G00 Z5.000000

(Change tool to Default tool)

G00 Z5.000000
G00 X120.950058 Y117.499907

G01 Z-0.125000 F100.0(Penetrate)
G01 X120.220413 Y117.499907 Z-0.125000 F400.000000
G01 X120.220413 Y109.499911 Z-0.125000
G01 X120.950058 Y109.499911 Z-0.125000
G01 X120.950058 Y117.499907 Z-0.125000
G00 Z5.000000

(Change tool to Default tool)

G00 Z5.000000
G00 X116.528263 Y109.499911

G01 Z-0.125000 F100.0(Penetrate)
G01 X117.257900 Y109.499911 Z-0.125000 F400.000000
G01 X117.257900 Y117.499907 Z-0.125000
G01 X116.528263 Y117.499907 Z-0.125000
G01 X116.528263 Y109.499911 Z-0.125000
G00 Z5.000000

(Change tool to Default tool)

G00 Z5.000000
G00 X117.609532 Y117.122765

G01 Z-0.125000 F100.0(Penetrate)
G01 X117.609532 Y115.282764 Z-0.125000 F400.000000
G01 X118.541361 Y113.065623 Z-0.125000
G01 X118.936951 Y113.065623 Z-0.125000
G01 X119.868781 Y115.282764 Z-0.125000
G01 X119.868781 Y117.122765 Z-0.125000
G01 X118.769927 Y114.334193 Z-0.125000
G01 X117.609532 Y117.122765 Z-0.125000
G00 Z5.000000

(Change tool to Default tool)

G00 Z5.000000
G00 X121.934624 Y109.499911

G01 Z-0.125000 F100.0(Penetrate)
G01 X122.699430 Y109.499911 Z-0.125000 F400.000000
G01 X122.699430 Y117.499907 Z-0.125000
G01 X121.934624 Y117.499907 Z-0.125000
G01 X121.934624 Y109.499911 Z-0.125000
G00 Z5.000000

(Change tool to Default tool)

G00 Z5.000000
G00 X125.635571 Y109.499911

G01 Z-0.125000 F100.0(Penetrate)
G01 X125.635571 Y110.482766 Z-0.125000 F400.000000
G01 X123.051062 Y110.482766 Z-0.125000
G01 X123.051062 Y109.499911 Z-0.125000
G01 X125.635571 Y109.499911 Z-0.125000
G00 Z5.000000

(Change tool to Default tool)

G00 Z5.000000
G00 X125.618030 Y117.499907

G01 Z-0.125000 F100.0(Penetrate)
G01 X123.051098 Y117.499907 Z-0.125000 F400.000000
G01 X123.051098 Y116.517050 Z-0.125000
G01 X125.618030 Y116.517050 Z-0.125000
G01 X125.618030 Y117.499907 Z-0.125000
G00 Z5.000000

(Change tool to Default tool)

G00 Z5.000000
G00 X124.800479 Y113.271338

G01 Z-0.125000 F100.0(Penetrate)
G01 X124.800479 Y114.139908 Z-0.125000 F400.000000
G01 X123.051098 Y114.139908 Z-0.125000
G01 X123.051098 Y113.271338 Z-0.125000
G01 X124.800479 Y113.271338 Z-0.125000
G00 Z5.000000

(Change tool to Default tool)

G00 Z5.000000
G00 X126.453157 Y109.499911

G01 Z-0.125000 F100.0(Penetrate)
G01 X127.209166 Y109.499911 Z-0.125000 F400.000000
G01 X127.209166 Y117.499907 Z-0.125000
G01 X126.453157 Y117.499907 Z-0.125000
G01 X126.453157 Y109.499911 Z-0.125000
G00 Z5.000000

(Change tool to Default tool)

G00 Z5.000000
G00 X129.002505 Y116.505622

G01 Z-0.125000 F100.0(Penetrate)
G01 X129.442043 Y115.934193 Z-0.125000 F400.000000
G01 X129.442043 Y114.402765 Z-0.125000
G01 X129.002505 Y113.831337 Z-0.125000
G01 X127.560807 Y113.831337 Z-0.125000
G01 X127.560807 Y112.962765 Z-0.125000
G01 X129.362925 Y112.962765 Z-0.125000
G01 X130.198061 Y114.048480 Z-0.125000
G01 X130.198061 Y116.368479 Z-0.125000
G01 X129.336552 Y117.499907 Z-0.125000
G01 X127.560807 Y117.499907 Z-0.125000
G01 X127.560807 Y116.505622 Z-0.125000
G01 X129.002505 Y116.505622 Z-0.125000
G00 Z5.000000

(Change tool to Default tool)

G00 Z5.000000
G00 X129.292604 Y109.499911

G01 Z-0.125000 F100.0(Penetrate)
G01 X130.083774 Y109.499911 Z-0.125000 F400.000000
G01 X129.055250 Y112.505623 Z-0.125000
G01 X128.281656 Y112.505623 Z-0.125000
G01 X129.292604 Y109.499911 Z-0.125000
G00 Z5.000000

(End cutting path id: text8-0-1-8-00)


(Start cutting path id: path1-9-4)
(Change tool to Default tool)

G00 Z5.000000
G00 X147.896410 Y113.738605

G01 Z-0.125000 F100.0(Penetrate)
G01 X147.896410 Y7.261420 Z-0.125000 F400.000000
G01 X206.373590 Y7.261420 Z-0.125000
G01 X206.373590 Y113.738605 Z-0.125000
G01 X147.896410 Y113.738605 Z-0.125000
G00 Z5.000000

(End cutting path id: path1-9-4)


(Start cutting path id: path1-8)
(Change tool to Default tool)

G00 Z5.000000
G00 X149.884980 Y111.750034

G01 Z-0.125000 F100.0(Penetrate)
G01 X149.884980 Y79.249990 Z-0.125000 F400.000000
G01 X204.385020 Y79.249990 Z-0.125000
G01 X204.385020 Y111.750034 Z-0.125000
G01 X149.884980 Y111.750034 Z-0.125000
G00 Z5.000000

(End cutting path id: path1-8)


(Start cutting path id: text2-1)
(Change tool to Default tool)

G00 Z5.000000
G00 X157.315038 Y117.613020

G01 Z-0.125000 F100.0(Penetrate)
G01 X159.785947 Y117.613020 Z-0.125000 F400.000000
G01 X154.789215 Y127.927982 Z-0.125000
G01 X152.235930 Y127.927982 Z-0.125000
G01 X157.315038 Y117.613020 Z-0.125000
G00 Z5.000000

(Change tool to Default tool)

G00 Z5.000000
G00 X148.831558 Y117.613020

G01 Z-0.125000 F100.0(Penetrate)
G01 X150.067020 Y120.206496 Z-0.125000 F400.000000
G01 X154.899027 Y120.206496 Z-0.125000
G01 X154.432303 Y121.149578 Z-0.125000
G01 X150.533744 Y121.149578 Z-0.125000
G01 X152.455567 Y125.172414 Z-0.125000
G01 X151.439756 Y127.264877 Z-0.125000
G01 X146.635198 Y117.613020 Z-0.125000
G01 X148.831558 Y117.613020 Z-0.125000
G00 Z5.000000

(Change tool to Default tool)

G00 Z5.000000
G00 X161.762724 Y127.927982

G01 Z-0.125000 F100.0(Penetrate)
G01 X159.456539 Y127.927982 Z-0.125000 F400.000000
G01 X163.437447 Y117.613020 Z-0.125000
G01 X166.045645 Y117.613020 Z-0.125000
G01 X161.762724 Y127.927982 Z-0.125000
G00 Z5.000000

(Change tool to Default tool)

G00 Z5.000000
G00 X169.779466 Y127.927982

G01 Z-0.125000 F100.0(Penetrate)
G01 X174.584024 Y117.613020 Z-0.125000 F400.000000
G01 X176.752934 Y117.613020 Z-0.125000
G01 X172.003289 Y127.927982 Z-0.125000
G01 X169.779466 Y127.927982 Z-0.125000
G00 Z5.000000

(Change tool to Default tool)

G00 Z5.000000
G00 X181.722216 Y127.927982

G01 Z-0.125000 F100.0(Penetrate)
G01 X179.525843 Y127.927982 Z-0.125000 F400.000000
G01 X176.560746 Y120.515945 Z-0.125000
G01 X177.713845 Y117.907733 Z-0.125000
G01 X181.722216 Y127.927982 Z-0.125000
G00 Z5.000000

(Change tool to Default tool)

G00 Z5.000000
G00 X166.951644 Y118.158239

G01 Z-0.125000 F100.0(Penetrate)
G01 X170.081465 Y124.818758 Z-0.125000 F400.000000
G01 X168.983279 Y127.191199 Z-0.125000
G01 X165.963269 Y120.633830 Z-0.125000
G01 X166.951644 Y118.158239 Z-0.125000
G00 Z5.000000

(Change tool to Default tool)

G00 Z5.000000
G00 X192.017694 Y117.613020

G01 Z-0.125000 F100.0(Penetrate)
G01 X194.488617 Y117.613020 Z-0.125000 F400.000000
G01 X189.491871 Y127.927982 Z-0.125000
G01 X186.938599 Y127.927982 Z-0.125000
G01 X192.017694 Y117.613020 Z-0.125000
G00 Z5.000000

(Change tool to Default tool)

G00 Z5.000000
G00 X183.534228 Y117.613020

G01 Z-0.125000 F100.0(Penetrate)
G01 X184.769689 Y120.206496 Z-0.125000 F400.000000
G01 X189.601697 Y120.206496 Z-0.125000
G01 X189.134959 Y121.149578 Z-0.125000
G01 X185.236413 Y121.149578 Z-0.125000
G01 X187.158237 Y125.172414 Z-0.125000
G01 X186.142412 Y127.264877 Z-0.125000
G01 X181.337854 Y117.613020 Z-0.125000
G01 X183.534228 Y117.613020 Z-0.125000
G00 Z5.000000

(Change tool to Default tool)

G00 Z5.000000
G00 X195.833904 Y127.927982

G01 Z-0.125000 F100.0(Penetrate)
G01 X193.335545 Y127.927982 Z-0.125000 F400.000000
G01 X198.277364 Y121.783211 Z-0.125000
G01 X198.277364 Y117.613020 Z-0.125000
G01 X200.665911 Y117.613020 Z-0.125000
G01 X200.665911 Y121.635855 Z-0.125000
G01 X195.833904 Y127.927982 Z-0.125000
G00 Z5.000000

(Change tool to Default tool)

G00 Z5.000000
G00 X205.635194 Y127.927982

G01 Z-0.125000 F100.0(Penetrate)
G01 X203.383922 Y127.927982 Z-0.125000 F400.000000
G01 X200.226637 Y123.816733 Z-0.125000
G01 X201.242461 Y122.490523 Z-0.125000
G01 X205.635194 Y127.927982 Z-0.125000
G00 Z5.000000

(End cutting path id: text2-1)


(Start cutting path id: text6-3)
(Change tool to Default tool)

G00 Z5.000000
G00 X158.095283 Y98.578298

G01 Z-0.125000 F100.0(Penetrate)
G01 X158.095283 Y106.835402 Z-0.125000 F400.000000
G01 X157.018269 Y106.835402 Z-0.125000
G01 X157.018269 Y98.578298 Z-0.125000
G01 X158.095283 Y98.578298 Z-0.125000
G00 Z5.000000

(Change tool to Default tool)

G00 Z5.000000
G00 X160.496922 Y108.578251

G01 Z-0.125000 F100.0(Penetrate)
G01 X154.616631 Y108.578251 Z-0.125000 F400.000000
G01 X154.616631 Y107.406828 Z-0.125000
G01 X160.496922 Y107.406828 Z-0.125000
G01 X160.496922 Y108.578251 Z-0.125000
G00 Z5.000000

(Change tool to Default tool)

G00 Z5.000000
G00 X162.527177 Y108.578251

G01 Z-0.125000 F100.0(Penetrate)
G01 X161.450154 Y108.578251 Z-0.125000 F400.000000
G01 X161.450154 Y98.578298 Z-0.125000
G01 X162.527177 Y98.578298 Z-0.125000
G01 X162.527177 Y108.578251 Z-0.125000
G00 Z5.000000

(Change tool to Default tool)

G00 Z5.000000
G00 X170.252037 Y108.578251

G01 Z-0.125000 F100.0(Penetrate)
G01 X169.224537 Y108.578251 Z-0.125000 F400.000000
G01 X169.224537 Y98.578298 Z-0.125000
G01 X170.252037 Y98.578298 Z-0.125000
G01 X170.252037 Y108.578251 Z-0.125000
G00 Z5.000000

(Change tool to Default tool)

G00 Z5.000000
G00 X164.025116 Y98.578298

G01 Z-0.125000 F100.0(Penetrate)
G01 X165.052616 Y98.578298 Z-0.125000 F400.000000
G01 X165.052616 Y108.578251 Z-0.125000
G01 X164.025116 Y108.578251 Z-0.125000
G01 X164.025116 Y98.578298 Z-0.125000
G00 Z5.000000

(Change tool to Default tool)

G00 Z5.000000
G00 X165.547799 Y108.106825

G01 Z-0.125000 F100.0(Penetrate)
G01 X165.547799 Y105.806836 Z-0.125000 F400.000000
G01 X166.860042 Y103.035420 Z-0.125000
G01 X167.417120 Y103.035420 Z-0.125000
G01 X168.729354 Y105.806836 Z-0.125000
G01 X168.729354 Y108.106825 Z-0.125000
G01 X167.181910 Y104.621127 Z-0.125000
G01 X165.547799 Y108.106825 Z-0.125000
G00 Z5.000000

(Change tool to Default tool)

G00 Z5.000000
G00 X171.638547 Y98.578298

G01 Z-0.125000 F100.0(Penetrate)
G01 X172.715571 Y98.578298 Z-0.125000 F400.000000
G01 X172.715571 Y108.578251 Z-0.125000
G01 X171.638547 Y108.578251 Z-0.125000
G01 X171.638547 Y98.578298 Z-0.125000
G00 Z5.000000

(Change tool to Default tool)

G00 Z5.000000
G00 X176.850349 Y98.578298

G01 Z-0.125000 F100.0(Penetrate)
G01 X176.850349 Y99.806864 Z-0.125000 F400.000000
G01 X173.210753 Y99.806864 Z-0.125000
G01 X173.210753 Y98.578298 Z-0.125000
G01 X176.850349 Y98.578298 Z-0.125000
G00 Z5.000000

(Change tool to Default tool)

G00 Z5.000000
G00 X176.825587 Y108.578251

G01 Z-0.125000 F100.0(Penetrate)
G01 X173.210753 Y108.578251 Z-0.125000 F400.000000
G01 X173.210753 Y107.349686 Z-0.125000
G01 X176.825587 Y107.349686 Z-0.125000
G01 X176.825587 Y108.578251 Z-0.125000
G00 Z5.000000

(Change tool to Default tool)

G00 Z5.000000
G00 X175.674287 Y103.292562

G01 Z-0.125000 F100.0(Penetrate)
G01 X175.674287 Y104.378271 Z-0.125000 F400.000000
G01 X173.210753 Y104.378271 Z-0.125000
G01 X173.210753 Y103.292562 Z-0.125000
G01 X175.674287 Y103.292562 Z-0.125000
G00 Z5.000000

(Change tool to Default tool)

G00 Z5.000000
G00 X179.846199 Y104.135415

G01 Z-0.125000 F100.0(Penetrate)
G01 X176.850340 Y104.135415 Z-0.125000 F400.000000
G01 X176.850340 Y103.278277 Z-0.125000
G01 X179.846199 Y103.278277 Z-0.125000
G01 X179.846199 Y104.135415 Z-0.125000
G00 Z5.000000

(Change tool to Default tool)

G00 Z5.000000
G00 X180.576593 Y107.035401

G01 Z-0.125000 F100.0(Penetrate)
G01 X180.576593 Y100.192577 Z-0.125000 F400.000000
G01 X181.975484 Y98.578298 Z-0.125000
G01 X183.225822 Y98.578298 Z-0.125000
G01 X183.225822 Y99.806864 Z-0.125000
G01 X182.396391 Y99.806864 Z-0.125000
G01 X181.641235 Y100.678289 Z-0.125000
G01 X181.641235 Y106.535404 Z-0.125000
G01 X182.346867 Y107.349686 Z-0.125000
G01 X183.225822 Y107.349686 Z-0.125000
G01 X183.225822 Y108.578251 Z-0.125000
G01 X181.913589 Y108.578251 Z-0.125000
G01 X180.576593 Y107.035401 Z-0.125000
G00 Z5.000000

(Change tool to Default tool)

G00 Z5.000000
G00 X184.463780 Y107.349686

G01 Z-0.125000 F100.0(Penetrate)
G01 X185.169411 Y106.535404 Z-0.125000 F400.000000
G01 X185.169411 Y100.678289 Z-0.125000
G01 X184.414256 Y99.806864 Z-0.125000
G01 X183.721005 Y99.806864 Z-0.125000
G01 X183.721005 Y98.578298 Z-0.125000
G01 X184.835162 Y98.578298 Z-0.125000
G01 X186.234054 Y100.192577 Z-0.125000
G01 X186.234054 Y107.035401 Z-0.125000
G01 X184.897058 Y108.578251 Z-0.125000
G01 X183.721005 Y108.578251 Z-0.125000
G01 X183.721005 Y107.349686 Z-0.125000
G01 X184.463780 Y107.349686 Z-0.125000
G00 Z5.000000

(Change tool to Default tool)

G00 Z5.000000
G00 X188.573806 Y100.678289

G01 Z-0.125000 F100.0(Penetrate)
G01 X188.573806 Y108.578251 Z-0.125000 F400.000000
G01 X187.509154 Y108.578251 Z-0.125000
G01 X187.509154 Y100.106863 Z-0.125000
G01 X188.833769 Y98.578298 Z-0.125000
G01 X189.985069 Y98.578298 Z-0.125000
G01 X189.985069 Y99.806864 Z-0.125000
G01 X189.328952 Y99.806864 Z-0.125000
G01 X188.573806 Y100.678289 Z-0.125000
G00 Z5.000000

(Change tool to Default tool)

G00 Z5.000000
G00 X192.919033 Y108.578251

G01 Z-0.125000 F100.0(Penetrate)
G01 X191.879152 Y108.578251 Z-0.125000 F400.000000
G01 X191.879152 Y100.678289 Z-0.125000
G01 X191.123997 Y99.806864 Z-0.125000
G01 X190.480252 Y99.806864 Z-0.125000
G01 X190.480252 Y98.578298 Z-0.125000
G01 X191.594418 Y98.578298 Z-0.125000
G01 X192.919033 Y100.106863 Z-0.125000
G01 X192.919033 Y108.578251 Z-0.125000
G00 Z5.000000

(Change tool to Default tool)

G00 Z5.000000
G00 X197.251879 Y98.578298

G01 Z-0.125000 F100.0(Penetrate)
G01 X197.251879 Y106.835402 Z-0.125000 F400.000000
G01 X196.174856 Y106.835402 Z-0.125000
G01 X196.174856 Y98.578298 Z-0.125000
G01 X197.251879 Y98.578298 Z-0.125000
G00 Z5.000000

(Change tool to Default tool)

G00 Z5.000000
G00 X199.653517 Y108.578251

G01 Z-0.125000 F100.0(Penetrate)
G01 X193.773217 Y108.578251 Z-0.125000 F400.000000
G01 X193.773217 Y107.406828 Z-0.125000
G01 X199.653517 Y107.406828 Z-0.125000
G01 X199.653517 Y108.578251 Z-0.125000
G00 Z5.000000

(End cutting path id: text6-3)


(Start cutting path id: text9-0-2)
(Change tool to Default tool)

G00 Z5.000000
G00 X201.624230 Y68.118488

G01 Z-0.125000 F100.0(Penetrate)
G01 X201.624230 Y69.187401 Z-0.125000 F400.000000
G01 X199.115980 Y69.187401 Z-0.125000
G01 X199.115980 Y71.716810 Z-0.125000
G01 X198.036490 Y71.716810 Z-0.125000
G01 X198.036490 Y69.187401 Z-0.125000
G01 X195.507080 Y69.187401 Z-0.125000
G01 X195.507080 Y68.118488 Z-0.125000
G01 X198.036490 Y68.118488 Z-0.125000
G01 X198.036490 Y65.599663 Z-0.125000
G01 X199.115980 Y65.599663 Z-0.125000
G01 X199.115980 Y68.118488 Z-0.125000
G01 X201.624230 Y68.118488 Z-0.125000
G00 Z5.000000

(End cutting path id: text9-0-2)


(Start cutting path id: text9-7)
(Change tool to Default tool)

G00 Z5.000000
G00 X201.624230 Y33.234740

G01 Z-0.125000 F100.0(Penetrate)
G01 X201.624230 Y34.303660 Z-0.125000 F400.000000
G01 X199.115980 Y34.303660 Z-0.125000
G01 X199.115980 Y36.833070 Z-0.125000
G01 X198.036490 Y36.833070 Z-0.125000
G01 X198.036490 Y34.303660 Z-0.125000
G01 X195.507080 Y34.303660 Z-0.125000
G01 X195.507080 Y33.234740 Z-0.125000
G01 X198.036490 Y33.234740 Z-0.125000
G01 X198.036490 Y30.715920 Z-0.125000
G01 X199.115980 Y30.715920 Z-0.125000
G01 X199.115980 Y33.234740 Z-0.125000
G01 X201.624230 Y33.234740 Z-0.125000
G00 Z5.000000

(End cutting path id: text9-7)


(Start cutting path id: text8-5)
(Change tool to Default tool)

G00 Z5.000000
G00 X165.591392 Y33.374660

G01 Z-0.125000 F100.0(Penetrate)
G01 X166.018724 Y32.846095 Z-0.125000 F400.000000
G01 X166.018724 Y30.774675 Z-0.125000
G01 X165.389604 Y30.003247 Z-0.125000
G01 X164.677397 Y30.003247 Z-0.125000
G01 X164.677397 Y28.774683 Z-0.125000
G01 X165.816926 Y28.774683 Z-0.125000
G01 X167.051420 Y30.260393 Z-0.125000
G01 X167.051420 Y33.417521 Z-0.125000
G01 X166.101811 Y34.531795 Z-0.125000
G01 X164.677397 Y34.531795 Z-0.125000
G01 X164.677397 Y33.374660 Z-0.125000
G01 X165.591392 Y33.374660 Z-0.125000
G00 Z5.000000

(Change tool to Default tool)

G00 Z5.000000
G00 X161.781088 Y37.360360

G01 Z-0.125000 F100.0(Penetrate)
G01 X161.781088 Y34.517512 Z-0.125000 F400.000000
G01 X162.742565 Y33.374660 Z-0.125000
G01 X164.202593 Y33.374660 Z-0.125000
G01 X164.202593 Y34.531795 Z-0.125000
G01 X163.252984 Y34.531795 Z-0.125000
G01 X162.801916 Y35.046088 Z-0.125000
G01 X162.801916 Y36.817500 Z-0.125000
G01 X163.407299 Y37.546077 Z-0.125000
G01 X164.202593 Y37.546077 Z-0.125000
G01 X164.202593 Y38.774642 Z-0.125000
G01 X162.956231 Y38.774642 Z-0.125000
G01 X161.781088 Y37.360360 Z-0.125000
G00 Z5.000000

(Change tool to Default tool)

G00 Z5.000000
G00 X162.801916 Y30.774675

G01 Z-0.125000 F100.0(Penetrate)
G01 X162.801916 Y32.088951 Z-0.125000 F400.000000
G01 X161.781088 Y32.088951 Z-0.125000
G01 X161.781088 Y30.260393 Z-0.125000
G01 X163.015581 Y28.774683 Z-0.125000
G01 X164.202593 Y28.774683 Z-0.125000
G01 X164.202593 Y30.003247 Z-0.125000
G01 X163.442904 Y30.003247 Z-0.125000
G01 X162.801916 Y30.774675 Z-0.125000
G00 Z5.000000

(Change tool to Default tool)

G00 Z5.000000
G00 X165.805058 Y38.774642

G01 Z-0.125000 F100.0(Penetrate)
G01 X164.677397 Y38.774642 Z-0.125000 F400.000000
G01 X164.677397 Y37.546077 Z-0.125000
G01 X165.342122 Y37.546077 Z-0.125000
G01 X165.947496 Y36.817500 Z-0.125000
G01 X165.947496 Y35.946078 Z-0.125000
G01 X166.968333 Y35.946078 Z-0.125000
G01 X166.968333 Y37.360360 Z-0.125000
G01 X165.805058 Y38.774642 Z-0.125000
G00 Z5.000000

(Change tool to Default tool)

G00 Z5.000000
G00 X168.155344 Y37.103213

G01 Z-0.125000 F100.0(Penetrate)
G01 X168.155344 Y30.517529 Z-0.125000 F400.000000
G01 X169.603494 Y28.774683 Z-0.125000
G01 X170.671804 Y28.774683 Z-0.125000
G01 X170.671804 Y30.003247 Z-0.125000
G01 X169.971466 Y30.003247 Z-0.125000
G01 X169.176172 Y30.960382 Z-0.125000
G01 X169.176172 Y36.617510 Z-0.125000
G01 X169.935861 Y37.531783 Z-0.125000
G01 X170.671804 Y37.531783 Z-0.125000
G01 X170.671804 Y38.774642 Z-0.125000
G01 X169.532275 Y38.774642 Z-0.125000
G01 X168.155344 Y37.103213 Z-0.125000
G00 Z5.000000

(Change tool to Default tool)

G00 Z5.000000
G00 X172.226787 Y28.774683

G01 Z-0.125000 F100.0(Penetrate)
G01 X173.473149 Y30.260393 Z-0.125000 F400.000000
G01 X173.473149 Y32.346097 Z-0.125000
G01 X172.440453 Y32.346097 Z-0.125000
G01 X172.440453 Y30.760391 Z-0.125000
G01 X171.811333 Y30.003247 Z-0.125000
G01 X171.146609 Y30.003247 Z-0.125000
G01 X171.146609 Y28.774683 Z-0.125000
G01 X172.226787 Y28.774683 Z-0.125000
G00 Z5.000000

(Change tool to Default tool)

G00 Z5.000000
G00 X173.473149 Y37.360360

G01 Z-0.125000 F100.0(Penetrate)
G01 X172.298015 Y38.774642 Z-0.125000 F400.000000
G01 X171.146609 Y38.774642 Z-0.125000
G01 X171.146609 Y37.531783 Z-0.125000
G01 X171.846947 Y37.531783 Z-0.125000
G01 X172.440453 Y36.817500 Z-0.125000
G01 X172.440453 Y35.431796 Z-0.125000
G01 X173.473149 Y35.431796 Z-0.125000
G01 X173.473149 Y37.360360 Z-0.125000
G00 Z5.000000

(Change tool to Default tool)

G00 Z5.000000
G00 X174.588951 Y37.231786

G01 Z-0.125000 F100.0(Penetrate)
G01 X174.588951 Y30.388956 Z-0.125000 F400.000000
G01 X175.930268 Y28.774683 Z-0.125000
G01 X177.129148 Y28.774683 Z-0.125000
G01 X177.129148 Y30.003247 Z-0.125000
G01 X176.333854 Y30.003247 Z-0.125000
G01 X175.609779 Y30.874670 Z-0.125000
G01 X175.609779 Y36.731789 Z-0.125000
G01 X176.286371 Y37.546077 Z-0.125000
G01 X177.129148 Y37.546077 Z-0.125000
G01 X177.129148 Y38.774642 Z-0.125000
G01 X175.870917 Y38.774642 Z-0.125000
G01 X174.588951 Y37.231786 Z-0.125000
G00 Z5.000000

(Change tool to Default tool)

G00 Z5.000000
G00 X178.316159 Y37.546077

G01 Z-0.125000 F100.0(Penetrate)
G01 X178.992761 Y36.731789 Z-0.125000 F400.000000
G01 X178.992761 Y30.874670 Z-0.125000
G01 X178.268686 Y30.003247 Z-0.125000
G01 X177.603952 Y30.003247 Z-0.125000
G01 X177.603952 Y28.774683 Z-0.125000
G01 X178.672262 Y28.774683 Z-0.125000
G01 X180.013589 Y30.388956 Z-0.125000
G01 X180.013589 Y37.231786 Z-0.125000
G01 X178.731613 Y38.774642 Z-0.125000
G01 X177.603952 Y38.774642 Z-0.125000
G01 X177.603952 Y37.546077 Z-0.125000
G01 X178.316159 Y37.546077 Z-0.125000
G00 Z5.000000

(Change tool to Default tool)

G00 Z5.000000
G00 X181.236214 Y28.774683

G01 Z-0.125000 F100.0(Penetrate)
G01 X182.257051 Y28.774683 Z-0.125000 F400.000000
G01 X182.257051 Y38.774642 Z-0.125000
G01 X181.236214 Y38.774642 Z-0.125000
G01 X181.236214 Y28.774683 Z-0.125000
G00 Z5.000000

(Change tool to Default tool)

G00 Z5.000000
G00 X184.678547 Y37.531783

G01 Z-0.125000 F100.0(Penetrate)
G01 X185.272052 Y36.817500 Z-0.125000 F400.000000
G01 X185.272052 Y34.903231 Z-0.125000
G01 X184.678547 Y34.188949 Z-0.125000
G01 X182.731855 Y34.188949 Z-0.125000
G01 X182.731855 Y33.103230 Z-0.125000
G01 X185.165229 Y33.103230 Z-0.125000
G01 X186.292889 Y34.460367 Z-0.125000
G01 X186.292889 Y37.360360 Z-0.125000
G01 X185.129615 Y38.774642 Z-0.125000
G01 X182.731855 Y38.774642 Z-0.125000
G01 X182.731855 Y37.531783 Z-0.125000
G01 X184.678547 Y37.531783 Z-0.125000
G00 Z5.000000

(Change tool to Default tool)

G00 Z5.000000
G00 X185.070264 Y28.774683

G01 Z-0.125000 F100.0(Penetrate)
G01 X186.138574 Y28.774683 Z-0.125000 F400.000000
G01 X184.749775 Y32.531804 Z-0.125000
G01 X183.705201 Y32.531804 Z-0.125000
G01 X185.070264 Y28.774683 Z-0.125000
G00 Z5.000000

(Change tool to Default tool)

G00 Z5.000000
G00 X187.491769 Y28.774683

G01 Z-0.125000 F100.0(Penetrate)
G01 X188.524474 Y28.774683 Z-0.125000 F400.000000
G01 X188.524474 Y38.774642 Z-0.125000
G01 X187.491769 Y38.774642 Z-0.125000
G01 X187.491769 Y28.774683 Z-0.125000
G00 Z5.000000

(Change tool to Default tool)

G00 Z5.000000
G00 X192.489094 Y28.774683

G01 Z-0.125000 F100.0(Penetrate)
G01 X192.489094 Y30.003247 Z-0.125000 F400.000000
G01 X188.999279 Y30.003247 Z-0.125000
G01 X188.999279 Y28.774683 Z-0.125000
G01 X192.489094 Y28.774683 Z-0.125000
G00 Z5.000000

(Change tool to Default tool)

G00 Z5.000000
G00 X192.465394 Y38.774642

G01 Z-0.125000 F100.0(Penetrate)
G01 X188.999324 Y38.774642 Z-0.125000 F400.000000
G01 X188.999324 Y37.546077 Z-0.125000
G01 X192.465394 Y37.546077 Z-0.125000
G01 X192.465394 Y38.774642 Z-0.125000
G00 Z5.000000

(Change tool to Default tool)

G00 Z5.000000
G00 X191.361479 Y33.488949

G01 Z-0.125000 F100.0(Penetrate)
G01 X191.361479 Y34.574657 Z-0.125000 F400.000000
G01 X188.999324 Y34.574657 Z-0.125000
G01 X188.999324 Y33.488949 Z-0.125000
G01 X191.361479 Y33.488949 Z-0.125000
G00 Z5.000000

(End cutting path id: text8-5)


(Start cutting path id: text10-4)
(Change tool to Default tool)

G00 Z5.000000
G00 X156.655420 Y33.150090

G01 Z-0.125000 F100.0(Penetrate)
G01 X156.655420 Y34.398920 Z-0.125000 F400.000000
G01 X153.575680 Y34.398920 Z-0.125000
G01 X153.575680 Y33.150090 Z-0.125000
G01 X156.655420 Y33.150090 Z-0.125000
G00 Z5.000000

(End cutting path id: text10-4)


(Start cutting path id: path1-4-1-9)
(Change tool to Default tool)

G00 Z5.000000
G00 X149.884980 Y41.750030

G01 Z-0.125000 F100.0(Penetrate)
G01 X149.884980 Y9.249990 Z-0.125000 F400.000000
G01 X204.385020 Y9.249990 Z-0.125000
G01 X204.385020 Y41.750030 Z-0.125000
G01 X149.884980 Y41.750030 Z-0.125000
G00 Z5.000000

(End cutting path id: path1-4-1-9)


(Start cutting path id: text7-3)
(Change tool to Default tool)

G00 Z5.000000
G00 X165.314469 Y63.658150

G01 Z-0.125000 F100.0(Penetrate)
G01 X166.329513 Y63.658150 Z-0.125000 F400.000000
G01 X166.329513 Y73.658222 Z-0.125000
G01 X165.314469 Y73.658222 Z-0.125000
G01 X165.314469 Y63.658150 Z-0.125000
G00 Z5.000000

(Change tool to Default tool)

G00 Z5.000000
G00 X170.259853 Y73.658222

G01 Z-0.125000 F100.0(Penetrate)
G01 X166.801631 Y73.658222 Z-0.125000 F400.000000
G01 X166.801631 Y72.429641 Z-0.125000
G01 X170.259853 Y72.429641 Z-0.125000
G01 X170.259853 Y73.658222 Z-0.125000
G00 Z5.000000

(Change tool to Default tool)

G00 Z5.000000
G00 X169.469066 Y68.158182

G01 Z-0.125000 F100.0(Penetrate)
G01 X169.469066 Y69.243904 Z-0.125000 F400.000000
G01 X166.801631 Y69.243904 Z-0.125000
G01 X166.801631 Y68.158182 Z-0.125000
G01 X169.469066 Y68.158182 Z-0.125000
G00 Z5.000000

(Change tool to Default tool)

G00 Z5.000000
G00 X170.979824 Y72.115354

G01 Z-0.125000 F100.0(Penetrate)
G01 X170.979824 Y65.272447 Z-0.125000 F400.000000
G01 X172.313546 Y63.658150 Z-0.125000
G01 X173.505635 Y63.658150 Z-0.125000
G01 X173.505635 Y64.886729 Z-0.125000
G01 X172.714839 Y64.886729 Z-0.125000
G01 X171.994868 Y65.758164 Z-0.125000
G01 X171.994868 Y71.615349 Z-0.125000
G01 X172.667628 Y72.429641 Z-0.125000
G01 X173.505635 Y72.429641 Z-0.125000
G01 X173.505635 Y73.658222 Z-0.125000
G01 X172.254537 Y73.658222 Z-0.125000
G01 X170.979824 Y72.115354 Z-0.125000
G00 Z5.000000

(Change tool to Default tool)

G00 Z5.000000
G00 X174.685917 Y72.429641

G01 Z-0.125000 F100.0(Penetrate)
G01 X175.358677 Y71.615349 Z-0.125000 F400.000000
G01 X175.358677 Y65.758164 Z-0.125000
G01 X174.638706 Y64.886729 Z-0.125000
G01 X173.977744 Y64.886729 Z-0.125000
G01 X173.977744 Y63.658150 Z-0.125000
G01 X175.039999 Y63.658150 Z-0.125000
G01 X176.373721 Y65.272447 Z-0.125000
G01 X176.373721 Y72.115354 Z-0.125000
G01 X175.099008 Y73.658222 Z-0.125000
G01 X173.977744 Y73.658222 Z-0.125000
G01 X173.977744 Y72.429641 Z-0.125000
G01 X174.685917 Y72.429641 Z-0.125000
G00 Z5.000000

(Change tool to Default tool)

G00 Z5.000000
G00 X178.604459 Y65.758164

G01 Z-0.125000 F100.0(Penetrate)
G01 X178.604459 Y73.658222 Z-0.125000 F400.000000
G01 X177.589416 Y73.658222 Z-0.125000
G01 X177.589416 Y65.186732 Z-0.125000
G01 X178.852312 Y63.658150 Z-0.125000
G01 X179.949980 Y63.658150 Z-0.125000
G01 X179.949980 Y64.886729 Z-0.125000
G01 X179.324430 Y64.886729 Z-0.125000
G01 X178.604459 Y65.758164 Z-0.125000
G00 Z5.000000

(Change tool to Default tool)

G00 Z5.000000
G00 X182.747249 Y73.658222

G01 Z-0.125000 F100.0(Penetrate)
G01 X181.755811 Y73.658222 Z-0.125000 F400.000000
G01 X181.755811 Y65.758164 Z-0.125000
G01 X181.035840 Y64.886729 Z-0.125000
G01 X180.422089 Y64.886729 Z-0.125000
G01 X180.422089 Y63.658150 Z-0.125000
G01 X181.484343 Y63.658150 Z-0.125000
G01 X182.747249 Y65.186732 Z-0.125000
G01 X182.747249 Y73.658222 Z-0.125000
G00 Z5.000000

(Change tool to Default tool)

G00 Z5.000000
G00 X185.096006 Y73.658222

G01 Z-0.125000 F100.0(Penetrate)
G01 X184.069164 Y73.658222 Z-0.125000 F400.000000
G01 X184.069164 Y65.458162 Z-0.125000
G01 X185.096006 Y65.458162 Z-0.125000
G01 X185.096006 Y73.658222 Z-0.125000
G00 Z5.000000

(Change tool to Default tool)

G00 Z5.000000
G00 X188.955530 Y63.658150

G01 Z-0.125000 F100.0(Penetrate)
G01 X188.955530 Y64.886729 Z-0.125000 F400.000000
G01 X184.069164 Y64.886729 Z-0.125000
G01 X184.069164 Y63.658150 Z-0.125000
G01 X188.955530 Y63.658150 Z-0.125000
G00 Z5.000000

(End cutting path id: text7-3)


(Start cutting path id: text10-5-7)
(Change tool to Default tool)

G00 Z5.000000
G00 X156.655420 Y68.033819

G01 Z-0.125000 F100.0(Penetrate)
G01 X156.655420 Y69.282649 Z-0.125000 F400.000000
G01 X153.575680 Y69.282649 Z-0.125000
G01 X153.575680 Y68.033819 Z-0.125000
G01 X156.655420 Y68.033819 Z-0.125000
G00 Z5.000000

(End cutting path id: text10-5-7)


(Start cutting path id: path1-4-8)
(Change tool to Default tool)

G00 Z5.000000
G00 X149.884980 Y76.750034

G01 Z-0.125000 F100.0(Penetrate)
G01 X149.884980 Y44.249990 Z-0.125000 F400.000000
G01 X204.385020 Y44.249990 Z-0.125000
G01 X204.385020 Y76.750034 Z-0.125000
G01 X149.884980 Y76.750034 Z-0.125000
G00 Z5.000000

(End cutting path id: path1-4-8)


(Start cutting path id: text9-8)
(Change tool to Default tool)

G00 Z5.000000
G00 X131.989210 Y83.460270

G01 Z-0.125000 F100.0(Penetrate)
G01 X131.989210 Y84.529183 Z-0.125000 F400.000000
G01 X129.480970 Y84.529183 Z-0.125000
G01 X129.480970 Y87.058592 Z-0.125000
G01 X128.401470 Y87.058592 Z-0.125000
G01 X128.401470 Y84.529183 Z-0.125000
G01 X125.872060 Y84.529183 Z-0.125000
G01 X125.872060 Y83.460270 Z-0.125000
G01 X128.401470 Y83.460270 Z-0.125000
G01 X128.401470 Y80.941444 Z-0.125000
G01 X129.480970 Y80.941444 Z-0.125000
G01 X129.480970 Y83.460270 Z-0.125000
G01 X131.989210 Y83.460270 Z-0.125000
G00 Z5.000000

(End cutting path id: text9-8)


(Start cutting path id: text8-0-1-8-0)
(Change tool to Default tool)

G00 Z5.000000
G00 X95.302659 Y80.000353

G01 Z-0.125000 F100.0(Penetrate)
G01 X96.067466 Y80.000353 Z-0.125000 F400.000000
G01 X96.067466 Y88.000281 Z-0.125000
G01 X95.302659 Y88.000281 Z-0.125000
G01 X95.302659 Y80.000353 Z-0.125000
G00 Z5.000000

(Change tool to Default tool)

G00 Z5.000000
G00 X97.887181 Y87.017433

G01 Z-0.125000 F100.0(Penetrate)
G01 X98.388254 Y86.366010 Z-0.125000 F400.000000
G01 X98.388254 Y84.583169 Z-0.125000
G01 X97.887181 Y83.931747 Z-0.125000
G01 X96.419099 Y83.931747 Z-0.125000
G01 X96.419099 Y83.028897 Z-0.125000
G01 X98.194857 Y83.028897 Z-0.125000
G01 X99.144273 Y84.263171 Z-0.125000
G01 X99.144273 Y86.766006 Z-0.125000
G01 X98.194857 Y88.000281 Z-0.125000
G01 X96.419099 Y88.000281 Z-0.125000
G01 X96.419099 Y87.017433 Z-0.125000
G01 X97.887181 Y87.017433 Z-0.125000
G00 Z5.000000

(Change tool to Default tool)

G00 Z5.000000
G00 X99.900293 Y80.000353

G01 Z-0.125000 F100.0(Penetrate)
G01 X100.665101 Y80.000353 Z-0.125000 F400.000000
G01 X100.665101 Y88.000281 Z-0.125000
G01 X99.900293 Y88.000281 Z-0.125000
G01 X99.900293 Y80.000353 Z-0.125000
G00 Z5.000000

(Change tool to Default tool)

G00 Z5.000000
G00 X103.601248 Y80.000353

G01 Z-0.125000 F100.0(Penetrate)
G01 X103.601248 Y80.983202 Z-0.125000 F400.000000
G01 X101.016734 Y80.983202 Z-0.125000
G01 X101.016734 Y80.000353 Z-0.125000
G01 X103.601248 Y80.000353 Z-0.125000
G00 Z5.000000

(Change tool to Default tool)

G00 Z5.000000
G00 X103.583707 Y88.000281

G01 Z-0.125000 F100.0(Penetrate)
G01 X101.016778 Y88.000281 Z-0.125000 F400.000000
G01 X101.016778 Y87.017433 Z-0.125000
G01 X103.583707 Y87.017433 Z-0.125000
G01 X103.583707 Y88.000281 Z-0.125000
G00 Z5.000000

(Change tool to Default tool)

G00 Z5.000000
G00 X102.766154 Y83.771747

G01 Z-0.125000 F100.0(Penetrate)
G01 X102.766154 Y84.640311 Z-0.125000 F400.000000
G01 X101.016778 Y84.640311 Z-0.125000
G01 X101.016778 Y83.771747 Z-0.125000
G01 X102.766154 Y83.771747 Z-0.125000
G00 Z5.000000

(Change tool to Default tool)

G00 Z5.000000
G00 X104.418836 Y80.000353

G01 Z-0.125000 F100.0(Penetrate)
G01 X105.174856 Y80.000353 Z-0.125000 F400.000000
G01 X105.174856 Y88.000281 Z-0.125000
G01 X104.418836 Y88.000281 Z-0.125000
G01 X104.418836 Y80.000353 Z-0.125000
G00 Z5.000000

(Change tool to Default tool)

G00 Z5.000000
G00 X106.968190 Y87.006003

G01 Z-0.125000 F100.0(Penetrate)
G01 X107.407738 Y86.434580 Z-0.125000 F400.000000
G01 X107.407738 Y84.903166 Z-0.125000
G01 X106.968190 Y84.331742 Z-0.125000
G01 X105.526489 Y84.331742 Z-0.125000
G01 X105.526489 Y83.463179 Z-0.125000
G01 X107.328619 Y83.463179 Z-0.125000
G01 X108.163749 Y84.548884 Z-0.125000
G01 X108.163749 Y86.868862 Z-0.125000
G01 X107.302247 Y88.000281 Z-0.125000
G01 X105.526489 Y88.000281 Z-0.125000
G01 X105.526489 Y87.006003 Z-0.125000
G01 X106.968190 Y87.006003 Z-0.125000
G00 Z5.000000

(Change tool to Default tool)

G00 Z5.000000
G00 X107.258289 Y80.000353

G01 Z-0.125000 F100.0(Penetrate)
G01 X108.049470 Y80.000353 Z-0.125000 F400.000000
G01 X107.020935 Y83.006040 Z-0.125000
G01 X106.247339 Y83.006040 Z-0.125000
G01 X107.258289 Y80.000353 Z-0.125000
G00 Z5.000000

(Change tool to Default tool)

G00 Z5.000000
G00 X109.895549 Y88.000281

G01 Z-0.125000 F100.0(Penetrate)
G01 X109.130750 Y88.000281 Z-0.125000 F400.000000
G01 X109.130750 Y80.000353 Z-0.125000
G01 X109.895549 Y80.000353 Z-0.125000
G01 X109.895549 Y88.000281 Z-0.125000
G00 Z5.000000

(Change tool to Default tool)

G00 Z5.000000
G00 X110.880135 Y86.766006

G01 Z-0.125000 F100.0(Penetrate)
G01 X110.880135 Y81.291770 Z-0.125000 F400.000000
G01 X111.873509 Y80.000353 Z-0.125000
G01 X112.761383 Y80.000353 Z-0.125000
G01 X112.761383 Y80.983202 Z-0.125000
G01 X112.172396 Y80.983202 Z-0.125000
G01 X111.636155 Y81.680339 Z-0.125000
G01 X111.636155 Y86.366010 Z-0.125000
G01 X112.137236 Y87.017433 Z-0.125000
G01 X112.761383 Y87.017433 Z-0.125000
G01 X112.761383 Y88.000281 Z-0.125000
G01 X111.829552 Y88.000281 Z-0.125000
G01 X110.880135 Y86.766006 Z-0.125000
G00 Z5.000000

(Change tool to Default tool)

G00 Z5.000000
G00 X113.640470 Y87.017433

G01 Z-0.125000 F100.0(Penetrate)
G01 X114.141551 Y86.366010 Z-0.125000 F400.000000
G01 X114.141551 Y81.680339 Z-0.125000
G01 X113.605309 Y80.983202 Z-0.125000
G01 X113.113016 Y80.983202 Z-0.125000
G01 X113.113016 Y80.000353 Z-0.125000
G01 X113.904197 Y80.000353 Z-0.125000
G01 X114.897562 Y81.291770 Z-0.125000
G01 X114.897562 Y86.766006 Z-0.125000
G01 X113.948154 Y88.000281 Z-0.125000
G01 X113.113016 Y88.000281 Z-0.125000
G01 X113.113016 Y87.017433 Z-0.125000
G01 X113.640470 Y87.017433 Z-0.125000
G00 Z5.000000

(Change tool to Default tool)

G00 Z5.000000
G00 X118.238096 Y87.017433

G01 Z-0.125000 F100.0(Penetrate)
G01 X118.941370 Y86.091726 Z-0.125000 F400.000000
G01 X118.941370 Y81.943193 Z-0.125000
G01 X118.202935 Y80.983202 Z-0.125000
G01 X116.919471 Y80.983202 Z-0.125000
G01 X116.919471 Y80.000353 Z-0.125000
G01 X118.457865 Y80.000353 Z-0.125000
G01 X119.697382 Y81.611768 Z-0.125000
G01 X119.697382 Y86.457437 Z-0.125000
G01 X118.510611 Y88.000281 Z-0.125000
G01 X116.919471 Y88.000281 Z-0.125000
G01 X116.919471 Y87.017433 Z-0.125000
G01 X118.238096 Y87.017433 Z-0.125000
G00 Z5.000000

(Change tool to Default tool)

G00 Z5.000000
G00 X115.803030 Y80.000353

G01 Z-0.125000 F100.0(Penetrate)
G01 X116.567838 Y80.000353 Z-0.125000 F400.000000
G01 X116.567838 Y88.000281 Z-0.125000
G01 X115.803030 Y88.000281 Z-0.125000
G01 X115.803030 Y80.000353 Z-0.125000
G00 Z5.000000

(End cutting path id: text8-0-1-8-0)


(Start cutting path id: text10-0)
(Change tool to Default tool)

G00 Z5.000000
G00 X87.020440 Y83.375601

G01 Z-0.125000 F100.0(Penetrate)
G01 X87.020440 Y84.624430 Z-0.125000 F400.000000
G01 X83.940700 Y84.624430 Z-0.125000
G01 X83.940700 Y83.375601 Z-0.125000
G01 X87.020440 Y83.375601 Z-0.125000
G00 Z5.000000

(End cutting path id: text10-0)


(Start cutting path id: rect10-6-4-2)
(Change tool to Default tool)

G00 Z5.000000
G00 X80.249908 Y90.750088

G01 Z-0.125000 F100.0(Penetrate)
G01 X134.750080 Y90.750088 Z-0.125000 F400.000000
G01 X134.750080 Y63.249912 Z-0.125000
G01 X80.249908 Y63.249912 Z-0.125000
G01 X80.249908 Y90.750088 Z-0.125000
G00 Z5.000000

(End cutting path id: rect10-6-4-2)


(Start cutting path id: text9-0)
(Change tool to Default tool)

G00 Z5.000000
G00 X61.989219 Y68.118473

G01 Z-0.125000 F100.0(Penetrate)
G01 X61.989219 Y69.187386 Z-0.125000 F400.000000
G01 X59.480977 Y69.187386 Z-0.125000
G01 X59.480977 Y71.716795 Z-0.125000
G01 X58.401480 Y71.716795 Z-0.125000
G01 X58.401480 Y69.187386 Z-0.125000
G01 X55.872072 Y69.187386 Z-0.125000
G01 X55.872072 Y68.118473 Z-0.125000
G01 X58.401480 Y68.118473 Z-0.125000
G01 X58.401480 Y65.599648 Z-0.125000
G01 X59.480977 Y65.599648 Z-0.125000
G01 X59.480977 Y68.118473 Z-0.125000
G01 X61.989219 Y68.118473 Z-0.125000
G00 Z5.000000

(End cutting path id: text9-0)


(Start cutting path id: rect10-6-4-2-0)
(Change tool to Default tool)

G00 Z5.000000
G00 X80.249908 Y61.250092

G01 Z-0.125000 F100.0(Penetrate)
G01 X134.750080 Y61.250092 Z-0.125000 F400.000000
G01 X134.750080 Y33.749920 Z-0.125000
G01 X80.249908 Y33.749920 Z-0.125000
G01 X80.249908 Y61.250092 Z-0.125000
G00 Z5.000000

(End cutting path id: rect10-6-4-2-0)


(Start cutting path id: text8-0-1-8)
(Change tool to Default tool)

G00 Z5.000000
G00 X85.689851 Y50.000488

G01 Z-0.125000 F100.0(Penetrate)
G01 X86.454656 Y50.000488 Z-0.125000 F400.000000
G01 X86.454656 Y58.000415 Z-0.125000
G01 X85.689851 Y58.000415 Z-0.125000
G01 X85.689851 Y50.000488 Z-0.125000
G00 Z5.000000

(Change tool to Default tool)

G00 Z5.000000
G00 X88.274369 Y57.017566

G01 Z-0.125000 F100.0(Penetrate)
G01 X88.775441 Y56.366144 Z-0.125000 F400.000000
G01 X88.775441 Y54.583303 Z-0.125000
G01 X88.274369 Y53.931880 Z-0.125000
G01 X86.806290 Y53.931880 Z-0.125000
G01 X86.806290 Y53.029031 Z-0.125000
G01 X88.582045 Y53.029031 Z-0.125000
G01 X89.531461 Y54.263305 Z-0.125000
G01 X89.531461 Y56.766139 Z-0.125000
G01 X88.582045 Y58.000415 Z-0.125000
G01 X86.806290 Y58.000415 Z-0.125000
G01 X86.806290 Y57.017566 Z-0.125000
G01 X88.274369 Y57.017566 Z-0.125000
G00 Z5.000000

(Change tool to Default tool)

G00 Z5.000000
G00 X90.208363 Y56.766139

G01 Z-0.125000 F100.0(Penetrate)
G01 X90.208363 Y51.291904 Z-0.125000 F400.000000
G01 X91.201728 Y50.000488 Z-0.125000
G01 X92.089611 Y50.000488 Z-0.125000
G01 X92.089611 Y50.983335 Z-0.125000
G01 X91.500616 Y50.983335 Z-0.125000
G01 X90.964374 Y51.680472 Z-0.125000
G01 X90.964374 Y56.366144 Z-0.125000
G01 X91.465455 Y57.017566 Z-0.125000
G01 X92.089611 Y57.017566 Z-0.125000
G01 X92.089611 Y58.000415 Z-0.125000
G01 X91.157780 Y58.000415 Z-0.125000
G01 X90.208363 Y56.766139 Z-0.125000
G00 Z5.000000

(Change tool to Default tool)

G00 Z5.000000
G00 X92.968698 Y57.017566

G01 Z-0.125000 F100.0(Penetrate)
G01 X93.469770 Y56.366144 Z-0.125000 F400.000000
G01 X93.469770 Y51.680472 Z-0.125000
G01 X92.933529 Y50.983335 Z-0.125000
G01 X92.441244 Y50.983335 Z-0.125000
G01 X92.441244 Y50.000488 Z-0.125000
G01 X93.232416 Y50.000488 Z-0.125000
G01 X94.225790 Y51.291904 Z-0.125000
G01 X94.225790 Y56.766139 Z-0.125000
G01 X93.276373 Y58.000415 Z-0.125000
G01 X92.441244 Y58.000415 Z-0.125000
G01 X92.441244 Y57.017566 Z-0.125000
G01 X92.968698 Y57.017566 Z-0.125000
G00 Z5.000000

(Change tool to Default tool)

G00 Z5.000000
G00 X97.873999 Y53.680454

G01 Z-0.125000 F100.0(Penetrate)
G01 X98.190472 Y53.257600 Z-0.125000 F400.000000
G01 X98.190472 Y51.600473 Z-0.125000
G01 X97.724560 Y50.983335 Z-0.125000
G01 X97.197106 Y50.983335 Z-0.125000
G01 X97.197106 Y50.000488 Z-0.125000
G01 X98.041032 Y50.000488 Z-0.125000
G01 X98.955279 Y51.189048 Z-0.125000
G01 X98.955279 Y53.714739 Z-0.125000
G01 X98.252005 Y54.606159 Z-0.125000
G01 X97.197106 Y54.606159 Z-0.125000
G01 X97.197106 Y53.680454 Z-0.125000
G01 X97.873999 Y53.680454 Z-0.125000
G00 Z5.000000

(Change tool to Default tool)

G00 Z5.000000
G00 X95.052131 Y56.868996

G01 Z-0.125000 F100.0(Penetrate)
G01 X95.052131 Y54.594731 Z-0.125000 F400.000000
G01 X95.764194 Y53.680454 Z-0.125000
G01 X96.845474 Y53.680454 Z-0.125000
G01 X96.845474 Y54.606159 Z-0.125000
G01 X96.142199 Y54.606159 Z-0.125000
G01 X95.808151 Y55.017584 Z-0.125000
G01 X95.808151 Y56.434715 Z-0.125000
G01 X96.256487 Y57.017566 Z-0.125000
G01 X96.845474 Y57.017566 Z-0.125000
G01 X96.845474 Y58.000415 Z-0.125000
G01 X95.922430 Y58.000415 Z-0.125000
G01 X95.052131 Y56.868996 Z-0.125000
G00 Z5.000000

(Change tool to Default tool)

G00 Z5.000000
G00 X95.808151 Y51.600473

G01 Z-0.125000 F100.0(Penetrate)
G01 X95.808151 Y52.651892 Z-0.125000 F400.000000
G01 X95.052131 Y52.651892 Z-0.125000
G01 X95.052131 Y51.189048 Z-0.125000
G01 X95.966387 Y50.000488 Z-0.125000
G01 X96.845474 Y50.000488 Z-0.125000
G01 X96.845474 Y50.983335 Z-0.125000
G01 X96.282859 Y50.983335 Z-0.125000
G01 X95.808151 Y51.600473 Z-0.125000
G00 Z5.000000

(Change tool to Default tool)

G00 Z5.000000
G00 X98.032236 Y58.000415

G01 Z-0.125000 F100.0(Penetrate)
G01 X97.197106 Y58.000415 Z-0.125000 F400.000000
G01 X97.197106 Y57.017566 Z-0.125000
G01 X97.689391 Y57.017566 Z-0.125000
G01 X98.137726 Y56.434715 Z-0.125000
G01 X98.137726 Y55.737577 Z-0.125000
G01 X98.893746 Y55.737577 Z-0.125000
G01 X98.893746 Y56.868996 Z-0.125000
G01 X98.032236 Y58.000415 Z-0.125000
G00 Z5.000000

(Change tool to Default tool)

G00 Z5.000000
G00 X102.603489 Y53.680454

G01 Z-0.125000 F100.0(Penetrate)
G01 X102.919961 Y53.257600 Z-0.125000 F400.000000
G01 X102.919961 Y51.600473 Z-0.125000
G01 X102.454041 Y50.983335 Z-0.125000
G01 X101.926587 Y50.983335 Z-0.125000
G01 X101.926587 Y50.000488 Z-0.125000
G01 X102.770513 Y50.000488 Z-0.125000
G01 X103.684760 Y51.189048 Z-0.125000
G01 X103.684760 Y53.714739 Z-0.125000
G01 X102.981494 Y54.606159 Z-0.125000
G01 X101.926587 Y54.606159 Z-0.125000
G01 X101.926587 Y53.680454 Z-0.125000
G01 X102.603489 Y53.680454 Z-0.125000
G00 Z5.000000

(Change tool to Default tool)

G00 Z5.000000
G00 X99.781621 Y56.868996

G01 Z-0.125000 F100.0(Penetrate)
G01 X99.781621 Y54.594731 Z-0.125000 F400.000000
G01 X100.493683 Y53.680454 Z-0.125000
G01 X101.574954 Y53.680454 Z-0.125000
G01 X101.574954 Y54.606159 Z-0.125000
G01 X100.871689 Y54.606159 Z-0.125000
G01 X100.537632 Y55.017584 Z-0.125000
G01 X100.537632 Y56.434715 Z-0.125000
G01 X100.985967 Y57.017566 Z-0.125000
G01 X101.574954 Y57.017566 Z-0.125000
G01 X101.574954 Y58.000415 Z-0.125000
G01 X100.651919 Y58.000415 Z-0.125000
G01 X99.781621 Y56.868996 Z-0.125000
G00 Z5.000000

(Change tool to Default tool)

G00 Z5.000000
G00 X100.537632 Y51.600473

G01 Z-0.125000 F100.0(Penetrate)
G01 X100.537632 Y52.651892 Z-0.125000 F400.000000
G01 X99.781621 Y52.651892 Z-0.125000
G01 X99.781621 Y51.189048 Z-0.125000
G01 X100.695868 Y50.000488 Z-0.125000
G01 X101.574954 Y50.000488 Z-0.125000
G01 X101.574954 Y50.983335 Z-0.125000
G01 X101.012340 Y50.983335 Z-0.125000
G01 X100.537632 Y51.600473 Z-0.125000
G00 Z5.000000

(Change tool to Default tool)

G00 Z5.000000
G00 X102.761725 Y58.000415

G01 Z-0.125000 F100.0(Penetrate)
G01 X101.926587 Y58.000415 Z-0.125000 F400.000000
G01 X101.926587 Y57.017566 Z-0.125000
G01 X102.418880 Y57.017566 Z-0.125000
G01 X102.867216 Y56.434715 Z-0.125000
G01 X102.867216 Y55.737577 Z-0.125000
G01 X103.623227 Y55.737577 Z-0.125000
G01 X103.623227 Y56.868996 Z-0.125000
G01 X102.761725 Y58.000415 Z-0.125000
G00 Z5.000000

(Change tool to Default tool)

G00 Z5.000000
G00 X104.590228 Y50.000488

G01 Z-0.125000 F100.0(Penetrate)
G01 X105.355027 Y50.000488 Z-0.125000 F400.000000
G01 X105.355027 Y58.000415 Z-0.125000
G01 X104.590228 Y58.000415 Z-0.125000
G01 X104.590228 Y50.000488 Z-0.125000
G00 Z5.000000

(Change tool to Default tool)

G00 Z5.000000
G00 X108.291174 Y50.000488

G01 Z-0.125000 F100.0(Penetrate)
G01 X108.291174 Y50.983335 Z-0.125000 F400.000000
G01 X105.706660 Y50.983335 Z-0.125000
G01 X105.706660 Y50.000488 Z-0.125000
G01 X108.291174 Y50.000488 Z-0.125000
G00 Z5.000000

(Change tool to Default tool)

G00 Z5.000000
G00 X108.273633 Y58.000415

G01 Z-0.125000 F100.0(Penetrate)
G01 X105.706695 Y58.000415 Z-0.125000 F400.000000
G01 X105.706695 Y57.017566 Z-0.125000
G01 X108.273633 Y57.017566 Z-0.125000
G01 X108.273633 Y58.000415 Z-0.125000
G00 Z5.000000

(Change tool to Default tool)

G00 Z5.000000
G00 X107.456080 Y53.771882

G01 Z-0.125000 F100.0(Penetrate)
G01 X107.456080 Y54.640444 Z-0.125000 F400.000000
G01 X105.706695 Y54.640444 Z-0.125000
G01 X105.706695 Y53.771882 Z-0.125000
G01 X107.456080 Y53.771882 Z-0.125000
G00 Z5.000000

(Change tool to Default tool)

G00 Z5.000000
G00 X111.851513 Y53.680450

G01 Z-0.125000 F100.0(Penetrate)
G01 X112.167985 Y53.257597 Z-0.125000 F400.000000
G01 X112.167985 Y51.600470 Z-0.125000
G01 X111.702073 Y50.983332 Z-0.125000
G01 X111.174620 Y50.983332 Z-0.125000
G01 X111.174620 Y50.000485 Z-0.125000
G01 X112.018546 Y50.000485 Z-0.125000
G01 X112.932793 Y51.189045 Z-0.125000
G01 X112.932793 Y53.714736 Z-0.125000
G01 X112.229518 Y54.606156 Z-0.125000
G01 X111.174620 Y54.606156 Z-0.125000
G01 X111.174620 Y53.680450 Z-0.125000
G01 X111.851513 Y53.680450 Z-0.125000
G00 Z5.000000

(Change tool to Default tool)

G00 Z5.000000
G00 X109.029644 Y56.868993

G01 Z-0.125000 F100.0(Penetrate)
G01 X109.029644 Y54.594727 Z-0.125000 F400.000000
G01 X109.741707 Y53.680450 Z-0.125000
G01 X110.822987 Y53.680450 Z-0.125000
G01 X110.822987 Y54.606156 Z-0.125000
G01 X110.119712 Y54.606156 Z-0.125000
G01 X109.785664 Y55.017581 Z-0.125000
G01 X109.785664 Y56.434711 Z-0.125000
G01 X110.234000 Y57.017563 Z-0.125000
G01 X110.822987 Y57.017563 Z-0.125000
G01 X110.822987 Y58.000415 Z-0.125000
G01 X109.899943 Y58.000415 Z-0.125000
G01 X109.029644 Y56.868993 Z-0.125000
G00 Z5.000000

(Change tool to Default tool)

G00 Z5.000000
G00 X109.785664 Y51.600470

G01 Z-0.125000 F100.0(Penetrate)
G01 X109.785664 Y52.651888 Z-0.125000 F400.000000
G01 X109.029644 Y52.651888 Z-0.125000
G01 X109.029644 Y51.189045 Z-0.125000
G01 X109.943900 Y50.000485 Z-0.125000
G01 X110.822987 Y50.000485 Z-0.125000
G01 X110.822987 Y50.983332 Z-0.125000
G01 X110.260364 Y50.983332 Z-0.125000
G01 X109.785664 Y51.600470 Z-0.125000
G00 Z5.000000

(Change tool to Default tool)

G00 Z5.000000
G00 X112.009749 Y58.000411

G01 Z-0.125000 F100.0(Penetrate)
G01 X111.174620 Y58.000411 Z-0.125000 F400.000000
G01 X111.174620 Y57.017563 Z-0.125000
G01 X111.666904 Y57.017563 Z-0.125000
G01 X112.115240 Y56.434711 Z-0.125000
G01 X112.115240 Y55.737574 Z-0.125000
G01 X112.871259 Y55.737574 Z-0.125000
G01 X112.871259 Y56.868993 Z-0.125000
G01 X112.009749 Y58.000411 Z-0.125000
G00 Z5.000000

(Change tool to Default tool)

G00 Z5.000000
G00 X116.581002 Y53.680450

G01 Z-0.125000 F100.0(Penetrate)
G01 X116.897474 Y53.257597 Z-0.125000 F400.000000
G01 X116.897474 Y51.600470 Z-0.125000
G01 X116.431554 Y50.983332 Z-0.125000
G01 X115.904100 Y50.983332 Z-0.125000
G01 X115.904100 Y50.000485 Z-0.125000
G01 X116.748026 Y50.000485 Z-0.125000
G01 X117.662273 Y51.189045 Z-0.125000
G01 X117.662273 Y53.714736 Z-0.125000
G01 X116.959008 Y54.606156 Z-0.125000
G01 X115.904100 Y54.606156 Z-0.125000
G01 X115.904100 Y53.680450 Z-0.125000
G01 X116.581002 Y53.680450 Z-0.125000
G00 Z5.000000

(Change tool to Default tool)

G00 Z5.000000
G00 X113.759134 Y56.868993

G01 Z-0.125000 F100.0(Penetrate)
G01 X113.759134 Y54.594727 Z-0.125000 F400.000000
G01 X114.471196 Y53.680450 Z-0.125000
G01 X115.552468 Y53.680450 Z-0.125000
G01 X115.552468 Y54.606156 Z-0.125000
G01 X114.849202 Y54.606156 Z-0.125000
G01 X114.515145 Y55.017581 Z-0.125000
G01 X114.515145 Y56.434711 Z-0.125000
G01 X114.963481 Y57.017563 Z-0.125000
G01 X115.552468 Y57.017563 Z-0.125000
G01 X115.552468 Y58.000415 Z-0.125000
G01 X114.629432 Y58.000415 Z-0.125000
G01 X113.759134 Y56.868993 Z-0.125000
G00 Z5.000000

(Change tool to Default tool)

G00 Z5.000000
G00 X114.515145 Y51.600470

G01 Z-0.125000 F100.0(Penetrate)
G01 X114.515145 Y52.651888 Z-0.125000 F400.000000
G01 X113.759134 Y52.651888 Z-0.125000
G01 X113.759134 Y51.189045 Z-0.125000
G01 X114.673381 Y50.000485 Z-0.125000
G01 X115.552468 Y50.000485 Z-0.125000
G01 X115.552468 Y50.983332 Z-0.125000
G01 X114.989853 Y50.983332 Z-0.125000
G01 X114.515145 Y51.600470 Z-0.125000
G00 Z5.000000

(Change tool to Default tool)

G00 Z5.000000
G00 X116.739238 Y58.000411

G01 Z-0.125000 F100.0(Penetrate)
G01 X115.904100 Y58.000411 Z-0.125000 F400.000000
G01 X115.904100 Y57.017563 Z-0.125000
G01 X116.396393 Y57.017563 Z-0.125000
G01 X116.844729 Y56.434711 Z-0.125000
G01 X116.844729 Y55.737574 Z-0.125000
G01 X117.600740 Y55.737574 Z-0.125000
G01 X117.600740 Y56.868993 Z-0.125000
G01 X116.739238 Y58.000411 Z-0.125000
G00 Z5.000000

(Change tool to Default tool)

G00 Z5.000000
G00 X119.411658 Y58.000411

G01 Z-0.125000 F100.0(Penetrate)
G01 X118.646851 Y58.000411 Z-0.125000 F400.000000
G01 X118.646851 Y50.000485 Z-0.125000
G01 X119.411658 Y50.000485 Z-0.125000
G01 X119.411658 Y58.000411 Z-0.125000
G00 Z5.000000

(Change tool to Default tool)

G00 Z5.000000
G00 X120.396244 Y56.766136

G01 Z-0.125000 F100.0(Penetrate)
G01 X120.396244 Y51.291900 Z-0.125000 F400.000000
G01 X121.389610 Y50.000485 Z-0.125000
G01 X122.277493 Y50.000485 Z-0.125000
G01 X122.277493 Y50.983332 Z-0.125000
G01 X121.688497 Y50.983332 Z-0.125000
G01 X121.152256 Y51.680469 Z-0.125000
G01 X121.152256 Y56.366140 Z-0.125000
G01 X121.653337 Y57.017563 Z-0.125000
G01 X122.277493 Y57.017563 Z-0.125000
G01 X122.277493 Y58.000415 Z-0.125000
G01 X121.345661 Y58.000415 Z-0.125000
G01 X120.396244 Y56.766136 Z-0.125000
G00 Z5.000000

(Change tool to Default tool)

G00 Z5.000000
G00 X123.156579 Y57.017563

G01 Z-0.125000 F100.0(Penetrate)
G01 X123.657652 Y56.366140 Z-0.125000 F400.000000
G01 X123.657652 Y51.680469 Z-0.125000
G01 X123.121410 Y50.983332 Z-0.125000
G01 X122.629126 Y50.983332 Z-0.125000
G01 X122.629126 Y50.000485 Z-0.125000
G01 X123.420297 Y50.000485 Z-0.125000
G01 X124.413671 Y51.291900 Z-0.125000
G01 X124.413671 Y56.766136 Z-0.125000
G01 X123.464255 Y58.000411 Z-0.125000
G01 X122.629126 Y58.000411 Z-0.125000
G01 X122.629126 Y57.017563 Z-0.125000
G01 X123.156579 Y57.017563 Z-0.125000
G00 Z5.000000

(Change tool to Default tool)

G00 Z5.000000
G00 X129.310185 Y58.000411

G01 Z-0.125000 F100.0(Penetrate)
G01 X128.642080 Y58.000411 Z-0.125000 F400.000000
G01 X128.642080 Y50.000485 Z-0.125000
G01 X129.310185 Y50.000485 Z-0.125000
G01 X129.310185 Y58.000411 Z-0.125000
G00 Z5.000000

(Change tool to Default tool)

G00 Z5.000000
G00 X125.319139 Y50.000485

G01 Z-0.125000 F100.0(Penetrate)
G01 X125.987244 Y50.000485 Z-0.125000 F400.000000
G01 X125.987244 Y58.000411 Z-0.125000
G01 X125.319139 Y58.000411 Z-0.125000
G01 X125.319139 Y50.000485 Z-0.125000
G00 Z5.000000

(Change tool to Default tool)

G00 Z5.000000
G00 X126.338877 Y55.726146

G01 Z-0.125000 F100.0(Penetrate)
G01 X128.290447 Y50.743334 Z-0.125000 F400.000000
G01 X128.290447 Y52.857601 Z-0.125000
G01 X126.338877 Y57.886126 Z-0.125000
G01 X126.338877 Y55.726146 Z-0.125000
G00 Z5.000000

(End cutting path id: text8-0-1-8)


(Start cutting path id: text8-0-1)
(Change tool to Default tool)

G00 Z5.000000
G00 X86.735883 Y24.552944

G01 Z-0.125000 F100.0(Penetrate)
G01 X87.052355 Y24.193282 Z-0.125000 F400.000000
G01 X87.052355 Y22.783805 Z-0.125000
G01 X86.586437 Y22.258893 Z-0.125000
G01 X86.058983 Y22.258893 Z-0.125000
G01 X86.058983 Y21.422921 Z-0.125000
G01 X86.902910 Y21.422921 Z-0.125000
G01 X87.817164 Y22.433860 Z-0.125000
G01 X87.817164 Y24.582114 Z-0.125000
G01 X87.113892 Y25.340313 Z-0.125000
G01 X86.058983 Y25.340313 Z-0.125000
G01 X86.058983 Y24.552944 Z-0.125000
G01 X86.735883 Y24.552944 Z-0.125000
G00 Z5.000000

(Change tool to Default tool)

G00 Z5.000000
G00 X83.914001 Y27.264986

G01 Z-0.125000 F100.0(Penetrate)
G01 X83.914001 Y25.330596 Z-0.125000 F400.000000
G01 X84.626065 Y24.552944 Z-0.125000
G01 X85.707346 Y24.552944 Z-0.125000
G01 X85.707346 Y25.340313 Z-0.125000
G01 X85.004074 Y25.340313 Z-0.125000
G01 X84.670020 Y25.690258 Z-0.125000
G01 X84.670020 Y26.895608 Z-0.125000
G01 X85.118356 Y27.391351 Z-0.125000
G01 X85.707346 Y27.391351 Z-0.125000
G01 X85.707346 Y28.227322 Z-0.125000
G01 X84.784301 Y28.227322 Z-0.125000
G01 X83.914001 Y27.264986 Z-0.125000
G00 Z5.000000

(Change tool to Default tool)

G00 Z5.000000
G00 X84.670020 Y22.783805

G01 Z-0.125000 F100.0(Penetrate)
G01 X84.670020 Y23.678096 Z-0.125000 F400.000000
G01 X83.914001 Y23.678096 Z-0.125000
G01 X83.914001 Y22.433860 Z-0.125000
G01 X84.828256 Y21.422921 Z-0.125000
G01 X85.707346 Y21.422921 Z-0.125000
G01 X85.707346 Y22.258893 Z-0.125000
G01 X85.144729 Y22.258893 Z-0.125000
G01 X84.670020 Y22.783805 Z-0.125000
G00 Z5.000000

(Change tool to Default tool)

G00 Z5.000000
G00 X86.894119 Y28.227322

G01 Z-0.125000 F100.0(Penetrate)
G01 X86.058983 Y28.227322 Z-0.125000 F400.000000
G01 X86.058983 Y27.391351 Z-0.125000
G01 X86.551273 Y27.391351 Z-0.125000
G01 X86.999610 Y26.895608 Z-0.125000
G01 X86.999610 Y26.302649 Z-0.125000
G01 X87.755627 Y26.302649 Z-0.125000
G01 X87.755627 Y27.264986 Z-0.125000
G01 X86.894119 Y28.227322 Z-0.125000
G00 Z5.000000

(Change tool to Default tool)

G00 Z5.000000
G00 X90.814864 Y21.422921

G01 Z-0.125000 F100.0(Penetrate)
G01 X90.814864 Y27.041416 Z-0.125000 F400.000000
G01 X90.050055 Y27.041416 Z-0.125000
G01 X90.050055 Y21.422921 Z-0.125000
G01 X90.814864 Y21.422921 Z-0.125000
G00 Z5.000000

(Change tool to Default tool)

G00 Z5.000000
G00 X92.520300 Y28.227322

G01 Z-0.125000 F100.0(Penetrate)
G01 X88.344619 Y28.227322 Z-0.125000 F400.000000
G01 X88.344619 Y27.430237 Z-0.125000
G01 X92.520300 Y27.430237 Z-0.125000
G01 X92.520300 Y28.227322 Z-0.125000
G00 Z5.000000

(Change tool to Default tool)

G00 Z5.000000
G00 X95.632276 Y21.422921

G01 Z-0.125000 F100.0(Penetrate)
G01 X96.423454 Y21.422921 Z-0.125000 F400.000000
G01 X94.823512 Y28.227322 Z-0.125000
G01 X94.005958 Y28.227322 Z-0.125000
G01 X95.632276 Y21.422921 Z-0.125000
G00 Z5.000000

(Change tool to Default tool)

G00 Z5.000000
G00 X92.915886 Y21.422921

G01 Z-0.125000 F100.0(Penetrate)
G01 X93.311477 Y23.133740 Z-0.125000 F400.000000
G01 X94.858676 Y23.133740 Z-0.125000
G01 X94.709231 Y23.755858 Z-0.125000
G01 X93.460922 Y23.755858 Z-0.125000
G01 X94.076285 Y26.409581 Z-0.125000
G01 X93.751022 Y27.789898 Z-0.125000
G01 X92.212613 Y21.422921 Z-0.125000
G01 X92.915886 Y21.422921 Z-0.125000
G00 Z5.000000

(Change tool to Default tool)

G00 Z5.000000
G00 X97.082778 Y21.422921

G01 Z-0.125000 F100.0(Penetrate)
G01 X97.838799 Y21.422921 Z-0.125000 F400.000000
G01 X97.838799 Y28.227322 Z-0.125000
G01 X97.082778 Y28.227322 Z-0.125000
G01 X97.082778 Y21.422921 Z-0.125000
G00 Z5.000000

(Change tool to Default tool)

G00 Z5.000000
G00 X99.632140 Y27.381634

G01 Z-0.125000 F100.0(Penetrate)
G01 X100.071693 Y26.895608 Z-0.125000 F400.000000
G01 X100.071693 Y25.593053 Z-0.125000
G01 X99.632140 Y25.107016 Z-0.125000
G01 X98.190433 Y25.107016 Z-0.125000
G01 X98.190433 Y24.368260 Z-0.125000
G01 X99.992571 Y24.368260 Z-0.125000
G01 X100.827703 Y25.291710 Z-0.125000
G01 X100.827703 Y27.264986 Z-0.125000
G01 X99.966200 Y28.227322 Z-0.125000
G01 X98.190433 Y28.227322 Z-0.125000
G01 X98.190433 Y27.381634 Z-0.125000
G01 X99.632140 Y27.381634 Z-0.125000
G00 Z5.000000

(Change tool to Default tool)

G00 Z5.000000
G00 X99.922246 Y21.422921

G01 Z-0.125000 F100.0(Penetrate)
G01 X100.713424 Y21.422921 Z-0.125000 F400.000000
G01 X99.684891 Y23.979439 Z-0.125000
G01 X98.911287 Y23.979439 Z-0.125000
G01 X99.922246 Y21.422921 Z-0.125000
G00 Z5.000000

(Change tool to Default tool)

G00 Z5.000000
G00 X103.614439 Y21.422921

G01 Z-0.125000 F100.0(Penetrate)
G01 X103.614439 Y27.041416 Z-0.125000 F400.000000
G01 X102.849622 Y27.041416 Z-0.125000
G01 X102.849622 Y21.422921 Z-0.125000
G01 X103.614439 Y21.422921 Z-0.125000
G00 Z5.000000

(Change tool to Default tool)

G00 Z5.000000
G00 X105.319871 Y28.227322

G01 Z-0.125000 F100.0(Penetrate)
G01 X101.144190 Y28.227322 Z-0.125000 F400.000000
G01 X101.144190 Y27.430237 Z-0.125000
G01 X105.319871 Y27.430237 Z-0.125000
G01 X105.319871 Y28.227322 Z-0.125000
G00 Z5.000000

(Change tool to Default tool)

G00 Z5.000000
G00 X110.304315 Y25.204221

G01 Z-0.125000 F100.0(Penetrate)
G01 X108.176913 Y25.204221 Z-0.125000 F400.000000
G01 X108.176913 Y24.620989 Z-0.125000
G01 X110.304315 Y24.620989 Z-0.125000
G01 X110.304315 Y25.204221 Z-0.125000
G00 Z5.000000

(Change tool to Default tool)

G00 Z5.000000
G00 X116.273328 Y24.552944

G01 Z-0.125000 F100.0(Penetrate)
G01 X116.589805 Y24.193282 Z-0.125000 F400.000000
G01 X116.589805 Y22.783805 Z-0.125000
G01 X116.123890 Y22.258893 Z-0.125000
G01 X115.596429 Y22.258893 Z-0.125000
G01 X115.596429 Y21.422921 Z-0.125000
G01 X116.440358 Y21.422921 Z-0.125000
G01 X117.354612 Y22.433860 Z-0.125000
G01 X117.354612 Y24.582114 Z-0.125000
G01 X116.651343 Y25.340313 Z-0.125000
G01 X115.596429 Y25.340313 Z-0.125000
G01 X115.596429 Y24.552944 Z-0.125000
G01 X116.273328 Y24.552944 Z-0.125000
G00 Z5.000000

(Change tool to Default tool)

G00 Z5.000000
G00 X113.451453 Y27.264986

G01 Z-0.125000 F100.0(Penetrate)
G01 X113.451453 Y25.330596 Z-0.125000 F400.000000
G01 X114.163510 Y24.552944 Z-0.125000
G01 X115.244794 Y24.552944 Z-0.125000
G01 X115.244794 Y25.340313 Z-0.125000
G01 X114.541525 Y25.340313 Z-0.125000
G01 X114.207474 Y25.690258 Z-0.125000
G01 X114.207474 Y26.895608 Z-0.125000
G01 X114.655804 Y27.391351 Z-0.125000
G01 X115.244794 Y27.391351 Z-0.125000
G01 X115.244794 Y28.227322 Z-0.125000
G01 X114.321753 Y28.227322 Z-0.125000
G01 X113.451453 Y27.264986 Z-0.125000
G00 Z5.000000

(Change tool to Default tool)

G00 Z5.000000
G00 X114.207474 Y22.783805

G01 Z-0.125000 F100.0(Penetrate)
G01 X114.207474 Y23.678096 Z-0.125000 F400.000000
G01 X113.451453 Y23.678096 Z-0.125000
G01 X113.451453 Y22.433860 Z-0.125000
G01 X114.365707 Y21.422921 Z-0.125000
G01 X115.244794 Y21.422921 Z-0.125000
G01 X115.244794 Y22.258893 Z-0.125000
G01 X114.682175 Y22.258893 Z-0.125000
G01 X114.207474 Y22.783805 Z-0.125000
G00 Z5.000000

(Change tool to Default tool)

G00 Z5.000000
G00 X116.431571 Y28.227322

G01 Z-0.125000 F100.0(Penetrate)
G01 X115.596429 Y28.227322 Z-0.125000 F400.000000
G01 X115.596429 Y27.391351 Z-0.125000
G01 X116.088723 Y27.391351 Z-0.125000
G01 X116.537063 Y26.895608 Z-0.125000
G01 X116.537063 Y26.302649 Z-0.125000
G01 X117.293074 Y26.302649 Z-0.125000
G01 X117.293074 Y27.264986 Z-0.125000
G01 X116.431571 Y28.227322 Z-0.125000
G00 Z5.000000

(Change tool to Default tool)

G00 Z5.000000
G00 X120.352313 Y21.422921

G01 Z-0.125000 F100.0(Penetrate)
G01 X120.352313 Y27.041416 Z-0.125000 F400.000000
G01 X119.587506 Y27.041416 Z-0.125000
G01 X119.587506 Y21.422921 Z-0.125000
G01 X120.352313 Y21.422921 Z-0.125000
G00 Z5.000000

(Change tool to Default tool)

G00 Z5.000000
G00 X122.057746 Y28.227322

G01 Z-0.125000 F100.0(Penetrate)
G01 X117.882064 Y28.227322 Z-0.125000 F400.000000
G01 X117.882064 Y27.430237 Z-0.125000
G01 X122.057746 Y27.430237 Z-0.125000
G01 X122.057746 Y28.227322 Z-0.125000
G00 Z5.000000

(Change tool to Default tool)

G00 Z5.000000
G00 X122.321481 Y27.177497

G01 Z-0.125000 F100.0(Penetrate)
G01 X122.321481 Y22.521349 Z-0.125000 F400.000000
G01 X123.314857 Y21.422921 Z-0.125000
G01 X124.202740 Y21.422921 Z-0.125000
G01 X124.202740 Y22.258893 Z-0.125000
G01 X123.613750 Y22.258893 Z-0.125000
G01 X123.077502 Y22.851851 Z-0.125000
G01 X123.077502 Y26.837278 Z-0.125000
G01 X123.578583 Y27.391351 Z-0.125000
G01 X124.202740 Y27.391351 Z-0.125000
G01 X124.202740 Y28.227322 Z-0.125000
G01 X123.270903 Y28.227322 Z-0.125000
G01 X122.321481 Y27.177497 Z-0.125000
G00 Z5.000000

(Change tool to Default tool)

G00 Z5.000000
G00 X125.081827 Y27.391351

G01 Z-0.125000 F100.0(Penetrate)
G01 X125.582909 Y26.837278 Z-0.125000 F400.000000
G01 X125.582909 Y22.851851 Z-0.125000
G01 X125.046660 Y22.258893 Z-0.125000
G01 X124.554375 Y22.258893 Z-0.125000
G01 X124.554375 Y21.422921 Z-0.125000
G01 X125.345553 Y21.422921 Z-0.125000
G01 X126.338929 Y22.521349 Z-0.125000
G01 X126.338929 Y27.177497 Z-0.125000
G01 X125.389508 Y28.227322 Z-0.125000
G01 X124.554375 Y28.227322 Z-0.125000
G01 X124.554375 Y27.391351 Z-0.125000
G01 X125.081827 Y27.391351 Z-0.125000
G00 Z5.000000

(Change tool to Default tool)

G00 Z5.000000
G00 X127.244396 Y21.422921

G01 Z-0.125000 F100.0(Penetrate)
G01 X128.009203 Y21.422921 Z-0.125000 F400.000000
G01 X128.009203 Y28.227322 Z-0.125000
G01 X127.244396 Y28.227322 Z-0.125000
G01 X127.244396 Y21.422921 Z-0.125000
G00 Z5.000000

(Change tool to Default tool)

G00 Z5.000000
G00 X129.828925 Y27.391351

G01 Z-0.125000 F100.0(Penetrate)
G01 X130.330006 Y26.837278 Z-0.125000 F400.000000
G01 X130.330006 Y25.320870 Z-0.125000
G01 X129.828925 Y24.766797 Z-0.125000
G01 X128.360838 Y24.766797 Z-0.125000
G01 X128.360838 Y23.998871 Z-0.125000
G01 X130.136605 Y23.998871 Z-0.125000
G01 X131.086017 Y25.048697 Z-0.125000
G01 X131.086017 Y27.177497 Z-0.125000
G01 X130.136605 Y28.227322 Z-0.125000
G01 X128.360838 Y28.227322 Z-0.125000
G01 X128.360838 Y27.391351 Z-0.125000
G01 X129.828925 Y27.391351 Z-0.125000
G00 Z5.000000

(End cutting path id: text8-0-1)


(Start cutting path id: rect10-6-4-2-0-3)
(Change tool to Default tool)

G00 Z5.000000
G00 X80.249908 Y31.750090

G01 Z-0.125000 F100.0(Penetrate)
G01 X134.750080 Y31.750090 Z-0.125000 F400.000000
G01 X134.750080 Y4.249920 Z-0.125000
G01 X80.249908 Y4.249920 Z-0.125000
G01 X80.249908 Y31.750090 Z-0.125000
G00 Z5.000000

(End cutting path id: rect10-6-4-2-0-3)


(Start cutting path id: text9)
(Change tool to Default tool)

G00 Z5.000000
G00 X61.989219 Y33.234740

G01 Z-0.125000 F100.0(Penetrate)
G01 X61.989219 Y34.303660 Z-0.125000 F400.000000
G01 X59.480977 Y34.303660 Z-0.125000
G01 X59.480977 Y36.833070 Z-0.125000
G01 X58.401480 Y36.833070 Z-0.125000
G01 X58.401480 Y34.303660 Z-0.125000
G01 X55.872072 Y34.303660 Z-0.125000
G01 X55.872072 Y33.234740 Z-0.125000
G01 X58.401480 Y33.234740 Z-0.125000
G01 X58.401480 Y30.715920 Z-0.125000
G01 X59.480977 Y30.715920 Z-0.125000
G01 X59.480977 Y33.234740 Z-0.125000
G01 X61.989219 Y33.234740 Z-0.125000
G00 Z5.000000

(End cutting path id: text9)


(Start cutting path id: text8)
(Change tool to Default tool)

G00 Z5.000000
G00 X25.956324 Y33.374660

G01 Z-0.125000 F100.0(Penetrate)
G01 X26.383648 Y32.846084 Z-0.125000 F400.000000
G01 X26.383648 Y30.774664 Z-0.125000
G01 X25.754532 Y30.003236 Z-0.125000
G01 X25.042325 Y30.003236 Z-0.125000
G01 X25.042325 Y28.774672 Z-0.125000
G01 X26.181856 Y28.774672 Z-0.125000
G01 X27.416348 Y30.260382 Z-0.125000
G01 X27.416348 Y33.417510 Z-0.125000
G01 X26.466739 Y34.531795 Z-0.125000
G01 X25.042325 Y34.531795 Z-0.125000
G01 X25.042325 Y33.374660 Z-0.125000
G01 X25.956324 Y33.374660 Z-0.125000
G00 Z5.000000

(Change tool to Default tool)

G00 Z5.000000
G00 X22.146017 Y37.360349

G01 Z-0.125000 F100.0(Penetrate)
G01 X22.146017 Y34.517512 Z-0.125000 F400.000000
G01 X23.107497 Y33.374660 Z-0.125000
G01 X24.567520 Y33.374660 Z-0.125000
G01 X24.567520 Y34.531795 Z-0.125000
G01 X23.617911 Y34.531795 Z-0.125000
G01 X23.166847 Y35.046077 Z-0.125000
G01 X23.166847 Y36.817500 Z-0.125000
G01 X23.772223 Y37.546066 Z-0.125000
G01 X24.567520 Y37.546066 Z-0.125000
G01 X24.567520 Y38.774631 Z-0.125000
G01 X23.321159 Y38.774631 Z-0.125000
G01 X22.146017 Y37.360349 Z-0.125000
G00 Z5.000000

(Change tool to Default tool)

G00 Z5.000000
G00 X23.166847 Y30.774664

G01 Z-0.125000 F100.0(Penetrate)
G01 X23.166847 Y32.088951 Z-0.125000 F400.000000
G01 X22.146017 Y32.088951 Z-0.125000
G01 X22.146017 Y30.260382 Z-0.125000
G01 X23.380509 Y28.774672 Z-0.125000
G01 X24.567520 Y28.774672 Z-0.125000
G01 X24.567520 Y30.003236 Z-0.125000
G01 X23.807833 Y30.003236 Z-0.125000
G01 X23.166847 Y30.774664 Z-0.125000
G00 Z5.000000

(Change tool to Default tool)

G00 Z5.000000
G00 X26.169986 Y38.774631

G01 Z-0.125000 F100.0(Penetrate)
G01 X25.042325 Y38.774631 Z-0.125000 F400.000000
G01 X25.042325 Y37.546066 Z-0.125000
G01 X25.707051 Y37.546066 Z-0.125000
G01 X26.312427 Y36.817500 Z-0.125000
G01 X26.312427 Y35.946078 Z-0.125000
G01 X27.333257 Y35.946078 Z-0.125000
G01 X27.333257 Y37.360349 Z-0.125000
G01 X26.169986 Y38.774631 Z-0.125000
G00 Z5.000000

(Change tool to Default tool)

G00 Z5.000000
G00 X28.520269 Y37.103213

G01 Z-0.125000 F100.0(Penetrate)
G01 X28.520269 Y30.517529 Z-0.125000 F400.000000
G01 X29.968423 Y28.774672 Z-0.125000
G01 X31.036733 Y28.774672 Z-0.125000
G01 X31.036733 Y30.003236 Z-0.125000
G01 X30.336396 Y30.003236 Z-0.125000
G01 X29.541099 Y30.960382 Z-0.125000
G01 X29.541099 Y36.617499 Z-0.125000
G01 X30.300786 Y37.531783 Z-0.125000
G01 X31.036733 Y37.531783 Z-0.125000
G01 X31.036733 Y38.774631 Z-0.125000
G01 X29.897202 Y38.774631 Z-0.125000
G01 X28.520269 Y37.103213 Z-0.125000
G00 Z5.000000

(Change tool to Default tool)

G00 Z5.000000
G00 X32.591719 Y28.774672

G01 Z-0.125000 F100.0(Penetrate)
G01 X33.838080 Y30.260382 Z-0.125000 F400.000000
G01 X33.838080 Y32.346086 Z-0.125000
G01 X32.805381 Y32.346086 Z-0.125000
G01 X32.805381 Y30.760380 Z-0.125000
G01 X32.176265 Y30.003236 Z-0.125000
G01 X31.511538 Y30.003236 Z-0.125000
G01 X31.511538 Y28.774672 Z-0.125000
G01 X32.591719 Y28.774672 Z-0.125000
G00 Z5.000000

(Change tool to Default tool)

G00 Z5.000000
G00 X33.838080 Y37.360349

G01 Z-0.125000 F100.0(Penetrate)
G01 X32.662939 Y38.774631 Z-0.125000 F400.000000
G01 X31.511538 Y38.774631 Z-0.125000
G01 X31.511538 Y37.531783 Z-0.125000
G01 X32.211875 Y37.531783 Z-0.125000
G01 X32.805381 Y36.817500 Z-0.125000
G01 X32.805381 Y35.431785 Z-0.125000
G01 X33.838080 Y35.431785 Z-0.125000
G01 X33.838080 Y37.360349 Z-0.125000
G00 Z5.000000

(Change tool to Default tool)

G00 Z5.000000
G00 X34.953876 Y37.231786

G01 Z-0.125000 F100.0(Penetrate)
G01 X34.953876 Y30.388956 Z-0.125000 F400.000000
G01 X36.295198 Y28.774672 Z-0.125000
G01 X37.494080 Y28.774672 Z-0.125000
G01 X37.494080 Y30.003236 Z-0.125000
G01 X36.698782 Y30.003236 Z-0.125000
G01 X35.974705 Y30.874670 Z-0.125000
G01 X35.974705 Y36.731789 Z-0.125000
G01 X36.651302 Y37.546066 Z-0.125000
G01 X37.494080 Y37.546066 Z-0.125000
G01 X37.494080 Y38.774631 Z-0.125000
G01 X36.235848 Y38.774631 Z-0.125000
G01 X34.953876 Y37.231786 Z-0.125000
G00 Z5.000000

(Change tool to Default tool)

G00 Z5.000000
G00 X38.681091 Y37.546066

G01 Z-0.125000 F100.0(Penetrate)
G01 X39.357688 Y36.731789 Z-0.125000 F400.000000
G01 X39.357688 Y30.874670 Z-0.125000
G01 X38.633611 Y30.003236 Z-0.125000
G01 X37.968884 Y30.003236 Z-0.125000
G01 X37.968884 Y28.774672 Z-0.125000
G01 X39.037195 Y28.774672 Z-0.125000
G01 X40.378517 Y30.388956 Z-0.125000
G01 X40.378517 Y37.231786 Z-0.125000
G01 X39.096545 Y38.774631 Z-0.125000
G01 X37.968884 Y38.774631 Z-0.125000
G01 X37.968884 Y37.546066 Z-0.125000
G01 X38.681091 Y37.546066 Z-0.125000
G00 Z5.000000

(Change tool to Default tool)

G00 Z5.000000
G00 X41.601145 Y28.774672

G01 Z-0.125000 F100.0(Penetrate)
G01 X42.621975 Y28.774672 Z-0.125000 F400.000000
G01 X42.621975 Y38.774631 Z-0.125000
G01 X41.601145 Y38.774631 Z-0.125000
G01 X41.601145 Y28.774672 Z-0.125000
G00 Z5.000000

(Change tool to Default tool)

G00 Z5.000000
G00 X45.043478 Y37.531783

G01 Z-0.125000 F100.0(Penetrate)
G01 X45.636984 Y36.817500 Z-0.125000 F400.000000
G01 X45.636984 Y34.903220 Z-0.125000
G01 X45.043478 Y34.188938 Z-0.125000
G01 X43.096780 Y34.188938 Z-0.125000
G01 X43.096780 Y33.103230 Z-0.125000
G01 X45.530153 Y33.103230 Z-0.125000
G01 X46.657813 Y34.460367 Z-0.125000
G01 X46.657813 Y37.360349 Z-0.125000
G01 X45.494542 Y38.774631 Z-0.125000
G01 X43.096780 Y38.774631 Z-0.125000
G01 X43.096780 Y37.531783 Z-0.125000
G01 X45.043478 Y37.531783 Z-0.125000
G00 Z5.000000

(Change tool to Default tool)

G00 Z5.000000
G00 X45.435192 Y28.774672

G01 Z-0.125000 F100.0(Penetrate)
G01 X46.503502 Y28.774672 Z-0.125000 F400.000000
G01 X45.114699 Y32.531804 Z-0.125000
G01 X44.070129 Y32.531804 Z-0.125000
G01 X45.435192 Y28.774672 Z-0.125000
G00 Z5.000000

(Change tool to Default tool)

G00 Z5.000000
G00 X47.856700 Y28.774672

G01 Z-0.125000 F100.0(Penetrate)
G01 X48.889400 Y28.774672 Z-0.125000 F400.000000
G01 X48.889400 Y38.774631 Z-0.125000
G01 X47.856700 Y38.774631 Z-0.125000
G01 X47.856700 Y28.774672 Z-0.125000
G00 Z5.000000

(Change tool to Default tool)

G00 Z5.000000
G00 X52.854018 Y28.774672

G01 Z-0.125000 F100.0(Penetrate)
G01 X52.854018 Y30.003236 Z-0.125000 F400.000000
G01 X49.364205 Y30.003236 Z-0.125000
G01 X49.364205 Y28.774672 Z-0.125000
G01 X52.854018 Y28.774672 Z-0.125000
G00 Z5.000000

(Change tool to Default tool)

G00 Z5.000000
G00 X52.830281 Y38.774631

G01 Z-0.125000 F100.0(Penetrate)
G01 X49.364208 Y38.774631 Z-0.125000 F400.000000
G01 X49.364208 Y37.546066 Z-0.125000
G01 X52.830281 Y37.546066 Z-0.125000
G01 X52.830281 Y38.774631 Z-0.125000
G00 Z5.000000

(Change tool to Default tool)

G00 Z5.000000
G00 X51.726361 Y33.488938

G01 Z-0.125000 F100.0(Penetrate)
G01 X51.726361 Y34.574646 Z-0.125000 F400.000000
G01 X49.364208 Y34.574646 Z-0.125000
G01 X49.364208 Y33.488938 Z-0.125000
G01 X51.726361 Y33.488938 Z-0.125000
G00 Z5.000000

(End cutting path id: text8)


(Start cutting path id: text10)
(Change tool to Default tool)

G00 Z5.000000
G00 X17.020415 Y33.150090

G01 Z-0.125000 F100.0(Penetrate)
G01 X17.020415 Y34.398920 Z-0.125000 F400.000000
G01 X13.940675 Y34.398920 Z-0.125000
G01 X13.940675 Y33.150090 Z-0.125000
G01 X17.020415 Y33.150090 Z-0.125000
G00 Z5.000000

(End cutting path id: text10)


(Start cutting path id: path1-4-1)
(Change tool to Default tool)

G00 Z5.000000
G00 X10.249977 Y41.750020

G01 Z-0.125000 F100.0(Penetrate)
G01 X10.249977 Y9.249980 Z-0.125000 F400.000000
G01 X64.750021 Y9.249980 Z-0.125000
G01 X64.750021 Y41.750020 Z-0.125000
G01 X10.249977 Y41.750020 Z-0.125000
G00 Z5.000000

(End cutting path id: path1-4-1)


(Start cutting path id: text7)
(Change tool to Default tool)

G00 Z5.000000
G00 X25.679472 Y63.658141

G01 Z-0.125000 F100.0(Penetrate)
G01 X26.694514 Y63.658141 Z-0.125000 F400.000000
G01 X26.694514 Y73.658213 Z-0.125000
G01 X25.679472 Y73.658213 Z-0.125000
G01 X25.679472 Y63.658141 Z-0.125000
G00 Z5.000000

(Change tool to Default tool)

G00 Z5.000000
G00 X30.624852 Y73.658213

G01 Z-0.125000 F100.0(Penetrate)
G01 X27.166627 Y73.658213 Z-0.125000 F400.000000
G01 X27.166627 Y72.429633 Z-0.125000
G01 X30.624852 Y72.429633 Z-0.125000
G01 X30.624852 Y73.658213 Z-0.125000
G00 Z5.000000

(Change tool to Default tool)

G00 Z5.000000
G00 X29.834064 Y68.158173

G01 Z-0.125000 F100.0(Penetrate)
G01 X29.834064 Y69.243896 Z-0.125000 F400.000000
G01 X27.166627 Y69.243896 Z-0.125000
G01 X27.166627 Y68.158173 Z-0.125000
G01 X29.834064 Y68.158173 Z-0.125000
G00 Z5.000000

(Change tool to Default tool)

G00 Z5.000000
G00 X31.344829 Y72.115345

G01 Z-0.125000 F100.0(Penetrate)
G01 X31.344829 Y65.272438 Z-0.125000 F400.000000
G01 X32.678547 Y63.658141 Z-0.125000
G01 X33.870632 Y63.658141 Z-0.125000
G01 X33.870632 Y64.886722 Z-0.125000
G01 X33.079843 Y64.886722 Z-0.125000
G01 X32.359871 Y65.758157 Z-0.125000
G01 X32.359871 Y71.615342 Z-0.125000
G01 X33.032632 Y72.429633 Z-0.125000
G01 X33.870632 Y72.429633 Z-0.125000
G01 X33.870632 Y73.658213 Z-0.125000
G01 X32.619534 Y73.658213 Z-0.125000
G01 X31.344829 Y72.115345 Z-0.125000
G00 Z5.000000

(Change tool to Default tool)

G00 Z5.000000
G00 X35.050914 Y72.429633

G01 Z-0.125000 F100.0(Penetrate)
G01 X35.723675 Y71.615342 Z-0.125000 F400.000000
G01 X35.723675 Y65.758157 Z-0.125000
G01 X35.003703 Y64.886722 Z-0.125000
G01 X34.342745 Y64.886722 Z-0.125000
G01 X34.342745 Y63.658141 Z-0.125000
G01 X35.404999 Y63.658141 Z-0.125000
G01 X36.738717 Y65.272438 Z-0.125000
G01 X36.738717 Y72.115345 Z-0.125000
G01 X35.464013 Y73.658213 Z-0.125000
G01 X34.342745 Y73.658213 Z-0.125000
G01 X34.342745 Y72.429633 Z-0.125000
G01 X35.050914 Y72.429633 Z-0.125000
G00 Z5.000000

(Change tool to Default tool)

G00 Z5.000000
G00 X38.969457 Y65.758157

G01 Z-0.125000 F100.0(Penetrate)
G01 X38.969457 Y73.658213 Z-0.125000 F400.000000
G01 X37.954414 Y73.658213 Z-0.125000
G01 X37.954414 Y65.186724 Z-0.125000
G01 X39.217316 Y63.658141 Z-0.125000
G01 X40.314978 Y63.658141 Z-0.125000
G01 X40.314978 Y64.886722 Z-0.125000
G01 X39.689429 Y64.886722 Z-0.125000
G01 X38.969457 Y65.758157 Z-0.125000
G00 Z5.000000

(Change tool to Default tool)

G00 Z5.000000
G00 X43.112247 Y73.658213

G01 Z-0.125000 F100.0(Penetrate)
G01 X42.120809 Y73.658213 Z-0.125000 F400.000000
G01 X42.120809 Y65.758157 Z-0.125000
G01 X41.400837 Y64.886722 Z-0.125000
G01 X40.787091 Y64.886722 Z-0.125000
G01 X40.787091 Y63.658141 Z-0.125000
G01 X41.849345 Y63.658141 Z-0.125000
G01 X43.112247 Y65.186724 Z-0.125000
G01 X43.112247 Y73.658213 Z-0.125000
G00 Z5.000000

(Change tool to Default tool)

G00 Z5.000000
G00 X45.461005 Y73.658213

G01 Z-0.125000 F100.0(Penetrate)
G01 X44.434161 Y73.658213 Z-0.125000 F400.000000
G01 X44.434161 Y65.458154 Z-0.125000
G01 X45.461005 Y65.458154 Z-0.125000
G01 X45.461005 Y73.658213 Z-0.125000
G00 Z5.000000

(Change tool to Default tool)

G00 Z5.000000
G00 X49.320527 Y63.658141

G01 Z-0.125000 F100.0(Penetrate)
G01 X49.320527 Y64.886722 Z-0.125000 F400.000000
G01 X44.434161 Y64.886722 Z-0.125000
G01 X44.434161 Y63.658141 Z-0.125000
G01 X49.320527 Y63.658141 Z-0.125000
G00 Z5.000000

(End cutting path id: text7)


(Start cutting path id: text10-5)
(Change tool to Default tool)

G00 Z5.000000
G00 X17.020415 Y68.033804

G01 Z-0.125000 F100.0(Penetrate)
G01 X17.020415 Y69.282634 Z-0.125000 F400.000000
G01 X13.940675 Y69.282634 Z-0.125000
G01 X13.940675 Y68.033804 Z-0.125000
G01 X17.020415 Y68.033804 Z-0.125000
G00 Z5.000000

(End cutting path id: text10-5)


(Start cutting path id: path1-4)
(Change tool to Default tool)

G00 Z5.000000
G00 X10.249978 Y76.750023

G01 Z-0.125000 F100.0(Penetrate)
G01 X10.249978 Y44.249980 Z-0.125000 F400.000000
G01 X64.750022 Y44.249980 Z-0.125000
G01 X64.750022 Y76.750023 Z-0.125000
G01 X10.249978 Y76.750023 Z-0.125000
G00 Z5.000000

(End cutting path id: path1-4)


(Start cutting path id: text2)
(Change tool to Default tool)

G00 Z5.000000
G00 X10.373279 Y127.928005

G01 Z-0.125000 F100.0(Penetrate)
G01 X8.000028 Y127.928005 Z-0.125000 F400.000000
G01 X8.000028 Y117.613040 Z-0.125000
G01 X10.373279 Y117.613040 Z-0.125000
G01 X10.373279 Y122.520016 Z-0.125000
G01 X16.609963 Y122.520016 Z-0.125000
G01 X16.609963 Y123.551513 Z-0.125000
G01 X10.373279 Y123.551513 Z-0.125000
G01 X10.373279 Y127.928005 Z-0.125000
G00 Z5.000000

(Change tool to Default tool)

G00 Z5.000000
G00 X20.114648 Y127.928005

G01 Z-0.125000 F100.0(Penetrate)
G01 X17.713801 Y127.928005 Z-0.125000 F400.000000
G01 X17.713801 Y117.613040 Z-0.125000
G01 X20.114648 Y117.613040 Z-0.125000
G01 X20.114648 Y127.928005 Z-0.125000
G00 Z5.000000

(Change tool to Default tool)

G00 Z5.000000
G00 X22.957047 Y126.336553

G01 Z-0.125000 F100.0(Penetrate)
G01 X22.957047 Y119.278170 Z-0.125000 F400.000000
G01 X26.075389 Y117.613040 Z-0.125000
G01 X28.862579 Y117.613040 Z-0.125000
G01 X28.862579 Y118.880307 Z-0.125000
G01 X27.013650 Y118.880307 Z-0.125000
G01 X25.330298 Y119.779183 Z-0.125000
G01 X25.330298 Y125.820805 Z-0.125000
G01 X26.903267 Y126.660737 Z-0.125000
G01 X28.862579 Y126.660737 Z-0.125000
G01 X28.862579 Y127.928005 Z-0.125000
G01 X25.937409 Y127.928005 Z-0.125000
G01 X22.957047 Y126.336553 Z-0.125000
G00 Z5.000000

(Change tool to Default tool)

G00 Z5.000000
G00 X31.622173 Y126.660737

G01 Z-0.125000 F100.0(Penetrate)
G01 X33.195143 Y125.820805 Z-0.125000 F400.000000
G01 X33.195143 Y119.779183 Z-0.125000
G01 X31.511791 Y118.880307 Z-0.125000
G01 X29.966417 Y118.880307 Z-0.125000
G01 X29.966417 Y117.613040 Z-0.125000
G01 X32.450052 Y117.613040 Z-0.125000
G01 X35.568394 Y119.278170 Z-0.125000
G01 X35.568394 Y126.336553 Z-0.125000
G01 X32.588032 Y127.928005 Z-0.125000
G01 X29.966417 Y127.928005 Z-0.125000
G01 X29.966417 Y126.660737 Z-0.125000
G01 X31.622173 Y126.660737 Z-0.125000
G00 Z5.000000

(Change tool to Default tool)

G00 Z5.000000
G00 X52.291553 Y127.928005

G01 Z-0.125000 F100.0(Penetrate)
G01 X50.001090 Y127.928005 Z-0.125000 F400.000000
G01 X50.001090 Y117.613040 Z-0.125000
G01 X52.291553 Y117.613040 Z-0.125000
G01 X52.291553 Y127.928005 Z-0.125000
G00 Z5.000000

(Change tool to Default tool)

G00 Z5.000000
G00 X38.410792 Y117.613040

G01 Z-0.125000 F100.0(Penetrate)
G01 X40.701256 Y117.613040 Z-0.125000 F400.000000
G01 X40.701256 Y127.928005 Z-0.125000
G01 X38.410792 Y127.928005 Z-0.125000
G01 X38.410792 Y117.613040 Z-0.125000
G00 Z5.000000

(Change tool to Default tool)

G00 Z5.000000
G00 X41.805093 Y127.441728

G01 Z-0.125000 F100.0(Penetrate)
G01 X41.805093 Y125.069286 Z-0.125000 F400.000000
G01 X44.730265 Y122.210567 Z-0.125000
G01 X45.972082 Y122.210567 Z-0.125000
G01 X48.897252 Y125.069286 Z-0.125000
G01 X48.897252 Y127.441728 Z-0.125000
G01 X45.447759 Y123.846226 Z-0.125000
G01 X41.805093 Y127.441728 Z-0.125000
G00 Z5.000000

(Change tool to Default tool)

G00 Z5.000000
G00 X55.382291 Y117.613040

G01 Z-0.125000 F100.0(Penetrate)
G01 X57.783137 Y117.613040 Z-0.125000 F400.000000
G01 X57.783137 Y127.928005 Z-0.125000
G01 X55.382291 Y127.928005 Z-0.125000
G01 X55.382291 Y117.613040 Z-0.125000
G00 Z5.000000

(Change tool to Default tool)

G00 Z5.000000
G00 X67.000184 Y117.613040

G01 Z-0.125000 F100.0(Penetrate)
G01 X67.000184 Y118.880307 Z-0.125000 F400.000000
G01 X58.886975 Y118.880307 Z-0.125000
G01 X58.886975 Y117.613040 Z-0.125000
G01 X67.000184 Y117.613040 Z-0.125000
G00 Z5.000000

(Change tool to Default tool)

G00 Z5.000000
G00 X66.944993 Y127.928005

G01 Z-0.125000 F100.0(Penetrate)
G01 X58.886977 Y127.928005 Z-0.125000 F400.000000
G01 X58.886977 Y126.660737 Z-0.125000
G01 X66.944993 Y126.660737 Z-0.125000
G01 X66.944993 Y127.928005 Z-0.125000
G00 Z5.000000

(Change tool to Default tool)

G00 Z5.000000
G00 X64.378571 Y122.475809

G01 Z-0.125000 F100.0(Penetrate)
G01 X64.378571 Y123.595719 Z-0.125000 F400.000000
G01 X58.886977 Y123.595719 Z-0.125000
G01 X58.886977 Y122.475809 Z-0.125000
G01 X64.378571 Y122.475809 Z-0.125000
G00 Z5.000000

(End cutting path id: text2)


(Footer)
M5
G00 X0.0000 Y0.0000
M2
(Using default footer. To add your own footer create file "footer" in the output dir.)
(end)
%