%
(Header)
(Generated by gcodetools from Inkscape.)
(Using default header. To add your own header create file "header" in the output dir.)
M3
(Header end.)
G21 (All units in mm)

(Start cutting path id: path5-1-4-1-6)
(Change tool to Default tool)

G00 Z5.000000
G00 X80.000000 Y33.750000

G01 Z-0.125000 F100.0(Penetrate)
G01 X135.000000 Y33.750000 Z-0.125000 F400.000000
G00 Z5.000000

(End cutting path id: path5-1-4-1-6)


(Start cutting path id: text8-0-1)
(Change tool to Default tool)

G00 Z5.000000
G00 X132.912580 Y27.149980

G01 Z-0.125000 F100.0(Penetrate)
G02 X132.912462 Y27.128449 Z-0.125000 I-1.966305 J-0.000000 F400.000000
G02 X132.912109 Y27.106970 Z-0.125000 I-1.957302 J0.021433
G02 X132.911520 Y27.085496 Z-0.125000 I-1.952987 J0.042826
G02 X132.910696 Y27.064068 Z-0.125000 I-1.945437 J0.064071
G02 X132.909636 Y27.042650 Z-0.125000 I-1.941611 J0.085367
G02 X132.908341 Y27.021274 Z-0.125000 I-1.935503 J0.106507
G02 X132.906810 Y26.999912 Z-0.125000 I-1.932161 J0.127748
G02 X132.905044 Y26.978587 Z-0.125000 I-1.927488 J0.148866
G02 X132.903043 Y26.957282 Z-0.125000 I-1.924625 J0.170095
G02 X132.900806 Y26.936008 Z-0.125000 I-1.921375 J0.191275
G02 X132.898333 Y26.914760 Z-0.125000 I-1.918986 J0.212533
G02 X132.895625 Y26.893537 Z-0.125000 I-1.917151 J0.233859
G02 X132.892682 Y26.872345 Z-0.125000 I-1.915231 J0.255187
G02 X132.889502 Y26.851173 Z-0.125000 I-1.914801 J0.276742
G02 X132.886089 Y26.830038 Z-0.125000 I-1.913345 J0.298182
G02 X132.882438 Y26.808918 Z-0.125000 I-1.914311 J0.320050
G02 X132.878554 Y26.787839 Z-0.125000 I-1.913315 J0.341644
G02 X132.874431 Y26.766769 Z-0.125000 I-1.915667 J0.363908
G02 X132.870077 Y26.745747 Z-0.125000 I-1.915125 J0.385698
G02 X132.865482 Y26.724729 Z-0.125000 I-1.918855 J0.408441
G02 X132.860658 Y26.703763 Z-0.125000 I-1.918763 J0.430469
G02 X132.855592 Y26.682797 Z-0.125000 I-1.923859 J0.453775
G02 X132.850297 Y26.661887 Z-0.125000 I-1.924212 J0.476082
G02 X132.844759 Y26.640972 Z-0.125000 I-1.930667 J0.500035
G02 X132.838995 Y26.620118 Z-0.125000 I-1.931459 J0.522663
G02 X132.832985 Y26.599255 Z-0.125000 I-1.939263 J0.547346
G02 X132.826751 Y26.578457 Z-0.125000 I-1.940490 J0.570337
G02 X132.820269 Y26.557645 Z-0.125000 I-1.949632 J0.595834
G02 X132.813565 Y26.536904 Z-0.125000 I-1.951290 J0.619228
G02 X132.806610 Y26.516144 Z-0.125000 I-1.961762 J0.645623
G02 X132.799437 Y26.495458 Z-0.125000 I-1.963845 J0.669463
G02 X132.792010 Y26.474750 Z-0.125000 I-1.975637 J0.696839
G02 X132.784352 Y26.454341 Z-0.125000 I-1.710962 J0.630352
G02 X132.776534 Y26.434243 Z-0.125000 I-1.667077 J0.636920
G02 X132.768472 Y26.414241 Z-0.125000 I-1.641903 J0.650146
G02 X132.760250 Y26.394543 Z-0.125000 I-1.600627 J0.656524
G02 X132.751785 Y26.374948 Z-0.125000 I-1.576532 J0.669482
G02 X132.743159 Y26.355650 Z-0.125000 I-1.537772 J0.675764
G02 X132.734290 Y26.336463 Z-0.125000 I-1.514710 J0.688500
G02 X132.725261 Y26.317565 Z-0.125000 I-1.478372 J0.694778
G02 X132.715988 Y26.298785 Z-0.125000 I-1.456296 J0.707339
G02 X132.706555 Y26.280288 Z-0.125000 I-1.422288 J0.713706
G02 X132.696879 Y26.261915 Z-0.125000 I-1.401151 J0.726139
G02 X132.687041 Y26.243818 Z-0.125000 I-1.369380 J0.732689
G02 X132.676963 Y26.225853 Z-0.125000 I-1.349136 J0.745039
G02 X132.666721 Y26.208155 Z-0.125000 I-1.319509 J0.751865
G02 X132.656240 Y26.190597 Z-0.125000 I-1.300110 J0.764181
G02 X132.645592 Y26.173300 Z-0.125000 I-1.272533 J0.771376
G02 X132.634709 Y26.156150 Z-0.125000 I-1.253933 J0.783702
G02 X132.623657 Y26.139253 Z-0.125000 I-1.228315 J0.791359
G02 X132.612371 Y26.122510 Z-0.125000 I-1.210467 J0.803744
G02 X132.600914 Y26.106013 Z-0.125000 I-1.186713 J0.811956
G02 X132.589226 Y26.089677 Z-0.125000 I-1.169570 J0.824446
G02 X132.577363 Y26.073580 Z-0.125000 I-1.147589 J0.833306
G02 X132.565274 Y26.057652 Z-0.125000 I-1.131104 J0.845947
G02 X132.553006 Y26.041955 Z-0.125000 I-1.110802 J0.855549
G02 X132.540515 Y26.026434 Z-0.125000 I-1.094929 J0.868387
G02 X132.527840 Y26.011138 Z-0.125000 I-1.076212 J0.878824
G02 X132.514948 Y25.996024 Z-0.125000 I-1.060904 J0.891907
G02 X132.501868 Y25.981128 Z-0.125000 I-1.043681 J0.903272
G02 X132.488574 Y25.966421 Z-0.125000 I-1.028890 J0.916645
G02 X132.475088 Y25.951925 Z-0.125000 I-1.013067 J0.929032
G02 X132.461393 Y25.937625 Z-0.125000 I-0.998748 J0.942742
G02 X132.447500 Y25.923530 Z-0.125000 I-0.984232 J0.956244
G02 X132.428230 Y25.904693 Z-0.125000 I-1.667273 J1.686247
G02 X132.408891 Y25.886214 Z-0.125000 I-1.623765 J1.680007
G02 X132.389341 Y25.867958 Z-0.125000 I-1.592957 J1.686344
G02 X132.369717 Y25.850055 Z-0.125000 I-1.551743 J1.681130
G02 X132.349886 Y25.832381 Z-0.125000 I-1.521909 J1.687711
G02 X132.329978 Y25.815053 Z-0.125000 I-1.482874 J1.683581
G02 X132.309866 Y25.797961 Z-0.125000 I-1.453955 J1.690433
G02 X132.289673 Y25.781208 Z-0.125000 I-1.416981 J1.687444
G02 X132.269281 Y25.764698 Z-0.125000 I-1.388920 J1.694597
G02 X132.248803 Y25.748521 Z-0.125000 I-1.353891 J1.692806
G02 X132.228131 Y25.732592 Z-0.125000 I-1.326628 J1.700287
G02 X132.207368 Y25.716991 Z-0.125000 I-1.293428 J1.699751
G02 X132.186417 Y25.701644 Z-0.125000 I-1.266905 J1.707589
G02 X132.165368 Y25.686618 Z-0.125000 I-1.235416 J1.708366
G02 X132.144136 Y25.671852 Z-0.125000 I-1.209575 J1.716590
G02 X132.122802 Y25.657403 Z-0.125000 I-1.179681 J1.718736
G02 X132.101291 Y25.643218 Z-0.125000 I-1.154463 J1.727373
G02 X132.079672 Y25.629344 Z-0.125000 I-1.126048 J1.730945
G02 X132.057881 Y25.615741 Z-0.125000 I-1.101394 J1.740025
G02 X132.035976 Y25.602443 Z-0.125000 I-1.074341 J1.745081
G02 X132.013906 Y25.589421 Z-0.125000 I-1.050193 J1.754632
G02 X131.991715 Y25.576700 Z-0.125000 I-1.024386 J1.761229
G02 X131.969365 Y25.564258 Z-0.125000 I-1.000685 J1.771278
G02 X131.946888 Y25.552113 Z-0.125000 I-0.976007 J1.779473
G02 X131.924260 Y25.540252 Z-0.125000 I-0.952695 J1.790050
G02 X131.901496 Y25.528684 Z-0.125000 I-0.929029 J1.799900
G02 X131.878589 Y25.517404 Z-0.125000 I-0.906048 J1.811033
G02 X131.855540 Y25.506412 Z-0.125000 I-0.883277 J1.822595
G02 X131.832353 Y25.495712 Z-0.125000 I-0.860568 J1.834312
G02 X131.809017 Y25.485297 Z-0.125000 I-0.838576 J1.847644
G02 X131.785552 Y25.475177 Z-0.125000 I-0.816080 J1.859973
G02 X131.761930 Y25.465340 Z-0.125000 I-0.794751 J1.875132
G02 X131.738385 Y25.455844 Z-0.125000 I-0.592910 J1.436133
G02 X131.714265 Y25.446567 Z-0.125000 I-0.589917 J1.497813
G02 X131.690000 Y25.437675 Z-0.125000 I-0.576127 J1.534604
G02 X131.665146 Y25.429005 Z-0.125000 I-0.572568 J1.601407
G02 X131.640161 Y25.420717 Z-0.125000 I-0.558068 J1.640516
G02 X131.614573 Y25.412654 Z-0.125000 I-0.553738 J1.712688
G02 X131.588869 Y25.404970 Z-0.125000 I-0.538428 J1.754237
G02 X131.562547 Y25.397514 Z-0.125000 I-0.533123 J1.832021
G02 X131.536123 Y25.390433 Z-0.125000 I-0.516901 J1.876133
G02 X131.509068 Y25.383586 Z-0.125000 I-0.510417 J1.959776
G02 X131.481923 Y25.377108 Z-0.125000 I-0.493181 J2.006571
G02 X131.454136 Y25.370869 Z-0.125000 I-0.485313 J2.096318
G02 X131.426269 Y25.364994 Z-0.125000 I-0.466961 J2.145920
G02 X131.397750 Y25.359362 Z-0.125000 I-0.457505 J2.242014
G02 X131.369161 Y25.354090 Z-0.125000 I-0.437937 J2.294545
G02 X131.339910 Y25.349068 Z-0.125000 I-0.426688 J2.397233
G02 X131.310600 Y25.344398 Z-0.125000 I-0.405801 J2.452814
G02 X131.280617 Y25.339984 Z-0.125000 I-0.392555 J2.562340
G02 X131.250585 Y25.335917 Z-0.125000 I-0.370248 J2.621095
G02 X131.219871 Y25.332111 Z-0.125000 I-0.354801 J2.737704
G02 X131.189116 Y25.328646 Z-0.125000 I-0.330972 J2.799754
G02 X131.157671 Y25.325450 Z-0.125000 I-0.313120 J2.923691
G02 X131.126193 Y25.322587 Z-0.125000 I-0.287667 J2.989158
G02 X131.094018 Y25.319999 Z-0.125000 I-0.267205 J3.120668
G02 X131.061817 Y25.317740 Z-0.125000 I-0.240028 J3.189675
G02 X131.028911 Y25.315760 Z-0.125000 I-0.216752 J3.329003
G02 X130.995987 Y25.314103 Z-0.125000 I-0.187747 J3.401672
G02 X130.962351 Y25.312732 Z-0.125000 I-0.161453 J3.549062
G02 X130.928703 Y25.311677 Z-0.125000 I-0.130519 J3.625516
G02 X130.894337 Y25.310916 Z-0.125000 I-0.101003 J3.781213
G02 X130.859966 Y25.310463 Z-0.125000 I-0.068039 J3.861574
G02 X130.824870 Y25.310310 Z-0.125000 I-0.035096 J4.025824
G01 X130.001500 Y25.310310 Z-0.125000
G01 X130.001500 Y23.639450 Z-0.125000
G01 X128.678590 Y23.639450 Z-0.125000
G01 X128.678590 Y28.769160 Z-0.125000
G01 X130.855880 Y28.769160 Z-0.125000
G02 X130.886455 Y28.769075 Z-0.125000 I-0.000000 J-5.503986
G02 X130.916424 Y28.768824 Z-0.125000 I-0.029379 J-5.288697
G02 X130.946392 Y28.768401 Z-0.125000 I-0.058169 J-5.183317
G02 X130.975758 Y28.767815 Z-0.125000 I-0.084645 J-4.977533
G02 X131.005119 Y28.767054 Z-0.125000 I-0.111713 J-4.876682
G02 X131.033880 Y28.766133 Z-0.125000 I-0.135411 J-4.680177
G02 X131.062634 Y28.765034 Z-0.125000 I-0.160821 J-4.583743
G02 X131.090791 Y28.763779 Z-0.125000 I-0.181866 J-4.396290
G02 X131.118938 Y28.762341 Z-0.125000 I-0.205680 J-4.304160
G02 X131.146490 Y28.760752 Z-0.125000 I-0.224199 J-4.125533
G02 X131.174031 Y28.758976 Z-0.125000 I-0.246479 J-4.037595
G02 X131.200979 Y28.757052 Z-0.125000 I-0.262596 J-3.867568
G02 X131.227913 Y28.754938 Z-0.125000 I-0.283407 J-3.783707
G02 X131.254256 Y28.752680 Z-0.125000 I-0.297248 J-3.622055
G02 X131.280583 Y28.750228 Z-0.125000 I-0.316651 J-3.542159
G02 X131.306322 Y28.747635 Z-0.125000 I-0.328341 J-3.388654
G02 X131.332042 Y28.744845 Z-0.125000 I-0.346401 J-3.312611
G02 X131.357178 Y28.741917 Z-0.125000 I-0.356066 J-3.167028
G02 X131.382289 Y28.738789 Z-0.125000 I-0.372843 J-3.094723
G02 X131.406821 Y28.735527 Z-0.125000 I-0.380608 J-2.956836
G02 X131.431325 Y28.732060 Z-0.125000 I-0.396167 J-2.888158
G02 X131.455254 Y28.728464 Z-0.125000 I-0.402158 J-2.757739
G02 X131.479150 Y28.724659 Z-0.125000 I-0.416562 J-2.692574
G02 X131.502476 Y28.720729 Z-0.125000 I-0.420904 J-2.569400
G02 X131.525764 Y28.716585 Z-0.125000 I-0.434214 J-2.507635
G02 X131.548486 Y28.712321 Z-0.125000 I-0.437033 J-2.391477
G02 X131.571166 Y28.707838 Z-0.125000 I-0.449314 J-2.333000
G02 X131.593285 Y28.703240 Z-0.125000 I-0.450734 J-2.223634
G02 X131.615357 Y28.698419 Z-0.125000 I-0.462048 J-2.168330
G02 X131.636873 Y28.693486 Z-0.125000 I-0.462195 J-2.065529
G02 X131.658336 Y28.688327 Z-0.125000 I-0.472606 J-2.013286
G02 X131.679250 Y28.683060 Z-0.125000 I-0.471605 J-1.916824
G02 X131.700326 Y28.677794 Z-0.125000 I-0.558231 J-2.278893
G02 X131.721142 Y28.672386 Z-0.125000 I-0.567800 J-2.228466
G02 X131.741906 Y28.666783 Z-0.125000 I-0.582814 J-2.201143
G02 X131.762415 Y28.661040 Z-0.125000 I-0.591891 J-2.153029
G02 X131.782867 Y28.655100 Z-0.125000 I-0.606523 J-2.126680
G02 X131.803069 Y28.649021 Z-0.125000 I-0.615174 J-2.080820
G02 X131.823210 Y28.642745 Z-0.125000 I-0.629457 J-2.055416
G02 X131.843104 Y28.636329 Z-0.125000 I-0.637745 J-2.011750
G02 X131.862933 Y28.629717 Z-0.125000 I-0.651712 J-1.987261
G02 X131.882520 Y28.622965 Z-0.125000 I-0.659702 J-1.945730
G02 X131.902037 Y28.616016 Z-0.125000 I-0.673385 J-1.922125
G02 X131.921317 Y28.608929 Z-0.125000 I-0.681142 J-1.882670
G02 X131.940523 Y28.601643 Z-0.125000 I-0.694572 J-1.859920
G02 X131.959496 Y28.594219 Z-0.125000 I-0.702161 J-1.822481
G02 X131.978389 Y28.586597 Z-0.125000 I-0.715372 J-1.800557
G02 X131.997055 Y28.578838 Z-0.125000 I-0.722856 J-1.765074
G02 X132.015637 Y28.570879 Z-0.125000 I-0.735880 J-1.743945
G02 X132.033996 Y28.562783 Z-0.125000 I-0.743325 J-1.710360
G02 X132.052266 Y28.554489 Z-0.125000 I-0.756195 J-1.689997
G02 X132.070317 Y28.546056 Z-0.125000 I-0.763664 J-1.658250
G02 X132.088275 Y28.537426 Z-0.125000 I-0.776411 J-1.638622
G02 X132.106020 Y28.528657 Z-0.125000 I-0.783970 J-1.608654
G02 X132.123666 Y28.519691 Z-0.125000 I-0.796627 J-1.589732
G02 X132.141104 Y28.510584 Z-0.125000 I-0.804341 J-1.561483
G02 X132.158438 Y28.501283 Z-0.125000 I-0.816940 J-1.543237
G02 X132.175569 Y28.491840 Z-0.125000 I-0.824872 J-1.516648
G02 X132.192591 Y28.482202 Z-0.125000 I-0.837446 J-1.499049
G02 X132.209415 Y28.472422 Z-0.125000 I-0.845662 J-1.474061
G02 X132.226125 Y28.462450 Z-0.125000 I-0.858243 J-1.457077
G02 X132.242642 Y28.452332 Z-0.125000 I-0.866806 J-1.433631
G02 X132.259040 Y28.442025 Z-0.125000 I-0.879427 J-1.417234
G02 X132.275250 Y28.431570 Z-0.125000 I-0.888403 J-1.395269
G02 X132.294531 Y28.418723 Z-0.125000 I-0.850455 J-1.297273
G02 X132.313428 Y28.405718 Z-0.125000 I-0.852548 J-1.259042
G02 X132.332125 Y28.392429 Z-0.125000 I-0.863139 J-1.234162
G02 X132.350448 Y28.378979 Z-0.125000 I-0.865841 J-1.198727
G02 X132.368561 Y28.365247 Z-0.125000 I-0.876485 J-1.174982
G02 X132.386311 Y28.351351 Z-0.125000 I-0.879913 J-1.142189
G02 X132.403841 Y28.337177 Z-0.125000 I-0.890669 J-1.119501
G02 X132.421017 Y28.322834 Z-0.125000 I-0.894943 J-1.089195
G02 X132.437963 Y28.308220 Z-0.125000 I-0.905870 J-1.067488
G02 X132.454565 Y28.293430 Z-0.125000 I-0.911108 J-1.039516
G02 X132.470927 Y28.278374 Z-0.125000 I-0.922265 J-1.018711
G02 X132.486957 Y28.263137 Z-0.125000 I-0.928585 J-0.992918
G02 X132.502735 Y28.247641 Z-0.125000 I-0.940032 J-0.972938
G02 X132.518191 Y28.231957 Z-0.125000 I-0.947554 J-0.949171
G02 X132.533386 Y28.216020 Z-0.125000 I-0.959349 J-0.929938
G02 X132.548267 Y28.199888 Z-0.125000 I-0.968191 J-0.908042
G02 X132.562880 Y28.183511 Z-0.125000 I-0.980393 J-0.889479
G02 X132.577187 Y28.166930 Z-0.125000 I-0.990673 J-0.869302
G02 X132.591216 Y28.150114 Z-0.125000 I-1.003342 J-0.851331
G02 X132.604949 Y28.133085 Z-0.125000 I-1.015180 J-0.832717
G02 X132.618396 Y28.115829 Z-0.125000 I-1.028374 J-0.815260
G02 X132.631554 Y28.098351 Z-0.125000 I-1.041888 J-0.798056
G02 X132.644419 Y28.080656 Z-0.125000 I-1.055666 J-0.781037
G02 X132.657002 Y28.062729 Z-0.125000 I-1.070975 J-0.765088
G02 X132.669285 Y28.044596 Z-0.125000 I-1.085397 J-0.748429
G02 X132.681292 Y28.026219 Z-0.125000 I-1.102619 J-0.733582
G02 X132.692994 Y28.007647 Z-0.125000 I-1.117743 J-0.717205
G02 X132.704425 Y27.988821 Z-0.125000 I-1.136998 J-0.703305
G02 X132.715546 Y27.969810 Z-0.125000 I-1.152883 J-0.687133
G02 X132.726401 Y27.950535 Z-0.125000 I-1.174289 J-0.674026
G02 X132.736941 Y27.931085 Z-0.125000 I-1.190994 J-0.657982
G02 X132.747220 Y27.911360 Z-0.125000 I-1.214670 J-0.645514
G02 X132.757376 Y27.891461 Z-0.125000 I-1.105925 J-0.576986
G02 X132.767244 Y27.871243 Z-0.125000 I-1.131820 J-0.564944
G02 X132.776752 Y27.850854 Z-0.125000 I-1.150410 J-0.548887
G02 X132.785976 Y27.830131 Z-0.125000 I-1.179096 J-0.537235
G02 X132.794838 Y27.809250 Z-0.125000 I-1.198799 J-0.521067
G02 X132.803417 Y27.788023 Z-0.125000 I-1.230424 J-0.509615
G02 X132.811631 Y27.766651 Z-0.125000 I-1.251312 J-0.493239
G02 X132.819565 Y27.744919 Z-0.125000 I-1.286025 J-0.481795
G02 X132.827134 Y27.723056 Z-0.125000 I-1.308172 J-0.465116
G02 X132.834422 Y27.700819 Z-0.125000 I-1.346120 J-0.453488
G02 X132.841344 Y27.678465 Z-0.125000 I-1.369599 J-0.436410
G02 X132.847986 Y27.655723 Z-0.125000 I-1.410932 J-0.424407
G02 X132.854264 Y27.632878 Z-0.125000 I-1.435817 J-0.406834
G02 X132.860259 Y27.609632 Z-0.125000 I-1.480681 J-0.394263
G02 X132.865892 Y27.586295 Z-0.125000 I-1.507045 J-0.376100
G02 X132.871240 Y27.562545 Z-0.125000 I-1.555589 J-0.362771
G02 X132.876228 Y27.538716 Z-0.125000 I-1.583506 J-0.343922
G02 X132.880929 Y27.514462 Z-0.125000 I-1.635878 J-0.329642
G02 X132.885273 Y27.490141 Z-0.125000 I-1.665421 J-0.310012
G02 X132.889326 Y27.465383 Z-0.125000 I-1.721769 J-0.294589
G02 X132.893026 Y27.440570 Z-0.125000 I-1.753011 J-0.274082
G02 X132.896432 Y27.415309 Z-0.125000 I-1.813483 J-0.257324
G02 X132.899488 Y27.390003 Z-0.125000 I-1.846498 J-0.235845
G02 X132.902245 Y27.364239 Z-0.125000 I-1.911242 J-0.217561
G02 X132.904658 Y27.338440 Z-0.125000 I-1.946104 J-0.195014
G02 X132.906767 Y27.312173 Z-0.125000 I-2.015267 J-0.175012
G02 X132.908536 Y27.285881 Z-0.125000 I-2.052050 J-0.151301
G02 X132.909996 Y27.259111 Z-0.125000 I-2.125781 J-0.129389
G02 X132.911122 Y27.232325 Z-0.125000 I-2.164557 J-0.104419
G02 X132.911934 Y27.205053 Z-0.125000 I-2.243003 J-0.080405
G02 X132.912417 Y27.177774 Z-0.125000 I-2.283847 J-0.054082
G02 X132.912580 Y27.150000 Z-0.125000 I-2.367157 J-0.027774
G01 X132.912580 Y27.149980 Z-0.125000
G00 Z5.000000

(End cutting path id: text8-0-1)


(Start cutting path id: text8-0-1)
(Change tool to Default tool)

G00 Z5.000000
G00 X131.544890 Y27.118980

G01 Z-0.125000 F100.0(Penetrate)
G03 X131.544775 Y27.132543 Z-0.125000 I-0.797161 J-0.000000 F400.000000
G03 X131.544432 Y27.145868 Z-0.125000 I-0.769739 J-0.013098
G03 X131.543858 Y27.159184 Z-0.125000 I-0.756439 J-0.025978
G03 X131.543060 Y27.172271 Z-0.125000 I-0.731330 J-0.038019
G03 X131.542026 Y27.185341 Z-0.125000 I-0.718940 J-0.050295
G03 X131.540772 Y27.198190 Z-0.125000 I-0.696061 J-0.061437
G03 X131.539279 Y27.211013 Z-0.125000 I-0.684538 J-0.073188
G03 X131.537569 Y27.223624 Z-0.125000 I-0.663805 J-0.083588
G03 X131.535618 Y27.236200 Z-0.125000 I-0.653108 J-0.094894
G03 X131.533452 Y27.248574 Z-0.125000 I-0.634437 J-0.104710
G03 X131.531042 Y27.260903 Z-0.125000 I-0.624523 J-0.115649
G03 X131.528419 Y27.273040 Z-0.125000 I-0.607832 J-0.125040
G03 X131.525551 Y27.285121 Z-0.125000 I-0.598659 J-0.135693
G03 X131.522471 Y27.297021 Z-0.125000 I-0.583864 J-0.144815
G03 X131.519146 Y27.308855 Z-0.125000 I-0.575390 J-0.155260
G03 X131.515607 Y27.320518 Z-0.125000 I-0.562408 J-0.164273
G03 X131.511826 Y27.332104 Z-0.125000 I-0.554591 J-0.174589
G03 X131.507829 Y27.343530 Z-0.125000 I-0.543338 J-0.183650
G03 X131.503592 Y27.354868 Z-0.125000 I-0.536135 J-0.193916
G03 X131.499136 Y27.366057 Z-0.125000 I-0.526528 J-0.203183
G03 X131.494442 Y27.377149 Z-0.125000 I-0.519898 J-0.213479
G03 X131.489528 Y27.388101 Z-0.125000 I-0.511854 J-0.223110
G03 X131.484379 Y27.398944 Z-0.125000 I-0.505753 J-0.233514
G03 X131.479004 Y27.409659 Z-0.125000 I-0.499190 J-0.243667
G03 X131.473400 Y27.420256 Z-0.125000 I-0.493576 J-0.254259
G03 X131.467566 Y27.430734 Z-0.125000 I-0.488409 J-0.265093
G03 X131.461507 Y27.441083 Z-0.125000 I-0.483241 J-0.275951
G03 X131.455212 Y27.451324 Z-0.125000 I-0.479388 J-0.287624
G03 X131.448699 Y27.461426 Z-0.125000 I-0.474622 J-0.298827
G03 X131.441944 Y27.471429 Z-0.125000 I-0.471999 J-0.311497
G03 X131.434977 Y27.481286 Z-0.125000 I-0.467594 J-0.323124
G03 X131.427760 Y27.491050 Z-0.125000 I-0.466118 J-0.336949
G03 X131.420370 Y27.500903 Z-0.125000 I-0.705195 J-0.521243
G03 X131.412970 Y27.510483 Z-0.125000 I-0.674187 J-0.513120
G03 X131.405432 Y27.519956 Z-0.125000 I-0.655574 J-0.513911
G03 X131.397883 Y27.529163 Z-0.125000 I-0.626784 J-0.506219
G03 X131.390198 Y27.538256 Z-0.125000 I-0.609176 J-0.507053
G03 X131.382501 Y27.547088 Z-0.125000 I-0.582487 J-0.499839
G03 X131.374669 Y27.555802 Z-0.125000 I-0.565826 J-0.500739
G03 X131.366822 Y27.564261 Z-0.125000 I-0.541121 J-0.494047
G03 X131.358843 Y27.572594 Z-0.125000 I-0.525348 J-0.495036
G03 X131.350848 Y27.580679 Z-0.125000 I-0.502510 J-0.488913
G03 X131.342722 Y27.588633 Z-0.125000 I-0.487566 J-0.490014
G03 X131.334578 Y27.596344 Z-0.125000 I-0.466479 J-0.484506
G03 X131.326306 Y27.603917 Z-0.125000 I-0.452306 J-0.485742
G03 X131.318012 Y27.611255 Z-0.125000 I-0.432853 J-0.480895
G03 X131.309593 Y27.618449 Z-0.125000 I-0.419391 J-0.482289
G03 X131.301150 Y27.625413 Z-0.125000 I-0.401456 J-0.478148
G03 X131.292585 Y27.632226 Z-0.125000 I-0.388647 J-0.479723
G03 X131.283992 Y27.638816 Z-0.125000 I-0.372112 J-0.476335
G03 X131.275282 Y27.645250 Z-0.125000 I-0.359898 J-0.478114
G03 X131.266538 Y27.651466 Z-0.125000 I-0.344647 J-0.475524
G03 X131.257682 Y27.657521 Z-0.125000 I-0.332968 J-0.477530
G03 X131.248788 Y27.663363 Z-0.125000 I-0.318884 J-0.475785
G03 X131.239787 Y27.669038 Z-0.125000 I-0.307682 J-0.478040
G03 X131.230742 Y27.674506 Z-0.125000 I-0.294649 J-0.477185
G03 X131.221596 Y27.679801 Z-0.125000 I-0.283865 J-0.479714
G03 X131.212401 Y27.684895 Z-0.125000 I-0.271765 J-0.479795
G03 X131.203110 Y27.689811 Z-0.125000 I-0.261341 J-0.482619
G03 X131.193763 Y27.694530 Z-0.125000 I-0.250058 J-0.483684
G03 X131.184327 Y27.699068 Z-0.125000 I-0.239934 J-0.486825
G03 X131.174830 Y27.703412 Z-0.125000 I-0.229352 J-0.488919
G03 X131.165249 Y27.707571 Z-0.125000 I-0.219470 J-0.492401
G03 X131.155600 Y27.711540 Z-0.125000 I-0.209471 J-0.495570
G03 X131.142657 Y27.716648 Z-0.125000 I-0.550521 J-1.376037
G03 X131.129802 Y27.721581 Z-0.125000 I-0.526430 J-1.352504
G03 X131.116900 Y27.726392 Z-0.125000 I-0.508285 J-1.343456
G03 X131.104084 Y27.731031 Z-0.125000 I-0.485360 J-1.320985
G03 X131.091224 Y27.735544 Z-0.125000 I-0.467802 J-1.312320
G03 X131.078447 Y27.739888 Z-0.125000 I-0.445983 J-1.290904
G03 X131.065628 Y27.744104 Z-0.125000 I-0.428983 J-1.282618
G03 X131.052891 Y27.748153 Z-0.125000 I-0.408213 J-1.262249
G03 X131.040114 Y27.752072 Z-0.125000 I-0.391741 J-1.254338
G03 X131.027416 Y27.755825 Z-0.125000 I-0.371961 J-1.235007
G03 X131.014680 Y27.759447 Z-0.125000 I-0.355987 J-1.227467
G03 X131.002022 Y27.762906 Z-0.125000 I-0.337139 J-1.209166
G03 X130.989327 Y27.766231 Z-0.125000 I-0.321636 J-1.201993
G03 X130.976708 Y27.769394 Z-0.125000 I-0.303661 J-1.184716
G03 X130.964055 Y27.772422 Z-0.125000 I-0.288598 J-1.177905
G03 X130.951475 Y27.775290 Z-0.125000 I-0.271438 J-1.161643
G03 X130.938864 Y27.778021 Z-0.125000 I-0.256786 J-1.155191
G03 X130.926323 Y27.780594 Z-0.125000 I-0.240382 J-1.139935
G03 X130.913754 Y27.783028 Z-0.125000 I-0.226112 J-1.133838
G03 X130.901252 Y27.785306 Z-0.125000 I-0.210406 J-1.119582
G03 X130.888724 Y27.787443 Z-0.125000 I-0.196488 J-1.113836
G03 X130.876261 Y27.789425 Z-0.125000 I-0.181422 J-1.100570
G03 X130.863776 Y27.791266 Z-0.125000 I-0.167827 J-1.095171
G03 X130.851351 Y27.792953 Z-0.125000 I-0.153342 J-1.082888
G03 X130.838908 Y27.794496 Z-0.125000 I-0.140041 J-1.077831
G03 X130.826522 Y27.795888 Z-0.125000 I-0.126079 J-1.066524
G03 X130.814121 Y27.797135 Z-0.125000 I-0.113043 J-1.061806
G03 X130.801774 Y27.798231 Z-0.125000 I-0.099545 J-1.051466
G03 X130.789415 Y27.799181 Z-0.125000 I-0.086744 J-1.047082
G03 X130.777107 Y27.799981 Z-0.125000 I-0.073651 J-1.037701
G03 X130.764790 Y27.800635 Z-0.125000 I-0.061056 J-1.033648
G03 X130.752520 Y27.801140 Z-0.125000 I-0.048311 J-1.025219
G03 X130.740246 Y27.801767 Z-0.125000 I-0.241184 J-4.598178
G03 X130.727462 Y27.802387 Z-0.125000 I-0.248253 J-4.987412
G03 X130.714677 Y27.802975 Z-0.125000 I-0.245022 J-5.190389
G03 X130.701382 Y27.803554 Z-0.125000 I-0.251078 J-5.612121
G03 X130.688086 Y27.804102 Z-0.125000 I-0.247059 J-5.831653
G03 X130.674279 Y27.804640 Z-0.125000 I-0.251999 J-6.287191
G03 X130.660471 Y27.805149 Z-0.125000 I-0.247140 J-6.523931
G03 X130.646153 Y27.805646 Z-0.125000 I-0.250861 J-7.014582
G03 X130.631834 Y27.806115 Z-0.125000 I-0.245111 J-7.269185
G03 X130.617005 Y27.806572 Z-0.125000 I-0.247511 J-7.796257
G03 X130.602174 Y27.807001 Z-0.125000 I-0.240819 J-8.069376
G03 X130.586833 Y27.807417 Z-0.125000 I-0.241793 J-8.634177
G03 X130.571492 Y27.807806 Z-0.125000 I-0.234107 J-8.926467
G03 X130.555639 Y27.808181 Z-0.125000 I-0.233554 J-9.530305
G03 X130.539786 Y27.808530 Z-0.125000 I-0.224822 J-9.842420
G03 X130.523422 Y27.808865 Z-0.125000 I-0.222638 J-10.486602
G03 X130.507058 Y27.809174 Z-0.125000 I-0.212809 J-10.819196
G03 X130.490183 Y27.809469 Z-0.125000 I-0.208893 J-11.505031
G03 X130.473307 Y27.809738 Z-0.125000 I-0.197918 J-11.858757
G03 X130.455921 Y27.809992 Z-0.125000 I-0.192159 J-12.587553
G03 X130.438534 Y27.810221 Z-0.125000 I-0.179986 J-12.963065
G03 X130.420636 Y27.810434 Z-0.125000 I-0.172291 J-13.736129
G03 X130.402738 Y27.810624 Z-0.125000 I-0.158866 J-14.134082
G03 X130.384328 Y27.810796 Z-0.125000 I-0.149127 J-14.952722
G03 X130.365919 Y27.810946 Z-0.125000 I-0.134396 J-15.373769
G03 X130.346998 Y27.811078 Z-0.125000 I-0.122520 J-16.239293
G03 X130.328077 Y27.811188 Z-0.125000 I-0.106435 J-16.684089
G03 X130.308645 Y27.811279 Z-0.125000 I-0.092304 J-17.597805
G03 X130.289212 Y27.811349 Z-0.125000 I-0.074820 J-18.067003
G03 X130.269269 Y27.811400 Z-0.125000 I-0.058330 J-19.030220
G03 X130.249325 Y27.811430 Z-0.125000 I-0.039389 J-19.524474
G03 X130.228870 Y27.811440 Z-0.125000 I-0.020455 J-20.538498
G01 X130.001500 Y27.811440 Z-0.125000
G01 X130.001500 Y26.274940 Z-0.125000
G01 X130.380460 Y26.274940 Z-0.125000
G03 X130.401560 Y26.274981 Z-0.125000 I0.000000 J5.458036
G03 X130.422190 Y26.275101 Z-0.125000 I-0.020170 J5.217383
G03 X130.442819 Y26.275304 Z-0.125000 I-0.039882 J5.099814
G03 X130.462979 Y26.275585 Z-0.125000 I-0.057791 J4.870368
G03 X130.483136 Y26.275951 Z-0.125000 I-0.076160 J4.758256
G03 X130.502825 Y26.276392 Z-0.125000 I-0.091902 J4.539745
G03 X130.522511 Y26.276920 Z-0.125000 I-0.108976 J4.432951
G03 X130.541729 Y26.277521 Z-0.125000 I-0.122644 J4.225100
G03 X130.560944 Y26.278211 Z-0.125000 I-0.138470 J4.123489
G03 X130.579692 Y26.278973 Z-0.125000 I-0.150159 J3.926022
G03 X130.598435 Y26.279826 Z-0.125000 I-0.164784 J3.829456
G03 X130.616712 Y26.280748 Z-0.125000 I-0.174587 J3.642101
G03 X130.634984 Y26.281763 Z-0.125000 I-0.188058 J3.550442
G03 X130.652791 Y26.282845 Z-0.125000 I-0.196070 J3.372923
G03 X130.670591 Y26.284023 Z-0.125000 I-0.208434 J3.286035
G03 X130.687928 Y26.285265 Z-0.125000 I-0.214748 J3.118079
G03 X130.705256 Y26.286605 Z-0.125000 I-0.226052 J3.035825
G03 X130.722122 Y26.288008 Z-0.125000 I-0.230762 J2.877156
G03 X130.738979 Y26.289510 Z-0.125000 I-0.241053 J2.799398
G03 X130.755375 Y26.291073 Z-0.125000 I-0.244253 J2.649743
G03 X130.771760 Y26.292738 Z-0.125000 I-0.253578 J2.576344
G03 X130.787686 Y26.294461 Z-0.125000 I-0.255363 J2.435428
G03 X130.803599 Y26.296289 Z-0.125000 I-0.263769 J2.366252
G03 X130.819054 Y26.298171 Z-0.125000 I-0.264231 J2.233800
G03 X130.834496 Y26.300162 Z-0.125000 I-0.271766 J2.168709
G03 X130.849481 Y26.302204 Z-0.125000 I-0.271000 J2.044448
G03 X130.864451 Y26.304358 Z-0.125000 I-0.277710 J1.983305
G03 X130.878966 Y26.306560 Z-0.125000 I-0.275810 J1.866960
G03 X130.893464 Y26.308877 Z-0.125000 I-0.281742 J1.809628
G03 X130.907509 Y26.311239 Z-0.125000 I-0.278801 J1.700924
G03 X130.921534 Y26.313718 Z-0.125000 I-0.284003 J1.647266
G03 X130.935110 Y26.316240 Z-0.125000 I-0.280115 J1.545929
G03 X130.948872 Y26.318913 Z-0.125000 I-0.194186 J1.036707
G03 X130.962389 Y26.321726 Z-0.125000 I-0.201667 J1.002803
G03 X130.975865 Y26.324723 Z-0.125000 I-0.211961 J0.985014
G03 X130.989102 Y26.327858 Z-0.125000 I-0.218853 J0.953333
G03 X131.002293 Y26.331179 Z-0.125000 I-0.228738 J0.936475
G03 X131.015250 Y26.334637 Z-0.125000 I-0.235132 J0.906937
G03 X131.028155 Y26.338282 Z-0.125000 I-0.244654 J0.890971
G03 X131.040832 Y26.342063 Z-0.125000 I-0.250642 J0.863496
G03 X131.053452 Y26.346032 Z-0.125000 I-0.259848 J0.848379
G03 X131.065850 Y26.350136 Z-0.125000 I-0.265522 J0.822887
G03 X131.078184 Y26.354427 Z-0.125000 I-0.274457 J0.808581
G03 X131.090302 Y26.358855 Z-0.125000 I-0.279909 J0.784991
G03 X131.102350 Y26.363470 Z-0.125000 I-0.288620 J0.771455
G03 X131.114189 Y26.368220 Z-0.125000 I-0.293942 J0.749687
G03 X131.125950 Y26.373159 Z-0.125000 I-0.302474 J0.736880
G03 X131.137510 Y26.378233 Z-0.125000 I-0.307758 J0.716853
G03 X131.148986 Y26.383494 Z-0.125000 I-0.316158 J0.704735
G03 X131.160266 Y26.388891 Z-0.125000 I-0.321496 J0.686371
G03 X131.171456 Y26.394475 Z-0.125000 I-0.329809 J0.674901
G03 X131.182457 Y26.400197 Z-0.125000 I-0.335293 J0.658118
G03 X131.193360 Y26.406103 Z-0.125000 I-0.343566 J0.647257
G03 X131.204082 Y26.412149 Z-0.125000 I-0.349287 J0.631975
G03 X131.214700 Y26.418378 Z-0.125000 I-0.357566 J0.621681
G03 X131.225142 Y26.424748 Z-0.125000 I-0.363617 J0.607820
G03 X131.235474 Y26.431298 Z-0.125000 I-0.371948 J0.598053
G03 X131.245637 Y26.437994 Z-0.125000 I-0.378421 J0.585533
G03 X131.255682 Y26.444866 Z-0.125000 I-0.386850 J0.576253
G03 X131.265567 Y26.451886 Z-0.125000 I-0.393836 J0.564993
G03 X131.275326 Y26.459079 Z-0.125000 I-0.402409 J0.556160
G03 X131.284931 Y26.466425 Z-0.125000 I-0.410001 J0.546081
G03 X131.294404 Y26.473939 Z-0.125000 I-0.418763 J0.537653
G03 X131.303730 Y26.481610 Z-0.125000 I-0.427054 J0.528674
G03 X131.311646 Y26.488558 Z-0.125000 I-0.470335 J0.543846
G03 X131.319381 Y26.495551 Z-0.125000 I-0.468887 J0.526387
G03 X131.327012 Y26.502660 Z-0.125000 I-0.472117 J0.514483
G03 X131.334467 Y26.509816 Z-0.125000 I-0.471102 J0.498232
G03 X131.341813 Y26.517084 Z-0.125000 I-0.474421 J0.486831
G03 X131.348988 Y26.524403 Z-0.125000 I-0.473882 J0.471713
G03 X131.356049 Y26.531832 Z-0.125000 I-0.477311 J0.460779
G03 X131.362943 Y26.539314 Z-0.125000 I-0.477289 J0.446721
G03 X131.369720 Y26.546902 Z-0.125000 I-0.480850 J0.436215
G03 X131.376333 Y26.554547 Z-0.125000 I-0.481388 J0.423143
G03 X131.382825 Y26.562296 Z-0.125000 I-0.485102 J0.413028
G03 X131.389158 Y26.570103 Z-0.125000 I-0.486242 J0.400868
G03 X131.395366 Y26.578012 Z-0.125000 I-0.490129 J0.391108
G03 X131.401418 Y26.585983 Z-0.125000 I-0.491914 J0.379786
G03 X131.407341 Y26.594050 Z-0.125000 I-0.495996 J0.370343
G03 X131.413112 Y26.602185 Z-0.125000 I-0.498468 J0.359785
G03 X131.418751 Y26.610412 Z-0.125000 I-0.502766 J0.350622
G03 X131.424242 Y26.618710 Z-0.125000 I-0.505968 J0.340755
G03 X131.429596 Y26.627097 Z-0.125000 I-0.510502 J0.331835
G03 X131.434806 Y26.635558 Z-0.125000 I-0.514476 J0.322583
G03 X131.439876 Y26.644104 Z-0.125000 I-0.519268 J0.313869
G03 X131.444805 Y26.652730 Z-0.125000 I-0.524057 J0.305159
G03 X131.449591 Y26.661435 Z-0.125000 I-0.529128 J0.296613
G03 X131.454238 Y26.670224 Z-0.125000 I-0.534774 J0.288372
G03 X131.458741 Y26.679088 Z-0.125000 I-0.540144 J0.279958
G03 X131.463106 Y26.688041 Z-0.125000 I-0.546690 J0.272111
G03 X131.467326 Y26.697064 Z-0.125000 I-0.552381 J0.263790
G03 X131.471410 Y26.706181 Z-0.125000 I-0.559869 J0.256264
G03 X131.475345 Y26.715363 Z-0.125000 I-0.565902 J0.248001
G03 X131.479147 Y26.724644 Z-0.125000 I-0.574375 J0.240720
G03 X131.482800 Y26.733985 Z-0.125000 I-0.580771 J0.232477
G03 X131.486320 Y26.743430 Z-0.125000 I-0.590270 J0.225369
G03 X131.489911 Y26.753145 Z-0.125000 I-0.664224 J0.251071
G03 X131.493416 Y26.763064 Z-0.125000 I-0.688950 J0.248994
G03 X131.496779 Y26.773033 Z-0.125000 I-0.703532 J0.242899
G03 X131.500054 Y26.783210 Z-0.125000 I-0.730084 J0.240572
G03 X131.503189 Y26.793432 Z-0.125000 I-0.745484 J0.234204
G03 X131.506235 Y26.803867 Z-0.125000 I-0.773938 J0.231558
G03 X131.509141 Y26.814342 Z-0.125000 I-0.790193 J0.224881
G03 X131.511957 Y26.825036 Z-0.125000 I-0.820626 J0.221848
G03 X131.514636 Y26.835764 Z-0.125000 I-0.837774 J0.214830
G03 X131.517222 Y26.846715 Z-0.125000 I-0.870263 J0.211340
G03 X131.519672 Y26.857698 Z-0.125000 I-0.888343 J0.203946
G03 X131.522029 Y26.868906 Z-0.125000 I-0.922964 J0.199933
G03 X131.524251 Y26.880143 Z-0.125000 I-0.942012 J0.192128
G03 X131.526379 Y26.891609 Z-0.125000 I-0.978842 J0.187522
G03 X131.528373 Y26.903099 Z-0.125000 I-0.998898 J0.179274
G03 X131.530270 Y26.914823 Z-0.125000 I-1.038012 J0.174006
G03 X131.532036 Y26.926567 Z-0.125000 I-1.059114 J0.165279
G03 X131.533704 Y26.938548 Z-0.125000 I-1.100590 J0.159282
G03 X131.535242 Y26.950546 Z-0.125000 I-1.122775 J0.150043
G03 X131.536679 Y26.962784 Z-0.125000 I-1.166688 J0.143248
G03 X131.537990 Y26.975036 Z-0.125000 I-1.189996 J0.133463
G03 X131.539197 Y26.987532 Z-0.125000 I-1.236423 J0.125801
G03 X131.540280 Y27.000038 Z-0.125000 I-1.260891 J0.115435
G03 X131.541258 Y27.012791 Z-0.125000 I-1.309908 J0.106838
G03 X131.542112 Y27.025552 Z-0.125000 I-1.335574 J0.095857
G03 X131.542860 Y27.038561 Z-0.125000 I-1.387258 J0.086257
G03 X131.543487 Y27.051577 Z-0.125000 I-1.414161 J0.074628
G03 X131.544004 Y27.064843 Z-0.125000 I-1.468588 J0.063955
G03 X131.544403 Y27.078113 Z-0.125000 I-1.496765 J0.051643
G03 X131.544691 Y27.091636 Z-0.125000 I-1.554012 J0.039830
G03 X131.544862 Y27.105160 Z-0.125000 I-1.583501 J0.026802
G03 X131.544920 Y27.118940 Z-0.125000 I-1.643644 J0.013780
G01 X131.544890 Y27.118980 Z-0.125000
G00 Z5.000000

(End cutting path id: text8-0-1)


(Start cutting path id: text8-0-1)
(Change tool to Default tool)

G00 Z5.000000
G00 X127.669180 Y26.202580

G01 Z-0.125000 F100.0(Penetrate)
G02 X127.668485 Y26.125940 Z-0.125000 I-4.225658 J-0.000000 F400.000000
G02 X127.666435 Y26.051240 Z-0.125000 I-4.016555 J0.072859
G02 X127.662978 Y25.976592 Z-0.125000 I-3.915673 J0.143927
G02 X127.658199 Y25.903829 Z-0.125000 I-3.725187 J0.208126
G02 X127.651982 Y25.831176 Z-0.125000 I-3.632053 J0.274218
G02 X127.644473 Y25.760348 Z-0.125000 I-3.459334 J0.330943
G02 X127.635497 Y25.689691 Z-0.125000 I-3.373521 J0.392657
G02 X127.625256 Y25.620796 Z-0.125000 I-3.217720 J0.443094
G02 X127.613524 Y25.552139 Z-0.125000 I-3.138800 J0.501027
G02 X127.600548 Y25.485173 Z-0.125000 I-2.999067 J0.546365
G02 X127.586063 Y25.418519 Z-0.125000 I-2.926614 J0.601114
G02 X127.570350 Y25.353480 Z-0.125000 I-2.802099 J0.642538
G02 X127.553115 Y25.288830 Z-0.125000 I-2.735684 J0.694701
G02 X127.534662 Y25.225717 Z-0.125000 I-2.625541 J0.733400
G02 X127.514680 Y25.163072 Z-0.125000 I-2.564736 J0.783573
G02 X127.493482 Y25.101883 Z-0.125000 I-2.468115 J0.820733
G02 X127.470758 Y25.041245 Z-0.125000 I-2.412490 J0.869514
G02 X127.446813 Y24.981978 Z-0.125000 I-2.328545 J0.906323
G02 X127.421351 Y24.923347 Z-0.125000 I-2.277671 J0.954308
G02 X127.394653 Y24.866003 Z-0.125000 I-2.205556 J0.991955
G02 X127.366457 Y24.809380 Z-0.125000 I-2.159002 J1.039738
G02 X127.337002 Y24.753957 Z-0.125000 I-2.097869 J1.079414
G02 X127.306078 Y24.699340 Z-0.125000 I-2.055206 J1.127590
G02 X127.273861 Y24.645841 Z-0.125000 I-2.004208 J1.170483
G02 X127.240213 Y24.593229 Z-0.125000 I-1.965006 J1.219648
G02 X127.205229 Y24.541654 Z-0.125000 I-1.923297 J1.266949
G02 X127.168862 Y24.491044 Z-0.125000 I-1.887125 J1.317694
G02 X127.131106 Y24.441396 Z-0.125000 I-1.853857 J1.370596
G02 X127.092023 Y24.392787 Z-0.125000 I-1.820285 J1.423515
G02 X127.051493 Y24.345068 Z-0.125000 I-1.794613 J1.483208
G02 X127.009698 Y24.298454 Z-0.125000 I-1.763211 J1.538893
G02 X126.966390 Y24.252670 Z-0.125000 I-1.744286 J1.606572
G02 X126.921859 Y24.208294 Z-0.125000 I-1.625449 J1.586575
G02 X126.876441 Y24.165480 Z-0.125000 I-1.558368 J1.607687
G02 X126.829843 Y24.123953 Z-0.125000 I-1.504416 J1.641191
G02 X126.782293 Y24.083915 Z-0.125000 I-1.445937 J1.669004
G02 X126.733633 Y24.045234 Z-0.125000 I-1.394873 J1.704748
G02 X126.683946 Y24.007976 Z-0.125000 I-1.343731 J1.740215
G02 X126.633228 Y23.972135 Z-0.125000 I-1.294915 J1.778669
G02 X126.581401 Y23.937661 Z-0.125000 I-1.249842 J1.822743
G02 X126.528626 Y23.904657 Z-0.125000 I-1.202635 J1.864378
G02 X126.474658 Y23.872972 Z-0.125000 I-1.162362 J1.918011
G02 X126.419828 Y23.842799 Z-0.125000 I-1.116125 J1.963297
G02 X126.363715 Y23.813908 Z-0.125000 I-1.079384 J2.027445
G02 X126.306833 Y23.786561 Z-0.125000 I-1.033479 J2.076850
G02 X126.248574 Y23.760469 Z-0.125000 I-0.998999 J2.152467
G02 X126.189639 Y23.735943 Z-0.125000 I-0.952789 J2.206460
G02 X126.129235 Y23.712655 Z-0.125000 I-0.919301 J2.294500
G02 X126.068246 Y23.690945 Z-0.125000 I-0.872150 J2.353551
G02 X126.005697 Y23.670466 Z-0.125000 I-0.838380 J2.454968
G02 X125.942652 Y23.651567 Z-0.125000 I-0.789653 J2.519546
G02 X125.877960 Y23.633903 Z-0.125000 I-0.754330 J2.635293
G02 X125.812858 Y23.617811 Z-0.125000 I-0.703392 J2.705868
G02 X125.746025 Y23.602964 Z-0.125000 I-0.665243 J2.836899
G02 X125.678864 Y23.589676 Z-0.125000 I-0.611461 J2.913940
G02 X125.609891 Y23.577651 Z-0.125000 I-0.569212 J3.061208
G02 X125.540668 Y23.567163 Z-0.125000 I-0.511951 J3.145186
G02 X125.469559 Y23.557963 Z-0.125000 I-0.464329 J3.309642
G02 X125.398270 Y23.550273 Z-0.125000 I-0.402958 J3.401029
G02 X125.325028 Y23.543900 Z-0.125000 I-0.348687 J3.583626
G02 X125.251671 Y23.539006 Z-0.125000 I-0.282572 J3.682892
G02 X125.176298 Y23.535463 Z-0.125000 I-0.220380 J3.884581
G02 X125.100870 Y23.533363 Z-0.125000 I-0.148889 J3.992199
G02 X125.023370 Y23.532650 Z-0.125000 I-0.077500 J4.213930
G02 X124.946085 Y23.533363 Z-0.125000 I0.000000 J4.191504
G02 X124.870858 Y23.535463 Z-0.125000 I0.073273 J3.973201
G02 X124.795687 Y23.539006 Z-0.125000 I0.144644 J3.868007
G02 X124.722518 Y23.543900 Z-0.125000 I0.208728 J3.669558
G02 X124.649464 Y23.550272 Z-0.125000 I0.274821 J3.572677
G02 X124.578350 Y23.557963 Z-0.125000 I0.330984 J3.393141
G02 X124.507416 Y23.567162 Z-0.125000 I0.392436 J3.304101
G02 X124.438354 Y23.577651 Z-0.125000 I0.441943 J3.142540
G02 X124.369543 Y23.589675 Z-0.125000 I0.499392 J3.060868
G02 X124.302529 Y23.602964 Z-0.125000 I0.543509 J2.916344
G02 X124.235844 Y23.617810 Z-0.125000 I0.597592 J2.841567
G02 X124.170876 Y23.633903 Z-0.125000 I0.637586 J2.713140
G02 X124.106319 Y23.651566 Z-0.125000 I0.688940 J2.644786
G02 X124.043395 Y23.670466 Z-0.125000 I0.726077 J2.531518
G02 X123.980967 Y23.690944 Z-0.125000 I0.775339 J2.469113
G02 X123.920085 Y23.712655 Z-0.125000 I0.810886 J2.370068
G02 X123.859789 Y23.735942 Z-0.125000 I0.858694 J2.313137
G02 X123.800947 Y23.760469 Z-0.125000 I0.893917 J2.227377
G02 X123.742783 Y23.786560 Z-0.125000 I0.940906 J2.175445
G02 X123.685981 Y23.813908 Z-0.125000 I0.977075 J2.102034
G02 X123.629948 Y23.842798 Z-0.125000 I1.023881 J2.054627
G02 X123.575186 Y23.872972 Z-0.125000 I1.062264 J1.992629
G02 X123.521284 Y23.904656 Z-0.125000 I1.109520 J1.949270
G02 X123.468564 Y23.937661 Z-0.125000 I1.151387 J1.897749
G02 X123.416790 Y23.972134 Z-0.125000 I1.199729 J1.857962
G02 X123.366113 Y24.007976 Z-0.125000 I1.246350 J1.815983
G02 X123.316465 Y24.045232 Z-0.125000 I1.296410 J1.779293
G02 X123.267833 Y24.083915 Z-0.125000 I1.349057 J1.745919
G02 X123.220308 Y24.123951 Z-0.125000 I1.401467 J1.711850
G02 X123.173726 Y24.165480 Z-0.125000 I1.461412 J1.686144
G02 X123.128319 Y24.208292 Z-0.125000 I1.516803 J1.654221
G02 X123.083790 Y24.252670 Z-0.125000 I1.585319 J1.635247
G02 X123.040482 Y24.298454 Z-0.125000 I1.700978 J1.652356
G02 X122.998687 Y24.345068 Z-0.125000 I1.721416 J1.585508
G02 X122.958157 Y24.392787 Z-0.125000 I1.754083 J1.530927
G02 X122.919074 Y24.441396 Z-0.125000 I1.781202 J1.472125
G02 X122.881318 Y24.491044 Z-0.125000 I1.816102 J1.420244
G02 X122.844951 Y24.541654 Z-0.125000 I1.850757 J1.368304
G02 X122.809967 Y24.593229 Z-0.125000 I1.888313 J1.318524
G02 X122.776319 Y24.645841 Z-0.125000 I1.931358 J1.272259
G02 X122.744102 Y24.699340 Z-0.125000 I1.971991 J1.223983
G02 X122.713178 Y24.753957 Z-0.125000 I2.024282 J1.182207
G02 X122.683723 Y24.809380 Z-0.125000 I2.068413 J1.134836
G02 X122.655527 Y24.866003 Z-0.125000 I2.130807 J1.096361
G02 X122.628829 Y24.923347 Z-0.125000 I2.178858 J1.049300
G02 X122.603367 Y24.981978 Z-0.125000 I2.252209 J1.012938
G02 X122.579422 Y25.041245 Z-0.125000 I2.304600 J0.965590
G02 X122.556697 Y25.101883 Z-0.125000 I2.389766 J0.930152
G02 X122.535500 Y25.163072 Z-0.125000 I2.446918 J0.881922
G02 X122.515518 Y25.225717 Z-0.125000 I2.544754 J0.846218
G02 X122.497065 Y25.288830 Z-0.125000 I2.607088 J0.796513
G02 X122.479830 Y25.353480 Z-0.125000 I2.718449 J0.759352
G02 X122.464117 Y25.418519 Z-0.125000 I2.786387 J0.707577
G02 X122.449632 Y25.485173 Z-0.125000 I2.912128 J0.667769
G02 X122.436656 Y25.552139 Z-0.125000 I2.986091 J0.613331
G02 X122.424924 Y25.620796 Z-0.125000 I3.127068 J0.569684
G02 X122.414683 Y25.689691 Z-0.125000 I3.207478 J0.511990
G02 X122.405707 Y25.760348 Z-0.125000 I3.364546 J0.463313
G02 X122.398198 Y25.831176 Z-0.125000 I3.451825 J0.401771
G02 X122.391981 Y25.903829 Z-0.125000 I3.625836 J0.346871
G02 X122.387202 Y25.976592 Z-0.125000 I3.720409 J0.280889
G02 X122.383745 Y26.051240 Z-0.125000 I3.912216 J0.218575
G02 X122.381695 Y26.125940 Z-0.125000 I4.014505 J0.147560
G02 X122.381000 Y26.202580 Z-0.125000 I4.224963 J0.076640
G02 X122.381695 Y26.279867 Z-0.125000 I4.295849 J-0.000000
G02 X122.383745 Y26.355147 Z-0.125000 I4.077693 J-0.073374
G02 X122.387203 Y26.430374 Z-0.125000 I3.972472 J-0.144891
G02 X122.391981 Y26.503649 Z-0.125000 I3.773674 J-0.209285
G02 X122.398200 Y26.576815 Z-0.125000 I3.676562 J-0.275637
G02 X122.405707 Y26.648087 Z-0.125000 I3.496231 J-0.332257
G02 X122.414685 Y26.719189 Z-0.125000 I3.406780 J-0.394051
G02 X122.424924 Y26.788461 Z-0.125000 I3.244022 J-0.444100
G02 X122.436659 Y26.857495 Z-0.125000 I3.161784 J-0.501943
G02 X122.449632 Y26.924771 Z-0.125000 I3.015709 J-0.546626
G02 X122.464121 Y26.991736 Z-0.125000 I2.940234 J-0.601124
G02 X122.479830 Y27.057017 Z-0.125000 I2.809950 J-0.641646
G02 X122.497070 Y27.121909 Z-0.125000 I2.740790 J-0.693405
G02 X122.515518 Y27.185198 Z-0.125000 I2.625406 J-0.730972
G02 X122.535505 Y27.248017 Z-0.125000 I2.562110 J-0.780597
G02 X122.556697 Y27.309315 Z-0.125000 I2.460736 J-0.816414
G02 X122.579428 Y27.370059 Z-0.125000 I2.402855 J-0.864512
G02 X122.603367 Y27.429368 Z-0.125000 I2.314602 J-0.899784
G02 X122.628836 Y27.488036 Z-0.125000 I2.261684 J-0.946960
G02 X122.655527 Y27.545357 Z-0.125000 I2.185661 J-0.982894
G02 X122.683729 Y27.601949 Z-0.125000 I2.137256 J-1.029752
G02 X122.713178 Y27.657281 Z-0.125000 I2.072575 J-1.067555
G02 X122.744109 Y27.711798 Z-0.125000 I2.028230 J-1.114700
G02 X122.776319 Y27.765141 Z-0.125000 I1.974003 J-1.155579
G02 X122.809974 Y27.817585 Z-0.125000 I1.933267 J-1.203615
G02 X122.844951 Y27.868937 Z-0.125000 I1.888603 J-1.248779
G02 X122.881325 Y27.919310 Z-0.125000 I1.851024 J-1.298307
G02 X122.919074 Y27.968669 Z-0.125000 I1.815036 J-1.348966
G02 X122.958163 Y28.016974 Z-0.125000 I1.780163 J-1.400587
G02 X122.998687 Y28.064337 Z-0.125000 I1.751960 J-1.457951
G02 X123.040487 Y28.110577 Z-0.125000 I1.719341 J-1.512267
G02 X123.083790 Y28.155940 Z-0.125000 I1.698034 J-1.577547
G02 X123.128319 Y28.200318 Z-0.125000 I1.629848 J-1.590869
G02 X123.173726 Y28.243130 Z-0.125000 I1.562210 J-1.611409
G02 X123.220308 Y28.284659 Z-0.125000 I1.507995 J-1.644615
G02 X123.267833 Y28.324695 Z-0.125000 I1.448992 J-1.671814
G02 X123.316465 Y28.363378 Z-0.125000 I1.397689 J-1.707235
G02 X123.366113 Y28.400634 Z-0.125000 I1.346057 J-1.742037
G02 X123.416790 Y28.436476 Z-0.125000 I1.297028 J-1.780141
G02 X123.468564 Y28.470949 Z-0.125000 I1.251502 J-1.823490
G02 X123.521284 Y28.503954 Z-0.125000 I1.204108 J-1.864743
G02 X123.575186 Y28.535638 Z-0.125000 I1.163422 J-1.917586
G02 X123.629948 Y28.565812 Z-0.125000 I1.117025 J-1.962455
G02 X123.685981 Y28.594702 Z-0.125000 I1.079913 J-2.025737
G02 X123.742783 Y28.622050 Z-0.125000 I1.033877 J-2.074686
G02 X123.800947 Y28.648141 Z-0.125000 I0.999071 J-2.149354
G02 X123.859789 Y28.672668 Z-0.125000 I0.952759 J-2.202849
G02 X123.920085 Y28.695955 Z-0.125000 I0.918990 J-2.289850
G02 X123.980967 Y28.717666 Z-0.125000 I0.871768 J-2.348356
G02 X124.043395 Y28.738144 Z-0.125000 I0.837767 J-2.448636
G02 X124.106319 Y28.757044 Z-0.125000 I0.789001 J-2.512618
G02 X124.170876 Y28.774707 Z-0.125000 I0.753497 J-2.627123
G02 X124.235844 Y28.790800 Z-0.125000 I0.702553 J-2.697047
G02 X124.302529 Y28.805646 Z-0.125000 I0.664277 J-2.826722
G02 X124.369543 Y28.818935 Z-0.125000 I0.610523 J-2.903054
G02 X124.438354 Y28.830959 Z-0.125000 I0.568203 J-3.048845
G02 X124.507416 Y28.841448 Z-0.125000 I0.511006 J-3.132052
G02 X124.578350 Y28.850647 Z-0.125000 I0.463370 J-3.294902
G02 X124.649464 Y28.858338 Z-0.125000 I0.402098 J-3.385451
G02 X124.722518 Y28.864710 Z-0.125000 I0.347875 J-3.566304
G02 X124.795687 Y28.869604 Z-0.125000 I0.281897 J-3.664663
G02 X124.870858 Y28.873147 Z-0.125000 I0.219815 J-3.864464
G02 X124.946085 Y28.875247 Z-0.125000 I0.148499 J-3.971101
G02 X125.023370 Y28.875960 Z-0.125000 I0.077285 J-4.190791
G02 X125.100440 Y28.875248 Z-0.125000 I-0.000000 J-4.168730
G02 X125.175477 Y28.873147 Z-0.125000 I-0.073110 J-3.953861
G02 X125.250460 Y28.869605 Z-0.125000 I-0.144344 J-3.850308
G02 X125.323467 Y28.864710 Z-0.125000 I-0.208392 J-3.654993
G02 X125.396359 Y28.858338 Z-0.125000 I-0.274423 J-3.559608
G02 X125.467338 Y28.850647 Z-0.125000 I-0.330668 J-3.382926
G02 X125.538137 Y28.841448 Z-0.125000 I-0.392129 J-3.295245
G02 X125.607092 Y28.830959 Z-0.125000 I-0.441828 J-3.136275
G02 X125.675795 Y28.818936 Z-0.125000 I-0.499353 J-3.055835
G02 X125.742728 Y28.805646 Z-0.125000 I-0.543765 J-2.913656
G02 X125.809332 Y28.790802 Z-0.125000 I-0.597986 J-2.839993
G02 X125.874245 Y28.774707 Z-0.125000 I-0.638369 J-2.713685
G02 X125.938749 Y28.757046 Z-0.125000 I-0.689920 J-2.646335
G02 X126.001645 Y28.738144 Z-0.125000 I-0.727533 J-2.534977
G02 X126.064046 Y28.717668 Z-0.125000 I-0.777047 J-2.473476
G02 X126.124927 Y28.695955 Z-0.125000 I-0.813148 J-2.376149
G02 X126.185224 Y28.672671 Z-0.125000 I-0.861257 J-2.320031
G02 X126.244092 Y28.648141 Z-0.125000 I-0.897106 J-2.235817
G02 X126.302284 Y28.622053 Z-0.125000 I-0.944443 J-2.184615
G02 X126.359138 Y28.594702 Z-0.125000 I-0.981300 J-2.112595
G02 X126.415226 Y28.565815 Z-0.125000 I-1.028496 J-2.065845
G02 X126.470066 Y28.535638 Z-0.125000 I-1.067622 J-2.005101
G02 X126.524051 Y28.503957 Z-0.125000 I-1.115307 J-1.962334
G02 X126.576877 Y28.470949 Z-0.125000 I-1.157963 J-1.911949
G02 X126.628760 Y28.436479 Z-0.125000 I-1.206767 J-1.872700
G02 X126.679569 Y28.400634 Z-0.125000 I-1.254217 J-1.831755
G02 X126.729355 Y28.363381 Z-0.125000 I-1.304769 J-1.795556
G02 X126.778144 Y28.324695 Z-0.125000 I-1.358275 J-1.763133
G02 X126.825834 Y28.284661 Z-0.125000 I-1.411203 J-1.729519
G02 X126.872601 Y28.243130 Z-0.125000 I-1.472030 J-1.704699
G02 X126.918200 Y28.200320 Z-0.125000 I-1.527961 J-1.673203
G02 X126.962940 Y28.155940 Z-0.125000 I-1.597374 J-1.655067
G02 X127.006458 Y28.110574 Z-0.125000 I-1.654375 J-1.630525
G02 X127.048461 Y28.064337 Z-0.125000 I-1.676512 J-1.565198
G02 X127.089186 Y28.016970 Z-0.125000 I-1.710160 J-1.511576
G02 X127.128465 Y27.968669 Z-0.125000 I-1.739087 J-1.454343
G02 X127.166401 Y27.919307 Z-0.125000 I-1.775028 J-1.403403
G02 X127.202951 Y27.868937 Z-0.125000 I-1.811644 J-1.353055
G02 X127.238102 Y27.817582 Z-0.125000 I-1.850323 J-1.304186
G02 X127.271920 Y27.765141 Z-0.125000 I-1.895527 J-1.259510
G02 X127.304290 Y27.711795 Z-0.125000 I-1.937386 J-1.212101
G02 X127.335371 Y27.657281 Z-0.125000 I-1.992077 J-1.171885
G02 X127.364966 Y27.601946 Z-0.125000 I-2.037561 J-1.125325
G02 X127.393305 Y27.545357 Z-0.125000 I-2.102638 J-1.088357
G02 X127.420129 Y27.488033 Z-0.125000 I-2.152189 J-1.042037
G02 X127.445721 Y27.429368 Z-0.125000 I-2.228553 J-1.007102
G02 X127.469779 Y27.370056 Z-0.125000 I-2.282613 J-0.960414
G02 X127.492620 Y27.309315 Z-0.125000 I-2.371164 J-0.926297
G02 X127.513917 Y27.248015 Z-0.125000 I-2.430175 J-0.878633
G02 X127.534001 Y27.185198 Z-0.125000 I-2.531814 J-0.844119
G02 X127.552541 Y27.121907 Z-0.125000 I-2.596219 J-0.794872
G02 X127.569865 Y27.057017 Z-0.125000 I-2.711843 J-0.758744
G02 X127.585652 Y26.991734 Z-0.125000 I-2.782086 J-0.707308
G02 X127.600211 Y26.924771 Z-0.125000 I-2.912596 J-0.668350
G02 X127.613248 Y26.857494 Z-0.125000 I-2.989118 J-0.614118
G02 X127.625040 Y26.788461 Z-0.125000 I-3.135412 J-0.571114
G02 X127.635329 Y26.719188 Z-0.125000 I-3.218660 J-0.513480
G02 X127.644351 Y26.648087 Z-0.125000 I-3.381636 J-0.465212
G02 X127.651896 Y26.576814 Z-0.125000 I-3.472052 J-0.403572
G02 X127.658145 Y26.503649 Z-0.125000 I-3.652608 J-0.348822
G02 X127.662947 Y26.430374 Z-0.125000 I-3.750638 J-0.282571
G02 X127.666421 Y26.355147 Z-0.125000 I-3.949670 J-0.220121
G02 X127.668481 Y26.279867 Z-0.125000 I-4.055760 J-0.148655
G02 X127.669180 Y26.202580 Z-0.125000 I-4.274165 J-0.077287
G01 X127.669180 Y26.202580 Z-0.125000
G00 Z5.000000

(End cutting path id: text8-0-1)


(Start cutting path id: text8-0-1)
(Change tool to Default tool)

G00 Z5.000000
G00 X125.915640 Y24.903790

G01 Z-0.125000 F100.0(Penetrate)
G03 X125.927599 Y24.918511 Z-0.125000 I-1.096503 J0.903011 F400.000000
G03 X125.939366 Y24.933397 Z-0.125000 I-1.109387 J0.889031
G03 X125.950933 Y24.948438 Z-0.125000 I-1.122022 J0.874822
G03 X125.962311 Y24.963649 Z-0.125000 I-1.136150 J0.861723
G03 X125.973486 Y24.979011 Z-0.125000 I-1.149231 J0.847768
G03 X125.984476 Y24.994548 Z-0.125000 I-1.164673 J0.835467
G03 X125.995259 Y25.010229 Z-0.125000 I-1.178235 J0.821725
G03 X126.005860 Y25.026092 Z-0.125000 I-1.195059 J0.810138
G03 X126.016251 Y25.042093 Z-0.125000 I-1.209137 J0.796566
G03 X126.026463 Y25.058282 Z-0.125000 I-1.227411 J0.785611
G03 X126.036463 Y25.074603 Z-0.125000 I-1.242040 J0.772167
G03 X126.046286 Y25.091118 Z-0.125000 I-1.261835 J0.761759
G03 X126.055894 Y25.107759 Z-0.125000 I-1.277048 J0.748403
G03 X126.065328 Y25.124600 Z-0.125000 I-1.298432 J0.738460
G03 X126.074545 Y25.141561 Z-0.125000 I-1.314264 J0.725149
G03 X126.083590 Y25.158728 Z-0.125000 I-1.337307 J0.715586
G03 X126.092415 Y25.176008 Z-0.125000 I-1.353792 J0.702279
G03 X126.101071 Y25.193501 Z-0.125000 I-1.378563 J0.693014
G03 X126.109505 Y25.211102 Z-0.125000 I-1.395735 J0.679669
G03 X126.117771 Y25.228920 Z-0.125000 I-1.422303 J0.670618
G03 X126.125815 Y25.246841 Z-0.125000 I-1.440197 J0.657193
G03 X126.133691 Y25.264986 Z-0.125000 I-1.468631 J0.648273
G03 X126.141344 Y25.283226 Z-0.125000 I-1.487281 J0.634726
G03 X126.148830 Y25.301697 Z-0.125000 I-1.517651 J0.625854
G03 X126.156092 Y25.320257 Z-0.125000 I-1.537091 J0.612144
G03 X126.163188 Y25.339054 Z-0.125000 I-1.569465 J0.603236
G03 X126.170060 Y25.357934 Z-0.125000 I-1.589730 J0.589321
G03 X126.176766 Y25.377057 Z-0.125000 I-1.624178 J0.580293
G03 X126.183248 Y25.396257 Z-0.125000 I-1.645302 J0.566131
G03 X126.189563 Y25.415705 Z-0.125000 I-1.681893 J0.556901
G03 X126.195655 Y25.435225 Z-0.125000 I-1.703911 J0.542451
G03 X126.201580 Y25.455000 Z-0.125000 I-1.742713 J0.532934
G03 X126.207280 Y25.475056 Z-0.125000 I-1.794281 J0.520812
G03 X126.212842 Y25.495481 Z-0.125000 I-1.855206 J0.516119
G03 X126.218180 Y25.515964 Z-0.125000 I-1.889340 J0.503306
G03 X126.223377 Y25.536822 Z-0.125000 I-1.953762 J0.497879
G03 X126.228353 Y25.557734 Z-0.125000 I-1.989490 J0.484455
G03 X126.233185 Y25.579025 Z-0.125000 I-2.057520 J0.478198
G03 X126.237799 Y25.600365 Z-0.125000 I-2.094896 J0.464117
G03 X126.242267 Y25.622089 Z-0.125000 I-2.166647 J0.456936
G03 X126.246519 Y25.643857 Z-0.125000 I-2.205727 J0.442150
G03 X126.250623 Y25.666015 Z-0.125000 I-2.281310 J0.433951
G03 X126.254513 Y25.688211 Z-0.125000 I-2.322151 J0.418413
G03 X126.258252 Y25.710801 Z-0.125000 I-2.401679 J0.409101
G03 X126.261780 Y25.733425 Z-0.125000 I-2.444336 J0.392764
G03 X126.265154 Y25.756449 Z-0.125000 I-2.527919 J0.382245
G03 X126.268320 Y25.779502 Z-0.125000 I-2.572449 J0.365062
G03 X126.271330 Y25.802958 Z-0.125000 I-2.660200 J0.353241
G03 X126.274134 Y25.826439 Z-0.125000 I-2.706657 J0.335165
G03 X126.276779 Y25.850327 Z-0.125000 I-2.798688 J0.321948
G03 X126.279222 Y25.874238 Z-0.125000 I-2.847130 J0.302932
G03 X126.281502 Y25.898559 Z-0.125000 I-2.943552 J0.288224
G03 X126.283583 Y25.922898 Z-0.125000 I-2.994033 J0.268221
G03 X126.285498 Y25.947651 Z-0.125000 I-3.094959 J0.251928
G03 X126.287217 Y25.972419 Z-0.125000 I-3.147536 J0.230891
G03 X126.288768 Y25.997604 Z-0.125000 I-3.253077 J0.212919
G03 X126.290125 Y26.022801 Z-0.125000 I-3.307805 J0.190801
G03 X126.291310 Y26.048419 Z-0.125000 I-3.418073 J0.171054
G03 X126.292306 Y26.074045 Z-0.125000 I-3.475009 J0.147808
G03 X126.293127 Y26.100095 Z-0.125000 I-3.590116 J0.126193
G03 X126.293760 Y26.126150 Z-0.125000 I-3.649316 J0.101771
G03 X126.294217 Y26.152632 Z-0.125000 I-3.769373 J0.078193
G03 X126.294488 Y26.179116 Z-0.125000 I-3.830892 J0.052549
G03 X126.294580 Y26.206030 Z-0.125000 I-3.956011 J0.026914
G03 X126.294475 Y26.234882 Z-0.125000 I-3.953624 J0.000000
G03 X126.294163 Y26.263197 Z-0.125000 I-3.808203 J-0.027791
G03 X126.293638 Y26.291509 Z-0.125000 I-3.737005 J-0.055062
G03 X126.292911 Y26.319287 Z-0.125000 I-3.598225 J-0.080289
G03 X126.291968 Y26.347059 Z-0.125000 I-3.530100 J-0.106042
G03 X126.290825 Y26.374300 Z-0.125000 I-3.397793 J-0.128833
G03 X126.289462 Y26.401532 Z-0.125000 I-3.332658 J-0.153135
G03 X126.287905 Y26.428238 Z-0.125000 I-3.206659 J-0.173618
G03 X126.286123 Y26.454929 Z-0.125000 I-3.144431 J-0.196532
G03 X126.284150 Y26.481098 Z-0.125000 I-3.024574 J-0.214836
G03 X126.281949 Y26.507249 Z-0.125000 I-2.965170 J-0.236426
G03 X126.279561 Y26.532882 Z-0.125000 I-2.851290 J-0.252680
G03 X126.276941 Y26.558492 Z-0.125000 I-2.794627 J-0.273011
G03 X126.274138 Y26.583589 Z-0.125000 I-2.686556 J-0.287342
G03 X126.271098 Y26.608659 Z-0.125000 I-2.632551 J-0.306479
G03 X126.267880 Y26.633220 Z-0.125000 I-2.530125 J-0.319017
G03 X126.264421 Y26.657749 Z-0.125000 I-2.478695 J-0.337023
G03 X126.260788 Y26.681774 Z-0.125000 I-2.381747 J-0.347896
G03 X126.256910 Y26.705762 Z-0.125000 I-2.332809 J-0.364836
G03 X126.252861 Y26.729252 Z-0.125000 I-2.241174 J-0.374172
G03 X126.248564 Y26.752698 Z-0.125000 I-2.194645 J-0.390111
G03 X126.244100 Y26.775653 Z-0.125000 I-2.108157 J-0.398039
G03 X126.239384 Y26.798557 Z-0.125000 I-2.063954 J-0.413041
G03 X126.234505 Y26.820978 Z-0.125000 I-1.982446 J-0.419689
G03 X126.229370 Y26.843340 Z-0.125000 I-1.940486 J-0.433819
G03 X126.224075 Y26.865225 Z-0.125000 I-1.863794 J-0.439315
G03 X126.218521 Y26.887046 Z-0.125000 I-1.823994 J-0.452637
G03 X126.212811 Y26.908397 Z-0.125000 I-1.751950 J-0.457110
G03 X126.206839 Y26.929675 Z-0.125000 I-1.714227 J-0.469689
G03 X126.200713 Y26.950492 Z-0.125000 I-1.646667 J-0.473267
G03 X126.194322 Y26.971228 Z-0.125000 I-1.610938 J-0.485168
G03 X126.187780 Y26.991510 Z-0.125000 I-1.547695 J-0.487979
G03 X126.181011 Y27.011717 Z-0.125000 I-2.167124 J-0.714723
G03 X126.174174 Y27.031504 Z-0.125000 I-2.084747 J-0.709210
G03 X126.167148 Y27.051225 Z-0.125000 I-2.041267 J-0.716141
G03 X126.160057 Y27.070530 Z-0.125000 I-1.963249 J-0.710181
G03 X126.152775 Y27.089763 Z-0.125000 I-1.921788 J-0.716669
G03 X126.145429 Y27.108587 Z-0.125000 I-1.847992 J-0.710336
G03 X126.137890 Y27.127333 Z-0.125000 I-1.808481 J-0.716417
G03 X126.130289 Y27.145674 Z-0.125000 I-1.738769 J-0.709784
G03 X126.122494 Y27.163934 Z-0.125000 I-1.701139 J-0.715495
G03 X126.114638 Y27.181793 Z-0.125000 I-1.635372 J-0.708634
G03 X126.106586 Y27.199565 Z-0.125000 I-1.599553 J-0.714011
G03 X126.098476 Y27.216944 Z-0.125000 I-1.537593 J-0.706996
G03 X126.090168 Y27.234228 Z-0.125000 I-1.503517 J-0.712077
G03 X126.081802 Y27.251125 Z-0.125000 I-1.445226 J-0.704980
G03 X126.073238 Y27.267922 Z-0.125000 I-1.412822 J-0.709800
G03 X126.064617 Y27.284338 Z-0.125000 I-1.358063 J-0.702694
G03 X126.055797 Y27.300647 Z-0.125000 I-1.327263 J-0.707290
G03 X126.046921 Y27.316581 Z-0.125000 I-1.275896 J-0.700249
G03 X126.037845 Y27.332402 Z-0.125000 I-1.246630 J-0.704658
G03 X126.028714 Y27.347856 Z-0.125000 I-1.198518 J-0.697753
G03 X126.019382 Y27.363189 Z-0.125000 I-1.170717 J-0.702012
G03 X126.009995 Y27.378162 Z-0.125000 I-1.125721 J-0.695317
G03 X126.000407 Y27.393007 Z-0.125000 I-1.099317 J-0.699462
G03 X125.990764 Y27.407499 Z-0.125000 I-1.057299 J-0.693049
G03 X125.980922 Y27.421856 Z-0.125000 I-1.032221 J-0.697117
G03 X125.971023 Y27.435868 Z-0.125000 I-0.993044 J-0.691060
G03 X125.960925 Y27.449736 Z-0.125000 I-0.969223 J-0.695088
G03 X125.950770 Y27.463267 Z-0.125000 I-0.932748 J-0.689459
G03 X125.940417 Y27.476648 Z-0.125000 I-0.910115 J-0.693482
G03 X125.930006 Y27.489698 Z-0.125000 I-0.876204 J-0.688354
G03 X125.919398 Y27.502590 Z-0.125000 I-0.854690 J-0.692410
G03 X125.908730 Y27.515160 Z-0.125000 I-0.823204 J-0.687857
G03 X125.897663 Y27.528004 Z-0.125000 I-0.964261 J-0.819645
G03 X125.886552 Y27.540553 Z-0.125000 I-0.931638 J-0.813663
G03 X125.875271 Y27.552950 Z-0.125000 I-0.910332 J-0.817062
G03 X125.863944 Y27.565059 Z-0.125000 I-0.879808 J-0.811705
G03 X125.852449 Y27.577008 Z-0.125000 I-0.859414 J-0.815213
G03 X125.840905 Y27.588676 Z-0.125000 I-0.830875 J-0.810536
G03 X125.829196 Y27.600178 Z-0.125000 I-0.811336 J-0.814181
G03 X125.817435 Y27.611405 Z-0.125000 I-0.784670 J-0.810238
G03 X125.805513 Y27.622460 Z-0.125000 I-0.765929 J-0.814047
G03 X125.793535 Y27.633246 Z-0.125000 I-0.741023 J-0.810894
G03 X125.781399 Y27.643854 Z-0.125000 I-0.723024 J-0.814894
G03 X125.769204 Y27.654199 Z-0.125000 I-0.699765 J-0.812585
G03 X125.756855 Y27.664360 Z-0.125000 I-0.682452 J-0.816804
G03 X125.744442 Y27.674263 Z-0.125000 I-0.660727 J-0.815395
G03 X125.731880 Y27.683978 Z-0.125000 I-0.644042 J-0.819859
G03 X125.719250 Y27.693440 Z-0.125000 I-0.623739 J-0.819404
G03 X125.706476 Y27.702707 Z-0.125000 I-0.607625 J-0.824142
G03 X125.693627 Y27.711728 Z-0.125000 I-0.588632 J-0.824696
G03 X125.680640 Y27.720549 Z-0.125000 I-0.573032 J-0.829734
G03 X125.667574 Y27.729129 Z-0.125000 I-0.555235 J-0.831352
G03 X125.654374 Y27.737503 Z-0.125000 I-0.540094 J-0.836718
G03 X125.641090 Y27.745641 Z-0.125000 I-0.523380 J-0.839454
G03 X125.627678 Y27.753569 Z-0.125000 I-0.508640 J-0.845175
G03 X125.614175 Y27.761265 Z-0.125000 I-0.492897 J-0.849086
G03 X125.600552 Y27.768746 Z-0.125000 I-0.478502 J-0.855189
G03 X125.586830 Y27.776001 Z-0.125000 I-0.463617 J-0.860329
G03 X125.572994 Y27.783036 Z-0.125000 I-0.449510 J-0.866841
G03 X125.559054 Y27.789849 Z-0.125000 I-0.435370 J-0.873264
G03 X125.545007 Y27.796439 Z-0.125000 I-0.421494 J-0.880213
G03 X125.530847 Y27.802808 Z-0.125000 I-0.407986 J-0.887975
G03 X125.516588 Y27.808953 Z-0.125000 I-0.394286 J-0.895388
G03 X125.502210 Y27.814880 Z-0.125000 I-0.381297 J-0.904544
G03 X125.487966 Y27.820607 Z-0.125000 I-0.485570 J-1.187139
G03 X125.473708 Y27.826142 Z-0.125000 I-0.467749 J-1.183814
G03 X125.459385 Y27.831504 Z-0.125000 I-0.451894 J-1.185161
G03 X125.445044 Y27.836677 Z-0.125000 I-0.434743 J-1.182830
G03 X125.430642 Y27.841675 Z-0.125000 I-0.419163 J-1.184498
G03 X125.416219 Y27.846485 Z-0.125000 I-0.402610 J-1.183177
G03 X125.401739 Y27.851120 Z-0.125000 I-0.387268 J-1.185174
G03 X125.387233 Y27.855568 Z-0.125000 I-0.371243 J-1.184879
G03 X125.372673 Y27.859838 Z-0.125000 I-0.356102 J-1.187212
G03 X125.358084 Y27.863923 Z-0.125000 I-0.340533 J-1.187959
G03 X125.343446 Y27.867829 Z-0.125000 I-0.325560 J-1.190638
G03 X125.328774 Y27.871552 Z-0.125000 I-0.310375 J-1.192443
G03 X125.314058 Y27.875094 Z-0.125000 I-0.295532 J-1.195473
G03 X125.299303 Y27.878454 Z-0.125000 I-0.280660 J-1.198352
G03 X125.284508 Y27.881633 Z-0.125000 I-0.265912 J-1.201743
G03 X125.269670 Y27.884630 Z-0.125000 I-0.251281 J-1.205712
G03 X125.254796 Y27.887445 Z-0.125000 I-0.236593 J-1.209471
G03 X125.239875 Y27.890079 Z-0.125000 I-0.222132 J-1.214546
G03 X125.224923 Y27.892530 Z-0.125000 I-0.207467 J-1.218681
G03 X125.209919 Y27.894802 Z-0.125000 I-0.193105 J-1.224878
G03 X125.194889 Y27.896890 Z-0.125000 I-0.178427 J-1.229397
G03 X125.179802 Y27.898798 Z-0.125000 I-0.164093 J-1.236732
G03 X125.164693 Y27.900522 Z-0.125000 I-0.149367 J-1.241642
G03 X125.149522 Y27.902068 Z-0.125000 I-0.134988 J-1.250131
G03 X125.134335 Y27.903429 Z-0.125000 I-0.120179 J-1.255441
G03 X125.119082 Y27.904610 Z-0.125000 I-0.105684 J-1.265100
G03 X125.103815 Y27.905609 Z-0.125000 I-0.090755 J-1.270817
G03 X125.088479 Y27.906427 Z-0.125000 I-0.076073 J-1.281662
G03 X125.073135 Y27.907062 Z-0.125000 I-0.060989 J-1.287794
G03 X125.057715 Y27.907517 Z-0.125000 I-0.046048 J-1.299841
G03 X125.042292 Y27.907789 Z-0.125000 I-0.030773 J-1.306397
G03 X125.026790 Y27.907880 Z-0.125000 I-0.015502 J-1.319661
G03 X125.011073 Y27.907792 Z-0.125000 I0.000000 J-1.406933
G03 X124.995461 Y27.907530 Z-0.125000 I0.015510 J-1.388337
G03 X124.979854 Y27.907092 Z-0.125000 I0.030924 J-1.379232
G03 X124.964348 Y27.906480 Z-0.125000 I0.045962 J-1.361929
G03 X124.948850 Y27.905691 Z-0.125000 I0.061105 J-1.353291
G03 X124.933450 Y27.904730 Z-0.125000 I0.075740 J-1.337261
G03 X124.918062 Y27.903591 Z-0.125000 I0.090648 J-1.329080
G03 X124.902767 Y27.902280 Z-0.125000 I0.104946 J-1.314301
G03 X124.887489 Y27.900791 Z-0.125000 I0.119653 J-1.306566
G03 X124.872300 Y27.899130 Z-0.125000 I0.133684 J-1.293018
G03 X124.857132 Y27.897291 Z-0.125000 I0.148223 J-1.285718
G03 X124.842048 Y27.895280 Z-0.125000 I0.162056 J-1.273380
G03 X124.826990 Y27.893090 Z-0.125000 I0.176462 J-1.266505
G03 X124.812011 Y27.890730 Z-0.125000 I0.190163 J-1.255356
G03 X124.797063 Y27.888191 Z-0.125000 I0.204470 J-1.248895
G03 X124.782190 Y27.885480 Z-0.125000 I0.218108 J-1.238914
G03 X124.767351 Y27.882591 Z-0.125000 I0.232350 J-1.232857
G03 X124.752584 Y27.879530 Z-0.125000 I0.245994 J-1.224023
G03 X124.737855 Y27.876291 Z-0.125000 I0.260206 J-1.218359
G03 X124.723193 Y27.872880 Z-0.125000 I0.273924 J-1.210651
G03 X124.708574 Y27.869291 Z-0.125000 I0.288138 J-1.205370
G03 X124.694018 Y27.865530 Z-0.125000 I0.301998 J-1.198767
G03 X124.679508 Y27.861592 Z-0.125000 I0.316250 J-1.193858
G03 X124.665057 Y27.857480 Z-0.125000 I0.330320 J-1.188340
G03 X124.650658 Y27.853192 Z-0.125000 I0.344644 J-1.183792
G03 X124.636313 Y27.848730 Z-0.125000 I0.358993 J-1.179337
G03 X124.622023 Y27.844093 Z-0.125000 I0.373423 J-1.175140
G03 X124.607783 Y27.839280 Z-0.125000 I0.388118 J-1.171728
G03 X124.593603 Y27.834294 Z-0.125000 I0.402688 J-1.167871
G03 X124.579469 Y27.829130 Z-0.125000 I0.417798 J-1.165480
G03 X124.565399 Y27.823795 Z-0.125000 I0.432541 J-1.161953
G03 X124.551370 Y27.818280 Z-0.125000 I0.448135 J-1.160563
G03 X124.537636 Y27.812571 Z-0.125000 I0.351797 J-0.865673
G03 X124.523945 Y27.806623 Z-0.125000 I0.368243 J-0.866344
G03 X124.510349 Y27.800458 Z-0.125000 I0.383539 J-0.864010
G03 X124.496788 Y27.794051 Z-0.125000 I0.400870 J-0.865913
G03 X124.483330 Y27.787431 Z-0.125000 I0.416575 J-0.863954
G03 X124.469901 Y27.780564 Z-0.125000 I0.434909 J-0.867054
G03 X124.456580 Y27.773490 Z-0.125000 I0.451083 J-0.865453
G03 X124.443283 Y27.766163 Z-0.125000 I0.470537 J-0.869715
G03 X124.430099 Y27.758634 Z-0.125000 I0.487238 J-0.868455
G03 X124.416933 Y27.750847 Z-0.125000 I0.507931 J-0.873844
G03 X124.403887 Y27.742863 Z-0.125000 I0.525217 J-0.872907
G03 X124.390853 Y27.734617 Z-0.125000 I0.547267 J-0.879390
G03 X124.377943 Y27.726178 Z-0.125000 I0.565198 J-0.878759
G03 X124.365042 Y27.717472 Z-0.125000 I0.588723 J-0.886300
G03 X124.352269 Y27.708579 Z-0.125000 I0.607357 J-0.885957
G03 X124.339500 Y27.699413 Z-0.125000 I0.632475 J-0.894522
G03 X124.326863 Y27.690065 Z-0.125000 I0.651871 J-0.894450
G03 X124.314227 Y27.680438 Z-0.125000 I0.678699 J-0.904004
G03 X124.301727 Y27.670636 Z-0.125000 I0.698916 J-0.904185
G03 X124.289223 Y27.660550 Z-0.125000 I0.727573 J-0.914695
G03 X124.276859 Y27.650293 Z-0.125000 I0.748670 J-0.915112
G03 X124.264488 Y27.639746 Z-0.125000 I0.779274 J-0.926542
G03 X124.252260 Y27.629035 Z-0.125000 I0.801308 J-0.927177
G03 X124.240023 Y27.618028 Z-0.125000 I0.833977 J-0.939492
G03 X124.227930 Y27.606863 Z-0.125000 I0.857008 J-0.940329
G03 X124.215826 Y27.595396 Z-0.125000 I0.891860 J-0.953495
G03 X124.203868 Y27.583776 Z-0.125000 I0.915947 J-0.954516
G03 X124.191898 Y27.571848 Z-0.125000 I0.953100 J-0.968499
G03 X124.180076 Y27.559774 Z-0.125000 I0.978301 J-0.969685
G03 X124.168240 Y27.547386 Z-0.125000 I1.017873 J-0.984450
G03 X124.156553 Y27.534858 Z-0.125000 I1.044247 J-0.985786
G03 X124.144850 Y27.522010 Z-0.125000 I1.086356 J-1.001297
G03 X124.134191 Y27.509860 Z-0.125000 I0.694437 J-0.620001
G03 X124.123561 Y27.497315 Z-0.125000 I0.729742 J-0.629098
G03 X124.113145 Y27.484592 Z-0.125000 I0.753530 J-0.627510
G03 X124.102756 Y27.471463 Z-0.125000 I0.791969 J-0.637339
G03 X124.092583 Y27.458166 Z-0.125000 I0.817255 J-0.635799
G03 X124.082436 Y27.444454 Z-0.125000 I0.859029 J-0.646277
G03 X124.072506 Y27.430583 Z-0.125000 I0.885912 J-0.644744
G03 X124.062601 Y27.416287 Z-0.125000 I0.931220 J-0.655788
G03 X124.052913 Y27.401842 Z-0.125000 I0.959799 J-0.654220
G03 X124.043249 Y27.386963 Z-0.125000 I1.008841 J-0.665746
G03 X124.033803 Y27.371944 Z-0.125000 I1.039215 J-0.664101
G03 X124.024383 Y27.356482 Z-0.125000 I1.092189 J-0.676025
G03 X124.015178 Y27.340889 Z-0.125000 I1.124459 J-0.674263
G03 X124.006000 Y27.324843 Z-0.125000 I1.181565 J-0.686502
G03 X123.997038 Y27.308676 Z-0.125000 I1.215828 J-0.684581
G03 X123.988102 Y27.292048 Z-0.125000 I1.277266 J-0.697051
G03 X123.979381 Y27.275306 Z-0.125000 I1.313622 J-0.694929
G03 X123.970689 Y27.258094 Z-0.125000 I1.379591 J-0.707547
G03 X123.962209 Y27.240778 Z-0.125000 I1.418140 J-0.705183
G03 X123.953760 Y27.222984 Z-0.125000 I1.488838 J-0.717866
G03 X123.945521 Y27.205092 Z-0.125000 I1.529679 J-0.715217
G03 X123.937316 Y27.186717 Z-0.125000 I1.605306 J-0.727881
G03 X123.929318 Y27.168249 Z-0.125000 I1.648539 J-0.724908
G03 X123.921356 Y27.149292 Z-0.125000 I1.729294 J-0.737468
G03 X123.913599 Y27.130249 Z-0.125000 I1.775018 J-0.734128
G03 X123.905880 Y27.110710 Z-0.125000 I1.861101 J-0.746503
G03 X123.898364 Y27.091091 Z-0.125000 I1.909415 J-0.742755
G03 X123.890889 Y27.070970 Z-0.125000 I2.001024 J-0.754859
G03 X123.883614 Y27.050776 Z-0.125000 I2.052028 J-0.750662
G03 X123.876382 Y27.030074 Z-0.125000 I2.149362 J-0.762413
G03 X123.869348 Y27.009304 Z-0.125000 I2.203156 J-0.757725
G03 X123.862360 Y26.988020 Z-0.125000 I2.306415 J-0.769039
G03 X123.855810 Y26.966881 Z-0.125000 I1.781578 J-0.563570
G03 X123.849427 Y26.945387 Z-0.125000 I1.835453 J-0.556787
G03 X123.843294 Y26.923820 Z-0.125000 I1.866404 J-0.542433
G03 X123.837329 Y26.901893 Z-0.125000 I1.923497 J-0.535042
G03 X123.831612 Y26.879899 Z-0.125000 I1.955873 J-0.520138
G03 X123.826065 Y26.857537 Z-0.125000 I2.016290 J-0.512035
G03 X123.820764 Y26.835115 Z-0.125000 I2.050144 J-0.496529
G03 X123.815635 Y26.812320 Z-0.125000 I2.113991 J-0.487611
G03 X123.810750 Y26.789471 Z-0.125000 I2.149377 J-0.471453
G03 X123.806040 Y26.766242 Z-0.125000 I2.216760 J-0.461618
G03 X123.801571 Y26.742965 Z-0.125000 I2.253730 J-0.444755
G03 X123.797279 Y26.719303 Z-0.125000 I2.324755 J-0.433901
G03 X123.793226 Y26.695598 Z-0.125000 I2.363362 J-0.416283
G03 X123.789352 Y26.671502 Z-0.125000 I2.438136 J-0.404305
G03 X123.785715 Y26.647369 Z-0.125000 I2.478433 J-0.385880
G03 X123.782260 Y26.622840 Z-0.125000 I2.557061 J-0.372677
G03 X123.779039 Y26.598279 Z-0.125000 I2.599101 J-0.353394
G03 X123.776002 Y26.573317 Z-0.125000 I2.681690 J-0.338862
G03 X123.773196 Y26.548328 Z-0.125000 I2.725526 J-0.318670
G03 X123.770579 Y26.522933 Z-0.125000 I2.812181 J-0.302707
G03 X123.768189 Y26.497515 Z-0.125000 I2.857867 J-0.281555
G03 X123.765990 Y26.471687 Z-0.125000 I2.948694 J-0.264057
G03 X123.764015 Y26.445841 Z-0.125000 I2.996282 J-0.241893
G03 X123.762235 Y26.419580 Z-0.125000 I3.091388 J-0.222758
G03 X123.760676 Y26.393305 Z-0.125000 I3.140931 J-0.199531
G03 X123.759315 Y26.366612 Z-0.125000 I3.240422 J-0.178655
G03 X123.758171 Y26.339908 Z-0.125000 I3.291973 J-0.154315
G03 X123.757229 Y26.312783 Z-0.125000 I3.395955 J-0.131596
G03 X123.756501 Y26.285650 Z-0.125000 I3.449567 J-0.106090
G03 X123.755977 Y26.258092 Z-0.125000 I3.558146 J-0.081426
G03 X123.755665 Y26.230530 Z-0.125000 I3.613872 J-0.054703
G03 X123.755560 Y26.202540 Z-0.125000 I3.727154 J-0.027990
G03 X123.755662 Y26.173904 Z-0.125000 I4.025435 J0.000000
G03 X123.755964 Y26.145791 Z-0.125000 I3.879945 J0.027602
G03 X123.756471 Y26.117681 Z-0.125000 I3.808685 J0.054696
G03 X123.757175 Y26.090092 Z-0.125000 I3.669703 J0.079794
G03 X123.758088 Y26.062508 Z-0.125000 I3.601457 J0.105407
G03 X123.759193 Y26.035442 Z-0.125000 I3.468824 J0.128125
G03 X123.760512 Y26.008385 Z-0.125000 I3.403514 J0.152318
G03 X123.762019 Y25.981842 Z-0.125000 I3.277070 J0.172778
G03 X123.763744 Y25.955312 Z-0.125000 I3.214616 J0.195613
G03 X123.765653 Y25.929291 Z-0.125000 I3.094203 J0.213936
G03 X123.767783 Y25.903288 Z-0.125000 I3.034525 J0.235474
G03 X123.770094 Y25.877790 Z-0.125000 I2.919982 J0.251784
G03 X123.772629 Y25.852314 Z-0.125000 I2.863001 J0.272086
G03 X123.775342 Y25.827339 Z-0.125000 I2.754170 J0.286505
G03 X123.778283 Y25.802390 Z-0.125000 I2.699806 J0.305633
G03 X123.781397 Y25.777938 Z-0.125000 I2.596527 J0.318283
G03 X123.784744 Y25.753516 Z-0.125000 I2.544701 J0.336298
G03 X123.788261 Y25.729585 Z-0.125000 I2.446816 J0.347301
G03 X123.792013 Y25.705691 Z-0.125000 I2.397447 J0.364264
G03 X123.795931 Y25.682283 Z-0.125000 I2.304796 J0.373743
G03 X123.800089 Y25.658916 Z-0.125000 I2.257806 J0.389716
G03 X123.804409 Y25.636030 Z-0.125000 I2.170230 J0.397793
G03 X123.808973 Y25.613191 Z-0.125000 I2.125538 J0.412838
G03 X123.813694 Y25.590827 Z-0.125000 I2.042878 J0.419634
G03 X123.818663 Y25.568516 Z-0.125000 I2.000405 J0.433812
G03 X123.823787 Y25.546673 Z-0.125000 I1.922501 J0.439451
G03 X123.829161 Y25.524891 Z-0.125000 I1.882167 J0.452823
G03 X123.834687 Y25.503569 Z-0.125000 I1.808862 J0.457427
G03 X123.840467 Y25.482315 Z-0.125000 I1.770587 J0.470055
G03 X123.846395 Y25.461515 Z-0.125000 I1.701720 J0.473745
G03 X123.852580 Y25.440789 Z-0.125000 I1.665426 J0.485690
G03 X123.858910 Y25.420510 Z-0.125000 I1.600838 J0.488590
G03 X123.865677 Y25.400517 Z-0.125000 I2.164738 J0.721602
G03 X123.872516 Y25.380919 Z-0.125000 I2.087078 J0.717232
G03 X123.879540 Y25.361386 Z-0.125000 I2.045858 J0.724653
G03 X123.886633 Y25.342243 Z-0.125000 I1.972180 J0.719856
G03 X123.893913 Y25.323170 Z-0.125000 I1.932794 J0.726855
G03 X123.901261 Y25.304482 Z-0.125000 I1.862975 J0.721701
G03 X123.908798 Y25.285869 Z-0.125000 I1.825361 J0.728313
G03 X123.916401 Y25.267636 Z-0.125000 I1.759278 J0.722870
G03 X123.924194 Y25.249483 Z-0.125000 I1.723374 J0.729130
G03 X123.932052 Y25.231705 Z-0.125000 I1.660904 J0.723465
G03 X123.940101 Y25.214012 Z-0.125000 I1.626649 J0.729407
G03 X123.948214 Y25.196689 Z-0.125000 I1.567668 J0.723591
G03 X123.956520 Y25.179457 Z-0.125000 I1.535001 J0.729249
G03 X123.964888 Y25.162588 Z-0.125000 I1.479388 J0.723350
G03 X123.973449 Y25.145817 Z-0.125000 I1.448246 J0.728759
G03 X123.982072 Y25.129403 Z-0.125000 I1.395877 J0.722845
G03 X123.990890 Y25.113092 Z-0.125000 I1.366199 J0.728040
G03 X123.999769 Y25.097132 Z-0.125000 I1.316951 J0.722179
G03 X124.008842 Y25.081282 Z-0.125000 I1.288676 J0.727194
G03 X124.017976 Y25.065776 Z-0.125000 I1.242426 J0.721456
G03 X124.027305 Y25.050387 Z-0.125000 I1.215492 J0.726325
G03 X124.036695 Y25.035336 Z-0.125000 I1.172118 J0.720779
G03 X124.046280 Y25.020408 Z-0.125000 I1.146463 J0.725537
G03 X124.055926 Y25.005811 Z-0.125000 I1.105841 J0.720250
G03 X124.065765 Y24.991344 Z-0.125000 I1.081404 J0.724931
G03 X124.075667 Y24.977200 Z-0.125000 I1.043412 J0.719973
G03 X124.085762 Y24.963194 Z-0.125000 I1.020130 J0.724612
G03 X124.095920 Y24.949505 Z-0.125000 I0.984645 J0.720051
G03 X124.106270 Y24.935960 Z-0.125000 I0.962458 J0.724682
G03 X124.116684 Y24.922725 Z-0.125000 I0.929357 J0.720587
G03 X124.127289 Y24.909641 Z-0.125000 I0.908201 J0.725245
G03 X124.137960 Y24.896860 Z-0.125000 I0.877362 J0.721684
G03 X124.148810 Y24.884230 Z-0.125000 I0.947531 J0.803020
G03 X124.159721 Y24.871870 Z-0.125000 I0.918278 J0.799625
G03 X124.170799 Y24.859659 Z-0.125000 I0.898694 J0.804224
G03 X124.181940 Y24.847714 Z-0.125000 I0.871306 J0.801432
G03 X124.193245 Y24.835924 Z-0.125000 I0.852513 J0.806142
G03 X124.204616 Y24.824392 Z-0.125000 I0.826889 J0.804009
G03 X124.216149 Y24.813022 Z-0.125000 I0.808836 J0.808858
G03 X124.227750 Y24.801905 Z-0.125000 I0.784873 J0.807440
G03 X124.239509 Y24.790955 Z-0.125000 I0.767508 J0.812456
G03 X124.251341 Y24.780252 Z-0.125000 I0.745104 J0.811808
G03 X124.263327 Y24.769722 Z-0.125000 I0.728377 J0.817020
G03 X124.275390 Y24.759434 Z-0.125000 I0.707430 J0.817199
G03 X124.287603 Y24.749324 Z-0.125000 I0.691289 J0.822634
G03 X124.299896 Y24.739450 Z-0.125000 I0.671698 J0.823696
G03 X124.312335 Y24.729760 Z-0.125000 I0.656091 J0.829382
G03 X124.324860 Y24.720300 Z-0.125000 I0.637754 J0.831384
G03 X124.337525 Y24.711030 Z-0.125000 I0.622631 J0.837348
G03 X124.350281 Y24.701985 Z-0.125000 I0.605445 J0.840345
G03 X124.363173 Y24.693134 Z-0.125000 I0.590754 J0.846617
G03 X124.376160 Y24.684504 Z-0.125000 I0.574619 J0.850664
G03 X124.389277 Y24.676072 Z-0.125000 I0.560308 J0.857271
G03 X124.402496 Y24.667857 Z-0.125000 I0.545120 J0.862426
G03 X124.415839 Y24.659845 Z-0.125000 I0.531140 J0.869395
G03 X124.429290 Y24.652045 Z-0.125000 I0.516798 J0.875714
G03 X124.442859 Y24.644452 Z-0.125000 I0.503096 J0.883073
G03 X124.456541 Y24.637067 Z-0.125000 I0.489497 J0.890612
G03 X124.470335 Y24.629893 Z-0.125000 I0.476023 J0.898389
G03 X124.484250 Y24.622924 Z-0.125000 I0.463066 J0.907204
G03 X124.498269 Y24.616168 Z-0.125000 I0.449768 J0.915427
G03 X124.512416 Y24.609615 Z-0.125000 I0.437350 J0.925574
G03 X124.526661 Y24.603277 Z-0.125000 I0.424177 J0.934271
G03 X124.541040 Y24.597140 Z-0.125000 I0.412198 J0.945806
G03 X124.555502 Y24.591198 Z-0.125000 I0.490119 J1.172324
G03 X124.569987 Y24.585454 Z-0.125000 I0.472391 J1.170176
G03 X124.584541 Y24.579891 Z-0.125000 I0.456468 J1.172225
G03 X124.599122 Y24.574523 Z-0.125000 I0.439408 J1.171111
G03 X124.613768 Y24.569337 Z-0.125000 I0.423750 J1.173495
G03 X124.628445 Y24.564345 Z-0.125000 I0.407282 J1.173434
G03 X124.643183 Y24.559537 Z-0.125000 I0.391851 J1.176163
G03 X124.657957 Y24.554921 Z-0.125000 I0.375900 J1.177173
G03 X124.672787 Y24.550491 Z-0.125000 I0.360658 J1.180256
G03 X124.687657 Y24.546251 Z-0.125000 I0.345148 J1.182357
G03 X124.702579 Y24.542199 Z-0.125000 I0.330057 J1.185803
G03 X124.717545 Y24.538335 Z-0.125000 I0.314912 J1.189014
G03 X124.732559 Y24.534660 Z-0.125000 I0.299935 J1.192832
G03 X124.747622 Y24.531173 Z-0.125000 I0.285079 J1.197172
G03 X124.762728 Y24.527876 Z-0.125000 I0.270176 J1.201372
G03 X124.777887 Y24.524765 Z-0.125000 I0.255535 J1.206861
G03 X124.793085 Y24.521845 Z-0.125000 I0.240669 J1.211452
G03 X124.808341 Y24.519111 Z-0.125000 I0.226165 J1.218107
G03 X124.823630 Y24.516568 Z-0.125000 I0.211299 J1.223099
G03 X124.838983 Y24.514210 Z-0.125000 I0.196858 J1.230941
G03 X124.854364 Y24.512044 Z-0.125000 I0.181953 J1.236342
G03 X124.869813 Y24.510064 Z-0.125000 I0.167497 J1.245389
G03 X124.885286 Y24.508275 Z-0.125000 I0.152516 J1.251210
G03 X124.900832 Y24.506671 Z-0.125000 I0.137971 J1.261481
G03 X124.916396 Y24.505259 Z-0.125000 I0.122875 J1.267731
G03 X124.932039 Y24.504033 Z-0.125000 I0.108165 J1.279245
G03 X124.947695 Y24.502997 Z-0.125000 I0.092917 J1.285932
G03 X124.963434 Y24.502148 Z-0.125000 I0.077966 J1.298710
G03 X124.979182 Y24.501489 Z-0.125000 I0.062528 J1.305844
G03 X124.995018 Y24.501017 Z-0.125000 I0.047259 J1.319903
G03 X125.010858 Y24.500735 Z-0.125000 I0.031593 J1.327494
G03 X125.026790 Y24.500640 Z-0.125000 I0.015932 J1.342853
G03 X125.042723 Y24.500735 Z-0.125000 I0.000000 J1.343051
G03 X125.058563 Y24.501017 Z-0.125000 I-0.015754 J1.327873
G03 X125.074399 Y24.501489 Z-0.125000 I-0.031425 J1.320468
G03 X125.090148 Y24.502148 Z-0.125000 I-0.046781 J1.306589
G03 X125.105888 Y24.502997 Z-0.125000 I-0.062229 J1.299642
G03 X125.121545 Y24.504033 Z-0.125000 I-0.077263 J1.287044
G03 X125.137188 Y24.505259 Z-0.125000 I-0.092525 J1.280544
G03 X125.152752 Y24.506671 Z-0.125000 I-0.107313 J1.269208
G03 X125.168299 Y24.508275 Z-0.125000 I-0.122427 J1.263147
G03 X125.183772 Y24.510064 Z-0.125000 I-0.137045 J1.253055
G03 X125.199222 Y24.512044 Z-0.125000 I-0.152050 J1.247422
G03 X125.214603 Y24.514210 Z-0.125000 I-0.166574 J1.238554
G03 X125.229956 Y24.516568 Z-0.125000 I-0.181506 J1.233341
G03 X125.245246 Y24.519111 Z-0.125000 I-0.196011 J1.225679
G03 X125.260502 Y24.521845 Z-0.125000 I-0.210910 J1.220875
G03 X125.275700 Y24.524765 Z-0.125000 I-0.225472 J1.214399
G03 X125.290860 Y24.527876 Z-0.125000 I-0.240375 J1.209995
G03 X125.305966 Y24.531173 Z-0.125000 I-0.255070 J1.204688
G03 X125.321029 Y24.534660 Z-0.125000 I-0.270015 J1.200674
G03 X125.336043 Y24.538335 Z-0.125000 I-0.284918 J1.196516
G03 X125.351010 Y24.542199 Z-0.125000 I-0.299943 J1.192883
G03 X125.365932 Y24.546251 Z-0.125000 I-0.315131 J1.189855
G03 X125.380802 Y24.550491 Z-0.125000 I-0.330273 J1.186593
G03 X125.395632 Y24.554921 Z-0.125000 I-0.345821 J1.184676
G03 X125.410406 Y24.559537 Z-0.125000 I-0.361119 J1.181776
G03 X125.425145 Y24.564345 Z-0.125000 I-0.377104 J1.180952
G03 X125.439822 Y24.569337 Z-0.125000 I-0.392595 J1.178404
G03 X125.454468 Y24.574523 Z-0.125000 I-0.409091 J1.178654
G03 X125.469049 Y24.579891 Z-0.125000 I-0.424814 J1.176448
G03 X125.483603 Y24.585454 Z-0.125000 I-0.441898 J1.177753
G03 X125.498088 Y24.591198 Z-0.125000 I-0.457890 J1.175880
G03 X125.512550 Y24.597140 Z-0.125000 I-0.475638 J1.178221
G03 X125.526928 Y24.603492 Z-0.125000 I-0.413740 J0.955950
G03 X125.541174 Y24.610045 Z-0.125000 I-0.426099 J0.945122
G03 X125.555319 Y24.616813 Z-0.125000 I-0.439506 J0.936780
G03 X125.569340 Y24.623784 Z-0.125000 I-0.452339 J0.927321
G03 X125.583253 Y24.630967 Z-0.125000 I-0.465898 J0.919439
G03 X125.597048 Y24.638358 Z-0.125000 I-0.479305 J0.911292
G03 X125.610730 Y24.645957 Z-0.125000 I-0.493067 J0.903842
G03 X125.624299 Y24.653766 Z-0.125000 I-0.507150 J0.896953
G03 X125.637749 Y24.661780 Z-0.125000 I-0.521166 J0.889907
G03 X125.651093 Y24.670008 Z-0.125000 I-0.536026 J0.884219
G03 X125.664311 Y24.678438 Z-0.125000 I-0.550347 J0.877548
G03 X125.677429 Y24.687085 Z-0.125000 I-0.566086 J0.873007
G03 X125.690415 Y24.695930 Z-0.125000 I-0.580762 J0.866684
G03 X125.703307 Y24.704997 Z-0.125000 I-0.597481 J0.863234
G03 X125.716062 Y24.714256 Z-0.125000 I-0.612563 J0.857230
G03 X125.728727 Y24.723742 Z-0.125000 I-0.630365 J0.854816
G03 X125.741251 Y24.733416 Z-0.125000 I-0.645902 J0.849104
G03 X125.753691 Y24.743323 Z-0.125000 I-0.664888 J0.847669
G03 X125.765983 Y24.753411 Z-0.125000 I-0.680932 J0.842221
G03 X125.778196 Y24.763738 Z-0.125000 I-0.701204 J0.841710
G03 X125.790258 Y24.774241 Z-0.125000 I-0.717805 J0.836498
G03 X125.802244 Y24.784987 Z-0.125000 I-0.739464 J0.836856
G03 X125.814075 Y24.795904 Z-0.125000 I-0.756673 J0.831852
G03 X125.825834 Y24.807071 Z-0.125000 I-0.779821 J0.833024
G03 X125.837435 Y24.818402 Z-0.125000 I-0.797689 J0.828199
G03 X125.848967 Y24.829989 Z-0.125000 I-0.822427 J0.830128
G03 X125.860337 Y24.841735 Z-0.125000 I-0.841004 J0.825456
G03 X125.871642 Y24.853741 Z-0.125000 I-0.867434 J0.828087
G03 X125.882782 Y24.865902 Z-0.125000 I-0.886771 J0.823539
G03 X125.893860 Y24.878328 Z-0.125000 I-0.914995 J0.826817
G03 X125.904770 Y24.890903 Z-0.125000 I-0.935142 J0.822365
G03 X125.915620 Y24.903750 Z-0.125000 I-0.965262 J0.826234
G01 X125.915640 Y24.903790 Z-0.125000
G00 Z5.000000

(End cutting path id: text8-0-1)


(Start cutting path id: text8-0-1)
(Change tool to Default tool)

G00 Z5.000000
G00 X121.884910 Y27.776980

G01 Z-0.125000 F100.0(Penetrate)
G01 X120.282950 Y27.776980 Z-0.125000 F400.000000
G01 X120.282950 Y23.639450 Z-0.125000
G01 X118.960040 Y23.639450 Z-0.125000
G01 X118.960040 Y27.776980 Z-0.125000
G01 X117.358080 Y27.776980 Z-0.125000
G01 X117.358080 Y28.769160 Z-0.125000
G01 X121.884910 Y28.769160 Z-0.125000
G01 X121.884910 Y27.776980 Z-0.125000
G00 Z5.000000

(End cutting path id: text8-0-1)


(Start cutting path id: text8-0-1)
(Change tool to Default tool)

G00 Z5.000000
G00 X116.965340 Y25.251740

G01 Z-0.125000 F100.0(Penetrate)
G02 X116.964704 Y25.204388 Z-0.125000 I-1.762521 J-0.000000 F400.000000
G02 X116.962823 Y25.158105 Z-0.125000 I-1.685713 J0.045305
G02 X116.959659 Y25.111892 Z-0.125000 I-1.649106 J0.089699
G02 X116.955274 Y25.066676 Z-0.125000 I-1.583147 J0.130726
G02 X116.949586 Y25.021607 Z-0.125000 I-1.550585 J0.172802
G02 X116.942691 Y24.977455 Z-0.125000 I-1.494919 J0.210824
G02 X116.934484 Y24.933529 Z-0.125000 I-1.466120 J0.251222
G02 X116.925076 Y24.890441 Z-0.125000 I-1.420191 J0.287511
G02 X116.914353 Y24.847660 Z-0.125000 I-1.394871 J0.326871
G02 X116.902427 Y24.805633 Z-0.125000 I-1.358125 J0.362701
G02 X116.889195 Y24.763999 Z-0.125000 I-1.336000 J0.401662
G02 X116.874745 Y24.723033 Z-0.125000 I-1.307884 J0.438309
G02 X116.859010 Y24.682543 Z-0.125000 I-1.288668 J0.477509
G02 X116.842030 Y24.642639 Z-0.125000 I-1.268627 J0.516247
G02 X116.823796 Y24.603293 Z-0.125000 I-1.252036 J0.556323
G02 X116.804282 Y24.564453 Z-0.125000 I-1.239517 J0.598429
G02 X116.783555 Y24.526246 Z-0.125000 I-1.225265 J0.640017
G02 X116.761502 Y24.488473 Z-0.125000 I-1.219714 J0.686769
G02 X116.738284 Y24.451404 Z-0.125000 I-1.207518 J0.730505
G02 X116.713688 Y24.414700 Z-0.125000 I-1.208379 J0.783181
G02 X116.687983 Y24.378764 Z-0.125000 I-1.197954 J0.829699
G02 X116.660841 Y24.343134 Z-0.125000 I-1.204673 J0.889578
G02 X116.632652 Y24.308326 Z-0.125000 I-1.195735 J0.939511
G02 X116.602961 Y24.273776 Z-0.125000 I-1.207755 J1.007874
G02 X116.572289 Y24.240091 Z-0.125000 I-1.200023 J1.061855
G02 X116.540048 Y24.206624 Z-0.125000 I-1.216787 J1.139981
G02 X116.506894 Y24.174058 Z-0.125000 I-1.209979 J1.198643
G02 X116.472101 Y24.141679 Z-0.125000 I-1.230928 J1.287812
G02 X116.436466 Y24.110228 Z-0.125000 I-1.224763 J1.351788
G02 X116.399122 Y24.078941 Z-0.125000 I-1.249339 J1.453279
G02 X116.361004 Y24.048601 Z-0.125000 I-1.243538 J1.523203
G02 X116.321110 Y24.018410 Z-0.125000 I-1.271181 J1.638295
G02 X116.280697 Y23.989433 Z-0.125000 I-1.153186 J1.565614
G02 X116.239209 Y23.961256 Z-0.125000 I-1.131809 J1.621870
G02 X116.197023 Y23.934135 Z-0.125000 I-1.100985 J1.666185
G02 X116.153702 Y23.907790 Z-0.125000 I-1.082205 J1.730738
G02 X116.109743 Y23.882522 Z-0.125000 I-1.051540 J1.778490
G02 X116.064588 Y23.858011 Z-0.125000 I-1.034585 J1.852100
G02 X116.018856 Y23.834592 Z-0.125000 I-1.003693 J1.903662
G02 X115.971868 Y23.811919 Z-0.125000 I-0.987791 J1.987087
G02 X115.924362 Y23.790347 Z-0.125000 I-0.956285 J2.042835
G02 X115.875540 Y23.769514 Z-0.125000 I-0.940663 J2.136833
G02 X115.826261 Y23.749787 Z-0.125000 I-0.908157 J2.197141
G02 X115.775607 Y23.730797 Z-0.125000 I-0.892042 J2.302470
G02 X115.724552 Y23.712911 Z-0.125000 I-0.858152 J2.367712
G02 X115.672067 Y23.695767 Z-0.125000 I-0.840771 J2.485131
G02 X115.619235 Y23.679720 Z-0.125000 I-0.805111 J2.555683
G02 X115.564920 Y23.664425 Z-0.125000 I-0.785690 J2.685949
G02 X115.510310 Y23.650215 Z-0.125000 I-0.747875 J2.762186
G02 X115.454167 Y23.636770 Z-0.125000 I-0.725642 J2.906057
G02 X115.397777 Y23.624396 Z-0.125000 I-0.685288 J2.988354
G02 X115.339807 Y23.612802 Z-0.125000 I-0.659467 J3.146586
G02 X115.281635 Y23.602263 Z-0.125000 I-0.616189 J3.235320
G02 X115.221840 Y23.592522 Z-0.125000 I-0.586007 J3.408670
G02 X115.161886 Y23.583816 Z-0.125000 I-0.539421 J3.504216
G02 X115.100268 Y23.575929 Z-0.125000 I-0.504104 J3.693442
G02 X115.038528 Y23.569056 Z-0.125000 I-0.453825 J3.796177
G02 X114.975088 Y23.563023 Z-0.125000 I-0.412600 J4.002033
G02 X114.911561 Y23.557983 Z-0.125000 I-0.358244 J4.112335
G02 X114.846302 Y23.553805 Z-0.125000 I-0.310336 J4.335578
G02 X114.780987 Y23.550596 Z-0.125000 I-0.251518 J4.453822
G02 X114.713909 Y23.548274 Z-0.125000 I-0.196153 J4.695208
G02 X114.646805 Y23.546897 Z-0.125000 I-0.132489 J4.821772
G02 X114.577910 Y23.546430 Z-0.125000 I-0.068895 J5.082056
G02 X114.538077 Y23.546539 Z-0.125000 I-0.000000 J7.310246
G02 X114.498875 Y23.546861 Z-0.125000 I0.038583 J7.080685
G02 X114.459676 Y23.547402 Z-0.125000 I0.076549 J6.967890
G02 X114.421105 Y23.548153 Z-0.125000 I0.112086 J6.746879
G02 X114.382539 Y23.549126 Z-0.125000 I0.148244 J6.638103
G02 X114.344600 Y23.550306 Z-0.125000 I0.180852 J6.425467
G02 X114.306668 Y23.551712 Z-0.125000 I0.215261 J6.320623
G02 X114.269360 Y23.553321 Z-0.125000 I0.245058 J6.116192
G02 X114.232062 Y23.555159 Z-0.125000 I0.277777 J6.015194
G02 X114.195385 Y23.557197 Z-0.125000 I0.304880 J5.818793
G02 X114.158721 Y23.559467 Z-0.125000 I0.335967 J5.721554
G02 X114.122675 Y23.561934 Z-0.125000 I0.360495 J5.533011
G02 X114.086646 Y23.564637 Z-0.125000 I0.390009 J5.439446
G02 X114.051230 Y23.567533 Z-0.125000 I0.412078 J5.258589
G02 X114.015835 Y23.570668 Z-0.125000 I0.440079 J5.168610
G02 X113.981050 Y23.573993 Z-0.125000 I0.459807 J4.995266
G02 X113.946289 Y23.577561 Z-0.125000 I0.486353 J4.908788
G02 X113.912135 Y23.581314 Z-0.125000 I0.503857 J4.742783
G02 X113.878009 Y23.585315 Z-0.125000 I0.529007 J4.659719
G02 X113.844485 Y23.589496 Z-0.125000 I0.544405 J4.500882
G02 X113.810994 Y23.593930 Z-0.125000 I0.568218 J4.421146
G02 X113.778100 Y23.598540 Z-0.125000 I0.581628 J4.269303
G02 X113.745243 Y23.603406 Z-0.125000 I0.604163 J4.192809
G02 X113.712980 Y23.608446 Z-0.125000 I0.615701 J4.047787
G02 X113.680758 Y23.613744 Z-0.125000 I0.637017 J3.974448
G02 X113.649125 Y23.619212 Z-0.125000 I0.646801 J3.836076
G02 X113.617538 Y23.624943 Z-0.125000 I0.666958 J3.765806
G02 X113.586535 Y23.630840 Z-0.125000 I0.675105 J3.633910
G02 X113.555584 Y23.637004 Z-0.125000 I0.694161 J3.566622
G02 X113.525210 Y23.643329 Z-0.125000 I0.700789 J3.441030
G02 X113.494894 Y23.649925 Z-0.125000 I0.718802 J3.376639
G02 X113.465150 Y23.656680 Z-0.125000 I0.724030 J3.257178
G02 X113.435668 Y23.663852 Z-0.125000 I1.557620 J6.466972
G02 X113.406381 Y23.671119 Z-0.125000 I1.569619 J6.388640
G02 X113.377129 Y23.678520 Z-0.125000 I1.590117 J6.346298
G02 X113.348070 Y23.686015 Z-0.125000 I1.601705 J6.269749
G02 X113.319047 Y23.693646 Z-0.125000 I1.621890 J6.228179
G02 X113.290217 Y23.701369 Z-0.125000 I1.633089 J6.153390
G02 X113.261423 Y23.709229 Z-0.125000 I1.652972 J6.112580
G02 X113.232821 Y23.717181 Z-0.125000 I1.663807 J6.039529
G02 X113.204256 Y23.725270 Z-0.125000 I1.683399 J5.999467
G02 X113.175882 Y23.733451 Z-0.125000 I1.693891 J5.928130
G02 X113.147548 Y23.741768 Z-0.125000 I1.713205 J5.888806
G02 X113.119401 Y23.750178 Z-0.125000 I1.723377 J5.819160
G02 X113.091296 Y23.758724 Z-0.125000 I1.742423 J5.780562
G02 X113.063378 Y23.767363 Z-0.125000 I1.752298 J5.712585
G02 X113.035503 Y23.776138 Z-0.125000 I1.771089 J5.674701
G02 X113.007813 Y23.785005 Z-0.125000 I1.780690 J5.608370
G02 X112.980167 Y23.794009 Z-0.125000 I1.799236 J5.571188
G02 X112.952704 Y23.803105 Z-0.125000 I1.808586 J5.506480
G02 X112.925288 Y23.812338 Z-0.125000 I1.826899 J5.469990
G02 X112.898054 Y23.821663 Z-0.125000 I1.836021 J5.406882
G02 X112.870867 Y23.831125 Z-0.125000 I1.854112 J5.371072
G02 X112.843861 Y23.840678 Z-0.125000 I1.863029 J5.309541
G02 X112.816904 Y23.850369 Z-0.125000 I1.880910 J5.274400
G02 X112.790126 Y23.860151 Z-0.125000 I1.889644 J5.214423
G02 X112.763398 Y23.870071 Z-0.125000 I1.907327 J5.179939
G02 X112.736848 Y23.880082 Z-0.125000 I1.915902 J5.121494
G02 X112.710350 Y23.890231 Z-0.125000 I1.933397 J5.087655
G02 X112.684028 Y23.900470 Z-0.125000 I1.941835 J5.030718
G02 X112.657759 Y23.910848 Z-0.125000 I1.959154 J4.997514
G02 X112.631665 Y23.921316 Z-0.125000 I1.967478 J4.942063
G02 X112.605626 Y23.931923 Z-0.125000 I1.984634 J4.909481
G02 X112.579760 Y23.942620 Z-0.125000 I1.992867 J4.855493
G01 X112.579760 Y25.172510 Z-0.125000
G01 X112.724460 Y25.172510 Z-0.125000
G03 X112.750190 Y25.152193 Z-0.125000 I1.919828 J2.404830
G03 X112.776082 Y25.132192 Z-0.125000 I1.886310 J2.415176
G03 X112.802186 Y25.112469 Z-0.125000 I1.857009 J2.430714
G03 X112.828457 Y25.093058 Z-0.125000 I1.825031 J2.442575
G03 X112.854935 Y25.073930 Z-0.125000 I1.796281 J2.458594
G03 X112.881587 Y25.055109 Z-0.125000 I1.765741 J2.472035
G03 X112.908438 Y25.036575 Z-0.125000 I1.737492 J2.488568
G03 X112.935469 Y25.018344 Z-0.125000 I1.708288 J2.503654
G03 X112.962695 Y25.000404 Z-0.125000 I1.680489 J2.520734
G03 X112.990106 Y24.982763 Z-0.125000 I1.652519 J2.537530
G03 X113.017705 Y24.965417 Z-0.125000 I1.625118 J2.555188
G03 X113.045496 Y24.948366 Z-0.125000 I1.598280 J2.573759
G03 X113.073469 Y24.931615 Z-0.125000 I1.571227 J2.592028
G03 X113.101640 Y24.915153 Z-0.125000 I1.545420 J2.612439
G03 X113.129986 Y24.898996 Z-0.125000 I1.518663 J2.631351
G03 X113.158538 Y24.883125 Z-0.125000 I1.493784 J2.653668
G03 X113.187257 Y24.867561 Z-0.125000 I1.467273 J2.673255
G03 X113.216189 Y24.852281 Z-0.125000 I1.443220 J2.697542
G03 X113.245282 Y24.837311 Z-0.125000 I1.416903 J2.717838
G03 X113.274594 Y24.822621 Z-0.125000 I1.393575 J2.744160
G03 X113.304060 Y24.808244 Z-0.125000 I1.367401 J2.765196
G03 X113.333752 Y24.794145 Z-0.125000 I1.344696 J2.793618
G03 X113.363592 Y24.780362 Z-0.125000 I1.318614 J2.815426
G03 X113.393664 Y24.766854 Z-0.125000 I1.296429 J2.846014
G03 X113.423877 Y24.753663 Z-0.125000 I1.270389 J2.868627
G03 X113.454330 Y24.740746 Z-0.125000 I1.248623 J2.901446
G03 X113.484917 Y24.728149 Z-0.125000 I1.222572 J2.924895
G03 X113.515750 Y24.715823 Z-0.125000 I1.201123 J2.960010
G03 X113.546709 Y24.703819 Z-0.125000 I1.175012 J2.984329
G03 X113.577923 Y24.692085 Z-0.125000 I1.153777 J3.021804
G03 X113.609256 Y24.680672 Z-0.125000 I1.127554 J3.047024
G03 X113.640850 Y24.669530 Z-0.125000 I1.106433 J3.086925
G03 X113.672764 Y24.658691 Z-0.125000 I1.234561 J3.582616
G03 X113.704422 Y24.648254 Z-0.125000 I1.176321 J3.514795
G03 X113.736173 Y24.638103 Z-0.125000 I1.132179 J3.486783
G03 X113.767672 Y24.628350 Z-0.125000 I1.076785 J3.421802
G03 X113.799259 Y24.618889 Z-0.125000 I1.034110 J3.394863
G03 X113.830598 Y24.609819 Z-0.125000 I0.981427 J3.332689
G03 X113.862021 Y24.601046 Z-0.125000 I0.940151 J3.306806
G03 X113.893201 Y24.592661 Z-0.125000 I0.890043 J3.247409
G03 X113.924461 Y24.584577 Z-0.125000 I0.850098 J3.222566
G03 X113.955482 Y24.576876 Z-0.125000 I0.802430 J3.165913
G03 X113.986577 Y24.569480 Z-0.125000 I0.763748 J3.142095
G03 X114.017439 Y24.562463 Z-0.125000 I0.718384 J3.088154
G03 X114.048370 Y24.555756 Z-0.125000 I0.680896 J3.065344
G03 X114.079074 Y24.549423 Z-0.125000 I0.637701 J3.014083
G03 X114.109840 Y24.543404 Z-0.125000 I0.601340 J2.992266
G03 X114.140385 Y24.537755 Z-0.125000 I0.560177 J2.943653
G03 X114.170987 Y24.532425 Z-0.125000 I0.524875 J2.922812
G03 X114.201374 Y24.527460 Z-0.125000 I0.485609 J2.876816
G03 X114.231811 Y24.522818 Z-0.125000 I0.451298 J2.856935
G03 X114.262039 Y24.518538 Z-0.125000 I0.413793 J2.813524
G03 X114.292312 Y24.514584 Z-0.125000 I0.380405 J2.794587
G03 X114.322382 Y24.510988 Z-0.125000 I0.344526 J2.753728
G03 X114.352489 Y24.507722 Z-0.125000 I0.311992 J2.735720
G03 X114.382401 Y24.504811 Z-0.125000 I0.277603 J2.697382
G03 X114.412344 Y24.502233 Z-0.125000 I0.245855 J2.680285
G03 X114.442098 Y24.500007 Z-0.125000 I0.212820 J2.644437
G03 X114.471875 Y24.498117 Z-0.125000 I0.181792 J2.628236
G03 X114.501472 Y24.496575 Z-0.125000 I0.149975 J2.594845
G03 X114.531084 Y24.495373 Z-0.125000 I0.119597 J2.579524
G03 X114.560522 Y24.494516 Z-0.125000 I0.088863 J2.548558
G03 X114.589969 Y24.494001 Z-0.125000 I0.059068 J2.534100
G03 X114.619250 Y24.493830 Z-0.125000 I0.029281 J2.505528
G03 X114.626786 Y24.493850 Z-0.125000 I-0.000000 J1.432148
G03 X114.634617 Y24.493911 Z-0.125000 I-0.008140 J1.547049
G03 X114.642449 Y24.494011 Z-0.125000 I-0.016589 J1.606767
G03 X114.650577 Y24.494153 Z-0.125000 I-0.026310 J1.730951
G03 X114.658704 Y24.494334 Z-0.125000 I-0.035722 J1.795361
G03 X114.667129 Y24.494558 Z-0.125000 I-0.047123 J1.929196
G03 X114.675552 Y24.494818 Z-0.125000 I-0.057549 J1.998481
G03 X114.684273 Y24.495124 Z-0.125000 I-0.070730 J2.142331
G03 X114.692992 Y24.495464 Z-0.125000 I-0.082220 J2.216674
G03 X114.702009 Y24.495851 Z-0.125000 I-0.097281 J2.370906
G03 X114.711024 Y24.496272 Z-0.125000 I-0.109884 J2.450490
G03 X114.720337 Y24.496741 Z-0.125000 I-0.126926 J2.615471
G03 X114.729648 Y24.497242 Z-0.125000 I-0.140692 J2.700480
G03 X114.739257 Y24.497792 Z-0.125000 I-0.159815 J2.876575
G03 X114.748865 Y24.498374 Z-0.125000 I-0.174795 J2.967191
G03 X114.758770 Y24.499005 Z-0.125000 I-0.196098 J3.154767
G03 X114.768673 Y24.499667 Z-0.125000 I-0.212341 J3.251174
G03 X114.778875 Y24.500380 Z-0.125000 I-0.235924 J3.450597
G03 X114.789074 Y24.501122 Z-0.125000 I-0.253481 J3.552978
G03 X114.799572 Y24.501916 Z-0.125000 I-0.279445 J3.764614
G03 X114.810067 Y24.502739 Z-0.125000 I-0.298365 J3.873152
G03 X114.820861 Y24.503614 Z-0.125000 I-0.326810 J4.097368
G03 X114.831653 Y24.504517 Z-0.125000 I-0.347143 J4.212246
G03 X114.842742 Y24.505474 Z-0.125000 I-0.378168 J4.449407
G03 X114.853830 Y24.506458 Z-0.125000 I-0.399965 J4.570808
G03 X114.865216 Y24.507495 Z-0.125000 I-0.433671 J4.821281
G03 X114.876600 Y24.508559 Z-0.125000 I-0.456981 J4.949389
G03 X114.888282 Y24.509678 Z-0.125000 I-0.493468 J5.213540
G03 X114.899962 Y24.510823 Z-0.125000 I-0.518341 J5.348537
G03 X114.911940 Y24.512023 Z-0.125000 I-0.557708 J5.626732
G03 X114.923916 Y24.513249 Z-0.125000 I-0.584195 J5.768803
G03 X114.936190 Y24.514530 Z-0.125000 I-0.626543 J6.061408
G03 X114.948459 Y24.515858 Z-0.125000 I-0.231461 J2.195751
G03 X114.960454 Y24.517225 Z-0.125000 I-0.233222 J2.099805
G03 X114.972440 Y24.518661 Z-0.125000 I-0.239828 J2.052330
G03 X114.984152 Y24.520135 Z-0.125000 I-0.240783 J1.961052
G03 X114.995855 Y24.521679 Z-0.125000 I-0.246858 J1.915827
G03 X115.007286 Y24.523259 Z-0.125000 I-0.247055 J1.829094
G03 X115.018706 Y24.524912 Z-0.125000 I-0.252621 J1.786059
G03 X115.029854 Y24.526599 Z-0.125000 I-0.252106 J1.703749
G03 X115.040991 Y24.528359 Z-0.125000 I-0.257188 J1.662841
G03 X115.051857 Y24.530153 Z-0.125000 I-0.256008 J1.584831
G03 X115.062710 Y24.532022 Z-0.125000 I-0.260629 J1.545990
G03 X115.073295 Y24.533922 Z-0.125000 I-0.258830 J1.472157
G03 X115.083865 Y24.535899 Z-0.125000 I-0.263013 J1.435322
G03 X115.094167 Y24.537906 Z-0.125000 I-0.260642 J1.365543
G03 X115.104454 Y24.539992 Z-0.125000 I-0.264410 J1.330652
G03 X115.114475 Y24.542105 Z-0.125000 I-0.261513 J1.264805
G03 X115.124478 Y24.544299 Z-0.125000 I-0.264890 J1.231797
G03 X115.134217 Y24.546519 Z-0.125000 I-0.261515 J1.169759
G03 X115.143937 Y24.548821 Z-0.125000 I-0.264524 J1.138572
G03 X115.153395 Y24.551147 Z-0.125000 I-0.260716 J1.080221
G03 X115.162831 Y24.553558 Z-0.125000 I-0.263381 J1.050794
G03 X115.172007 Y24.555991 Z-0.125000 I-0.259187 J0.996006
G03 X115.181159 Y24.558509 Z-0.125000 I-0.261531 J0.968278
G03 X115.190054 Y24.561049 Z-0.125000 I-0.256998 J0.916931
G03 X115.198923 Y24.563676 Z-0.125000 I-0.259044 J0.890840
G03 X115.207536 Y24.566322 Z-0.125000 I-0.254218 J0.842812
G03 X115.216121 Y24.569057 Z-0.125000 I-0.255990 J0.818297
G03 X115.224452 Y24.571810 Z-0.125000 I-0.250918 J0.773465
G03 X115.232753 Y24.574653 Z-0.125000 I-0.252439 J0.750464
G03 X115.240804 Y24.577512 Z-0.125000 I-0.247167 J0.708705
G03 X115.248821 Y24.580464 Z-0.125000 I-0.248461 J0.687158
G03 X115.256590 Y24.583430 Z-0.125000 I-0.243036 J0.648349
G03 X115.266045 Y24.587350 Z-0.125000 I-0.406456 J0.993720
G03 X115.275322 Y24.591301 Z-0.125000 I-0.403687 J0.960709
G03 X115.284561 Y24.595343 Z-0.125000 I-0.406881 J0.942663
G03 X115.293624 Y24.599415 Z-0.125000 I-0.404018 J0.911326
G03 X115.302646 Y24.603578 Z-0.125000 I-0.407067 J0.894044
G03 X115.311495 Y24.607771 Z-0.125000 I-0.404141 J0.864328
G03 X115.320300 Y24.612055 Z-0.125000 I-0.407059 J0.847783
G03 X115.328935 Y24.616369 Z-0.125000 I-0.404099 J0.819636
G03 X115.337524 Y24.620775 Z-0.125000 I-0.406903 J0.803802
G03 X115.345945 Y24.625210 Z-0.125000 I-0.403939 J0.777170
G03 X115.354317 Y24.629737 Z-0.125000 I-0.406642 J0.762020
G03 X115.362524 Y24.634294 Z-0.125000 I-0.403705 J0.736850
G03 X115.370679 Y24.638942 Z-0.125000 I-0.406323 J0.722357
G03 X115.378672 Y24.643619 Z-0.125000 I-0.403441 J0.698597
G03 X115.386611 Y24.648389 Z-0.125000 I-0.405989 J0.684736
G03 X115.394390 Y24.653188 Z-0.125000 I-0.403192 J0.662332
G03 X115.402112 Y24.658078 Z-0.125000 I-0.405685 J0.649075
G03 X115.409677 Y24.662998 Z-0.125000 I-0.403004 J0.627974
G03 X115.417182 Y24.668010 Z-0.125000 I-0.405456 J0.615295
G03 X115.424534 Y24.673051 Z-0.125000 I-0.402921 J0.595445
G03 X115.431822 Y24.678184 Z-0.125000 I-0.405348 J0.583317
G03 X115.438960 Y24.683347 Z-0.125000 I-0.402987 J0.564665
G03 X115.446031 Y24.688600 Z-0.125000 I-0.405404 J0.553061
G03 X115.452955 Y24.693884 Z-0.125000 I-0.403248 J0.535553
G03 X115.459809 Y24.699259 Z-0.125000 I-0.405669 J0.524448
G03 X115.466520 Y24.704665 Z-0.125000 I-0.403748 J0.508032
G03 X115.473157 Y24.710160 Z-0.125000 I-0.406189 J0.497397
G03 X115.479654 Y24.715687 Z-0.125000 I-0.404533 J0.482020
G03 X115.486074 Y24.721303 Z-0.125000 I-0.407008 J0.471830
G03 X115.492357 Y24.726952 Z-0.125000 I-0.405646 J0.457439
G03 X115.498561 Y24.732689 Z-0.125000 I-0.408171 J0.447667
G03 X115.504630 Y24.738460 Z-0.125000 I-0.407133 J0.434209
G03 X115.510782 Y24.744365 Z-0.125000 I-0.189424 J0.203478
G03 X115.516727 Y24.750435 Z-0.125000 I-0.194152 J0.196134
G03 X115.522483 Y24.756685 Z-0.125000 I-0.199745 J0.189730
G03 X115.528044 Y24.763110 Z-0.125000 I-0.205558 J0.183531
G03 X115.533405 Y24.769703 Z-0.125000 I-0.211550 J0.177468
G03 X115.538580 Y24.776485 Z-0.125000 I-0.218621 J0.172221
G03 X115.543547 Y24.783422 Z-0.125000 I-0.225098 J0.166402
G03 X115.548336 Y24.790560 Z-0.125000 I-0.233601 J0.161917
G03 X115.552909 Y24.797839 Z-0.125000 I-0.240649 J0.156245
G03 X115.557312 Y24.805335 Z-0.125000 I-0.250757 J0.152328
G03 X115.561492 Y24.812957 Z-0.125000 I-0.258461 J0.146706
G03 X115.565507 Y24.820810 Z-0.125000 I-0.270348 J0.143165
G03 X115.569295 Y24.828775 Z-0.125000 I-0.278794 J0.137497
G03 X115.572921 Y24.836985 Z-0.125000 I-0.292633 J0.134140
G03 X115.576319 Y24.845292 Z-0.125000 I-0.301906 J0.128330
G03 X115.579555 Y24.853860 Z-0.125000 I-0.317872 J0.124963
G03 X115.582563 Y24.862511 Z-0.125000 I-0.328057 J0.118915
G03 X115.585409 Y24.871435 Z-0.125000 I-0.346323 J0.115346
G03 X115.588027 Y24.880429 Z-0.125000 I-0.357506 J0.108963
G03 X115.590482 Y24.889710 Z-0.125000 I-0.378245 J0.104999
G03 X115.592711 Y24.899048 Z-0.125000 I-0.390512 J0.098185
G03 X115.594774 Y24.908685 Z-0.125000 I-0.413898 J0.093633
G03 X115.596616 Y24.918367 Z-0.125000 I-0.427335 J0.086293
G03 X115.598286 Y24.928360 Z-0.125000 I-0.453540 J0.080960
G03 X115.599740 Y24.938387 Z-0.125000 I-0.468232 J0.072997
G03 X115.601018 Y24.948735 Z-0.125000 I-0.497431 J0.066690
G03 X115.602084 Y24.959107 Z-0.125000 I-0.513465 J0.058009
G03 X115.602969 Y24.969810 Z-0.125000 I-0.545830 J0.050534
G03 X115.603648 Y24.980528 Z-0.125000 I-0.563291 J0.041039
G03 X115.604140 Y24.991585 Z-0.125000 I-0.598995 J0.032204
G03 X115.604431 Y25.002649 Z-0.125000 I-0.617969 J0.021799
G03 X115.604530 Y25.014060 Z-0.125000 I-0.657186 J0.011411
G03 X115.604387 Y25.024607 Z-0.125000 I-0.390357 J-0.000000
G03 X115.603965 Y25.034973 Z-0.125000 I-0.377520 J-0.010204
G03 X115.603255 Y25.045323 Z-0.125000 I-0.371421 J-0.020260
G03 X115.602269 Y25.055509 Z-0.125000 I-0.360691 J-0.029783
G03 X115.600994 Y25.065662 Z-0.125000 I-0.355344 J-0.039484
G03 X115.599443 Y25.075668 Z-0.125000 I-0.346631 J-0.048595
G03 X115.597602 Y25.085625 Z-0.125000 I-0.341989 J-0.058076
G03 X115.595486 Y25.095451 Z-0.125000 I-0.335205 J-0.067044
G03 X115.593082 Y25.105210 Z-0.125000 I-0.331223 J-0.076439
G03 X115.590399 Y25.114856 Z-0.125000 I-0.326278 J-0.085532
G03 X115.587431 Y25.124419 Z-0.125000 I-0.322910 J-0.094977
G03 X115.584182 Y25.133885 Z-0.125000 I-0.319717 J-0.104466
G03 X115.580652 Y25.143251 Z-0.125000 I-0.316916 J-0.114094
G03 X115.576834 Y25.152537 Z-0.125000 I-0.315386 J-0.124247
G03 X115.572743 Y25.161707 Z-0.125000 I-0.313108 J-0.134194
G03 X115.568355 Y25.170813 Z-0.125000 I-0.313151 J-0.145281
G03 X115.563704 Y25.179787 Z-0.125000 I-0.311349 J-0.155680
G03 X115.558746 Y25.188711 Z-0.125000 I-0.312877 J-0.167971
G03 X115.553535 Y25.197490 Z-0.125000 I-0.311505 J-0.178956
G03 X115.548007 Y25.206233 Z-0.125000 I-0.314429 J-0.192721
G03 X115.542237 Y25.214818 Z-0.125000 I-0.313443 J-0.204426
G03 X115.536137 Y25.223378 Z-0.125000 I-0.317673 J-0.219935
G03 X115.529808 Y25.231770 Z-0.125000 I-0.317026 J-0.232493
G03 X115.523136 Y25.240146 Z-0.125000 I-0.322475 J-0.250016
G03 X115.516249 Y25.248346 Z-0.125000 I-0.322122 J-0.263562
G03 X115.509005 Y25.256537 Z-0.125000 I-0.328698 J-0.283369
G03 X115.501560 Y25.264545 Z-0.125000 I-0.328594 J-0.298036
G03 X115.493744 Y25.272551 Z-0.125000 I-0.336209 J-0.320397
G03 X115.485740 Y25.280369 Z-0.125000 I-0.336309 J-0.336319
G03 X115.477352 Y25.288189 Z-0.125000 I-0.344873 J-0.361504
G03 X115.468789 Y25.295817 Z-0.125000 I-0.345132 J-0.378815
G03 X115.459830 Y25.303450 Z-0.125000 I-0.354555 J-0.407093
G03 X115.450920 Y25.311103 Z-0.125000 I-0.355075 J-0.404377
G03 X115.441650 Y25.318724 Z-0.125000 I-0.361339 J-0.430091
G03 X115.432221 Y25.326147 Z-0.125000 I-0.359950 J-0.447509
G03 X115.422420 Y25.333540 Z-0.125000 I-0.366835 J-0.476106
G03 X115.412472 Y25.340734 Z-0.125000 I-0.365461 J-0.494911
G03 X115.402141 Y25.347899 Z-0.125000 I-0.372870 J-0.526619
G03 X115.391674 Y25.354864 Z-0.125000 I-0.371462 J-0.546922
G03 X115.380812 Y25.361800 Z-0.125000 I-0.379296 J-0.581967
G03 X115.369825 Y25.368536 Z-0.125000 I-0.377805 J-0.603881
G03 X115.358433 Y25.375244 Z-0.125000 I-0.385964 J-0.642490
G03 X115.346926 Y25.381752 Z-0.125000 I-0.384341 J-0.666128
G03 X115.335004 Y25.388230 Z-0.125000 I-0.392728 J-0.708527
G03 X115.322977 Y25.394510 Z-0.125000 I-0.390924 J-0.734002
G03 X115.310526 Y25.400759 Z-0.125000 I-0.399439 J-0.780418
G03 X115.297978 Y25.406811 Z-0.125000 I-0.397405 J-0.807842
G03 X115.284998 Y25.412830 Z-0.125000 I-0.405949 J-0.858501
G03 X115.271929 Y25.418655 Z-0.125000 I-0.403636 J-0.887987
G03 X115.258419 Y25.424444 Z-0.125000 I-0.412111 J-0.943115
